; generated by Slic3r 0.9.9 on 2013-05-19 at 18:27:43

; layer_height = 0.4
; perimeters = 3
; top_solid_layers = 3
; bottom_solid_layers = 3
; fill_density = 0.4
; perimeter_speed = 30
; infill_speed = 60
; travel_speed = 130
; nozzle_diameter = 0.5
; filament_diameter = 3
; extrusion_multiplier = 1
; perimeters extrusion width = 0.53mm
; infill extrusion width = 0.53mm
; solid infill extrusion width = 0.53mm
; top infill extrusion width = 0.53mm
; first layer extrusion width = 0.70mm

G21 ; set units to millimeters
M107
M104 S200 ; set temperature
G28 ; home all axes
G1 Z5 F5000 ; lift nozzle

M109 S200 ; wait for temperature to be reached
G90 ; use absolute coordinates
G92 E0
M82 ; use absolute distances for extrusion
G1 F1800.000 E-1.00000
G92 E0
G1 Z0.350 F7800.000
G1 X80.170 Y82.190
G1 F1800.000 E1.00000
G1 X82.190 Y80.170 F540.000 E1.09294
G1 X82.910 Y79.550 E1.12386
G1 X85.190 Y77.840 E1.21658
G1 X85.990 Y77.330 E1.24745
G1 X88.500 Y75.960 E1.34049
G1 X89.380 Y75.560 E1.37194
G1 X92.050 Y74.570 E1.46458
G1 X92.940 Y74.310 E1.49475
G1 X95.730 Y73.700 E1.58767
G1 X96.680 Y73.560 E1.61891
G1 X99.520 Y73.360 E1.71154
G1 X100.450 Y73.360 E1.74180
G1 X103.320 Y73.560 E1.83540
G1 X104.290 Y73.700 E1.86729
G1 X107.060 Y74.310 E1.95957
G1 X107.940 Y74.570 E1.98942
G1 X110.610 Y75.560 E2.08207
G1 X111.490 Y75.960 E2.11352
G1 X114.000 Y77.330 E2.20656
G1 X114.810 Y77.850 E2.23787
G1 X117.100 Y79.570 E2.33105
G1 X117.810 Y80.180 E2.36151
G1 X119.820 Y82.190 E2.45399
G1 X120.440 Y82.910 E2.48491
G1 X122.150 Y85.190 E2.57763
G1 X122.660 Y85.990 E2.60850
G1 X124.030 Y88.500 E2.70153
G1 X124.430 Y89.380 E2.73298
G1 X125.420 Y92.050 E2.82563
G1 X125.680 Y92.930 E2.85549
G1 X126.290 Y95.700 E2.94777
G1 X126.430 Y96.670 E2.97966
G1 X126.630 Y99.530 E3.07293
G1 X126.630 Y100.460 E3.10319
G1 X126.430 Y103.310 E3.19614
G1 X126.290 Y104.260 E3.22739
G1 X125.680 Y107.050 E3.32030
G1 X125.420 Y107.950 E3.35078
G1 X124.420 Y110.640 E3.44415
G1 X124.020 Y111.510 E3.47531
G1 X122.660 Y114.000 E3.56762
G1 X122.150 Y114.800 E3.59849
G1 X120.440 Y117.080 E3.69121
G1 X119.820 Y117.800 E3.72212
G1 X117.790 Y119.830 E3.81553
G1 X117.070 Y120.450 E3.84644
G1 X114.800 Y122.150 E3.93871
G1 X114.000 Y122.660 E3.96958
G1 X111.490 Y124.030 E4.06261
G1 X110.610 Y124.430 E4.09406
G1 X107.940 Y125.420 E4.18671
G1 X107.050 Y125.680 E4.21688
G1 X104.260 Y126.290 E4.30980
G1 X103.310 Y126.430 E4.34104
G1 X100.460 Y126.630 E4.43399
G1 X99.520 Y126.630 E4.46458
G1 X96.680 Y126.430 E4.55720
G1 X95.730 Y126.290 E4.58845
G1 X92.940 Y125.680 E4.68136
G1 X92.050 Y125.420 E4.71153
G1 X89.380 Y124.430 E4.80418
G1 X88.500 Y124.030 E4.83563
G1 X85.990 Y122.660 E4.92867
G1 X85.190 Y122.150 E4.95953
G1 X82.910 Y120.440 E5.05226
G1 X82.190 Y119.820 E5.08317
G1 X80.180 Y117.810 E5.17566
G1 X79.570 Y117.100 E5.20611
G1 X77.850 Y114.810 E5.29929
G1 X77.330 Y114.000 E5.33061
G1 X75.960 Y111.490 E5.42364
G1 X75.560 Y110.610 E5.45509
G1 X74.570 Y107.940 E5.54774
G1 X74.310 Y107.050 E5.57791
G1 X73.700 Y104.260 E5.67083
G1 X73.560 Y103.310 E5.70207
G1 X73.360 Y100.460 E5.79502
G1 X73.360 Y99.520 E5.82560
G1 X73.560 Y96.680 E5.91823
G1 X73.700 Y95.730 E5.94948
G1 X74.310 Y92.940 E6.04239
G1 X74.570 Y92.040 E6.07287
G1 X75.560 Y89.380 E6.16522
G1 X75.950 Y88.520 E6.19594
G1 X77.320 Y86.000 E6.28926
G1 X77.840 Y85.190 E6.32058
G1 X79.550 Y82.910 E6.41330
G1 X80.106 Y82.265 E6.44101
G1 F1800.000 E5.44101
G92 E0
G1 X89.913 Y90.804 F7800.000
G1 F1800.000 E1.00000
G1 X91.774 Y89.107 F540.000 E1.08195
G1 X93.916 Y87.781 E1.16390
G1 X96.265 Y86.871 E1.24586
G1 X98.741 Y86.408 E1.32781
G1 X101.259 Y86.408 E1.40976
G1 X103.735 Y86.871 E1.49171
G1 X106.084 Y87.781 E1.57366
G1 X108.226 Y89.107 E1.65562
G1 X110.087 Y90.804 E1.73756
G1 X111.605 Y92.814 E1.81952
G1 X112.728 Y95.069 E1.90147
G1 X113.417 Y97.492 E1.98342
G1 X113.650 Y100.000 E2.06538
G1 X113.417 Y102.508 E2.14733
G1 X112.728 Y104.931 E2.22928
G1 X111.605 Y107.186 E2.31123
G1 X110.087 Y109.196 E2.39319
G1 X108.226 Y110.893 E2.47514
G1 X106.084 Y112.219 E2.55709
G1 X103.735 Y113.129 E2.63904
G1 X101.259 Y113.592 E2.72099
G1 X98.740 Y113.592 E2.80295
G1 X96.265 Y113.129 E2.88490
G1 X93.916 Y112.219 E2.96685
G1 X91.774 Y110.893 E3.04881
G1 X89.913 Y109.196 E3.13075
G1 X88.395 Y107.186 E3.21270
G1 X87.272 Y104.931 E3.29466
G1 X86.583 Y102.508 E3.37661
G1 X86.350 Y100.000 E3.45856
G1 X86.583 Y97.492 E3.54052
G1 X87.272 Y95.069 E3.62247
G1 X88.395 Y92.814 E3.70442
G1 X89.853 Y90.883 E3.78317
G1 X90.400 Y91.249 F7800.000
G1 X92.172 Y89.634 F540.000 E3.86116
G1 X94.210 Y88.372 E3.93915
G1 X96.445 Y87.506 E4.01714
G1 X98.801 Y87.066 E4.09513
G1 X101.199 Y87.066 E4.17312
G1 X103.555 Y87.506 E4.25111
G1 X105.790 Y88.372 E4.32910
G1 X107.828 Y89.634 E4.40709
G1 X109.599 Y91.249 E4.48507
G1 X111.044 Y93.162 E4.56307
G1 X112.113 Y95.308 E4.64106
G1 X112.769 Y97.613 E4.71905
G1 X112.990 Y100.000 E4.79704
G1 X112.769 Y102.387 E4.87503
G1 X112.113 Y104.692 E4.95302
G1 X111.044 Y106.838 E5.03101
G1 X109.600 Y108.751 E5.10900
G1 X107.828 Y110.366 E5.18699
G1 X105.790 Y111.628 E5.26498
G1 X103.555 Y112.494 E5.34297
G1 X101.199 Y112.934 E5.42096
G1 X98.801 Y112.934 E5.49896
G1 X96.445 Y112.494 E5.57694
G1 X94.210 Y111.628 E5.65493
G1 X92.172 Y110.366 E5.73293
G1 X90.400 Y108.751 E5.81091
G1 X88.956 Y106.838 E5.88890
G1 X87.887 Y104.692 E5.96689
G1 X87.231 Y102.387 E6.04488
G1 X87.010 Y100.000 E6.12287
G1 X87.231 Y97.613 E6.20086
G1 X87.887 Y95.308 E6.27885
G1 X88.956 Y93.162 E6.35684
G1 X90.341 Y91.327 E6.43163
G1 X90.888 Y91.693 F7800.000
G1 X92.570 Y90.160 F378.000 E6.50566
G1 X94.504 Y88.963 E6.57969
G1 X96.626 Y88.141 E6.65372
G1 X98.862 Y87.723 E6.72774
G1 X101.138 Y87.723 E6.80177
G1 X103.374 Y88.141 E6.87580
G1 X105.496 Y88.963 E6.94983
G1 X107.430 Y90.160 E7.02386
G1 X109.112 Y91.693 E7.09788
G1 X110.483 Y93.509 E7.17191
G1 X111.497 Y95.546 E7.24594
G1 X112.120 Y97.734 E7.31997
G1 X112.330 Y100.000 E7.39400
G1 X112.120 Y102.266 E7.46803
G1 X111.497 Y104.454 E7.54205
G1 X110.483 Y106.491 E7.61608
G1 X109.112 Y108.307 E7.69011
G1 X107.430 Y109.840 E7.76414
G1 X105.496 Y111.037 E7.83817
G1 X103.374 Y111.859 E7.91220
G1 X101.138 Y112.277 E7.98622
G1 X98.862 Y112.277 E8.06025
G1 X96.626 Y111.859 E8.13428
G1 X94.504 Y111.037 E8.20831
G1 X92.570 Y109.839 E8.28234
G1 X90.888 Y108.307 E8.35637
G1 X89.517 Y106.491 E8.43039
G1 X88.503 Y104.454 E8.50442
G1 X87.880 Y102.266 E8.57845
G1 X87.670 Y100.000 E8.65248
G1 X87.880 Y97.734 E8.72651
G1 X88.503 Y95.546 E8.80053
G1 X89.517 Y93.509 E8.87456
G1 X90.829 Y91.772 E8.94539
G1 X90.708 Y91.061 F7800.000
G1 X86.130 Y87.981
G1 X87.981 Y86.130 F540.000 E9.03058
G1 X90.078 Y84.560 E9.11578
G1 X92.376 Y83.305 E9.20097
G1 X94.829 Y82.390 E9.28617
G1 X97.388 Y81.834 E9.37137
G1 X100.000 Y81.647 E9.45656
G1 X102.612 Y81.834 E9.54176
G1 X105.171 Y82.390 E9.62696
G1 X107.624 Y83.305 E9.71215
G1 X109.922 Y84.560 E9.79735
G1 X112.019 Y86.130 E9.88255
G1 X113.870 Y87.981 E9.96774
G1 X115.440 Y90.078 E10.05294
G1 X116.695 Y92.376 E10.13813
G1 X117.610 Y94.829 E10.22333
G1 X118.166 Y97.388 E10.30853
G1 X118.353 Y100.000 E10.39372
G1 X118.166 Y102.612 E10.47892
G1 X117.610 Y105.171 E10.56412
G1 X116.695 Y107.624 E10.64931
G1 X115.440 Y109.922 E10.73451
G1 X113.870 Y112.019 E10.81971
G1 X112.019 Y113.870 E10.90490
G1 X109.922 Y115.440 E10.99010
G1 X107.624 Y116.695 E11.07530
G1 X105.171 Y117.610 E11.16049
G1 X102.612 Y118.166 E11.24569
G1 X100.000 Y118.353 E11.33089
G1 X97.388 Y118.166 E11.41608
G1 X94.829 Y117.610 E11.50128
G1 X92.376 Y116.695 E11.58648
G1 X90.078 Y115.440 E11.67167
G1 X87.981 Y113.870 E11.75687
G1 X86.130 Y112.019 E11.84206
G1 X84.560 Y109.922 E11.92726
G1 X83.305 Y107.624 E12.01246
G1 X82.390 Y105.171 E12.09765
G1 X81.834 Y102.612 E12.18285
G1 X81.647 Y100.000 E12.26805
G1 X81.834 Y97.388 E12.35324
G1 X82.390 Y94.829 E12.43844
G1 X83.305 Y92.376 E12.52364
G1 X84.560 Y90.078 E12.60883
G1 X86.071 Y88.060 E12.69082
G1 X85.632 Y87.550 F7800.000
G1 X87.550 Y85.632 F540.000 E12.77908
G1 X89.721 Y84.006 E12.86733
G1 X92.102 Y82.706 E12.95558
G1 X94.644 Y81.758 E13.04384
G1 X97.294 Y81.182 E13.13209
G1 X100.000 Y80.988 E13.22035
G1 X102.706 Y81.182 E13.30860
G1 X105.356 Y81.758 E13.39686
G1 X107.898 Y82.706 E13.48511
G1 X110.279 Y84.006 E13.57337
G1 X112.450 Y85.632 E13.66162
G1 X114.368 Y87.550 E13.74987
G1 X115.994 Y89.721 E13.83813
G1 X117.294 Y92.102 E13.92638
G1 X118.242 Y94.644 E14.01464
G1 X118.818 Y97.294 E14.10289
G1 X119.012 Y100.000 E14.19115
G1 X118.818 Y102.706 E14.27940
G1 X118.242 Y105.356 E14.36766
G1 X117.294 Y107.898 E14.45591
G1 X115.994 Y110.279 E14.54416
G1 X114.368 Y112.450 E14.63242
G1 X112.450 Y114.368 E14.72067
G1 X110.279 Y115.994 E14.80893
G1 X107.898 Y117.294 E14.89718
G1 X105.356 Y118.242 E14.98544
G1 X102.706 Y118.818 E15.07369
G1 X100.000 Y119.012 E15.16195
G1 X97.294 Y118.818 E15.25020
G1 X94.644 Y118.242 E15.33845
G1 X92.102 Y117.294 E15.42671
G1 X89.721 Y115.994 E15.51496
G1 X87.550 Y114.368 E15.60322
G1 X85.632 Y112.450 E15.69147
G1 X84.006 Y110.279 E15.77973
G1 X82.706 Y107.898 E15.86798
G1 X81.758 Y105.356 E15.95623
G1 X81.182 Y102.706 E16.04449
G1 X80.988 Y100.000 E16.13274
G1 X81.182 Y97.294 E16.22100
G1 X81.758 Y94.644 E16.30925
G1 X82.706 Y92.102 E16.39751
G1 X84.006 Y89.721 E16.48576
G1 X85.573 Y87.629 E16.57081
G1 X85.134 Y87.118 F7800.000
G1 X87.118 Y85.134 F378.000 E16.66212
G1 X89.365 Y83.452 E16.75343
G1 X91.829 Y82.107 E16.84475
G1 X94.458 Y81.126 E16.93606
G1 X97.201 Y80.530 E17.02737
G1 X100.000 Y80.329 E17.11868
G1 X102.799 Y80.530 E17.21000
G1 X105.542 Y81.126 E17.30131
G1 X108.171 Y82.107 E17.39262
G1 X110.635 Y83.452 E17.48393
G1 X112.882 Y85.134 E17.57525
G1 X114.866 Y87.118 E17.66656
G1 X116.548 Y89.365 E17.75787
G1 X117.893 Y91.829 E17.84918
G1 X118.874 Y94.458 E17.94050
G1 X119.470 Y97.201 E18.03181
G1 X119.671 Y100.000 E18.12312
G1 X119.470 Y102.799 E18.21443
G1 X118.874 Y105.542 E18.30575
G1 X117.893 Y108.171 E18.39706
G1 X116.548 Y110.635 E18.48837
G1 X114.866 Y112.882 E18.57968
G1 X112.882 Y114.866 E18.67100
G1 X110.635 Y116.548 E18.76231
G1 X108.171 Y117.893 E18.85362
G1 X105.542 Y118.874 E18.94493
G1 X102.799 Y119.470 E19.03624
G1 X100.000 Y119.671 E19.12756
G1 X97.201 Y119.470 E19.21887
G1 X94.458 Y118.874 E19.31018
G1 X91.829 Y117.893 E19.40150
G1 X89.365 Y116.548 E19.49281
G1 X87.118 Y114.866 E19.58412
G1 X85.134 Y112.882 E19.67543
G1 X83.452 Y110.635 E19.76674
G1 X82.107 Y108.171 E19.85806
G1 X81.126 Y105.542 E19.94937
G1 X80.530 Y102.799 E20.04068
G1 X80.329 Y100.000 E20.13199
G1 X80.530 Y97.201 E20.22331
G1 X81.126 Y94.458 E20.31462
G1 X82.107 Y91.829 E20.40593
G1 X83.452 Y89.365 E20.49724
G1 X85.075 Y87.197 E20.58535
G1 X85.776 Y87.258 F7800.000
G1 X88.490 Y108.101
G1 X82.258 Y101.870 F1080.000 E20.87350
G1 X82.186 Y100.864 E20.90647
G1 X87.223 Y105.901 E21.13939
G1 X86.614 Y104.358 E21.19364
G1 X82.133 Y99.877 E21.40084
G1 X82.195 Y99.006 E21.42941
G1 X86.242 Y103.053 E21.61655
G1 X86.051 Y101.927 E21.65390
G1 X82.258 Y98.134 E21.82928
G1 X82.343 Y97.286 E21.85716
G1 X85.955 Y100.898 E22.02418
G1 X85.882 Y99.891 E22.05719
G1 X82.510 Y96.519 E22.21311
G1 X82.677 Y95.752 E22.23878
G1 X85.961 Y99.036 E22.39065
G1 X86.040 Y98.181 E22.41872
G1 X82.844 Y94.985 E22.56653
G1 X83.095 Y94.302 E22.59032
G1 X86.131 Y97.338 E22.73071
G1 X86.338 Y96.611 E22.75542
G1 X83.349 Y93.622 E22.89365
G1 X83.603 Y92.942 E22.91738
G1 X86.545 Y95.884 E23.05344
G1 X86.752 Y95.157 E23.07816
G1 X83.891 Y92.296 E23.21043
G1 X84.221 Y91.692 E23.23294
G1 X87.025 Y94.496 E23.36260
G1 X87.336 Y93.873 E23.38537
G1 X84.551 Y91.088 E23.51413
G1 X84.881 Y90.484 E23.53664
G1 X87.646 Y93.249 E23.66451
G1 X87.956 Y92.626 E23.68728
G1 X85.264 Y89.933 E23.81181
G1 X85.663 Y89.399 E23.83362
G1 X88.349 Y92.085 E23.95782
G1 X88.751 Y91.553 E23.97962
G1 X86.063 Y88.865 E24.10390
G1 X86.463 Y88.331 E24.12572
G1 X89.153 Y91.020 E24.25009
G1 X89.554 Y90.488 E24.27190
G1 X86.925 Y87.859 E24.39347
G1 X87.392 Y87.392 E24.41506
G1 X90.042 Y90.042 E24.53759
G1 X90.530 Y89.597 E24.55921
G1 X87.859 Y86.925 E24.68273
G1 X88.331 Y86.463 E24.70432
G1 X91.019 Y89.151 E24.82864
G1 X91.511 Y88.710 E24.85026
G1 X88.865 Y86.063 E24.97265
G1 X89.399 Y85.663 E24.99446
G1 X92.088 Y88.353 E25.11882
G1 X92.665 Y87.996 E25.14100
G1 X89.933 Y85.263 E25.26734
G1 X90.484 Y84.881 E25.28928
G1 X93.242 Y87.638 E25.41679
G1 X93.838 Y87.301 E25.43920
G1 X91.088 Y84.551 E25.56634
G1 X91.692 Y84.221 E25.58885
G1 X94.511 Y87.040 E25.71919
G1 X95.184 Y86.779 E25.74279
G1 X92.297 Y83.891 E25.87633
G1 X92.942 Y83.603 E25.89944
G1 X95.857 Y86.518 E26.03427
G1 X96.598 Y86.325 E26.05928
G1 X93.622 Y83.349 E26.19688
G1 X94.302 Y83.095 E26.22062
G1 X97.384 Y86.177 E26.36315
G1 X98.171 Y86.030 E26.38932
G1 X94.985 Y82.844 E26.53667
G1 X95.752 Y82.677 E26.56234
G1 X99.007 Y85.932 E26.71286
G1 X99.941 Y85.932 E26.74340
G1 X96.519 Y82.510 E26.90164
G1 X97.286 Y82.343 E26.92731
G1 X100.875 Y85.932 E27.09327
G1 X101.925 Y86.048 E27.12781
G1 X98.134 Y82.258 E27.30309
G1 X99.006 Y82.195 E27.33167
G1 X103.073 Y86.263 E27.51976
G1 X104.338 Y86.594 E27.56252
G1 X99.877 Y82.133 E27.76880
G1 X100.864 Y82.186 E27.80112
G1 X105.863 Y87.185 E28.03227
G1 X108.051 Y88.439 E28.11472
G1 X101.870 Y82.258 E28.40053
G1 X102.938 Y82.392 E28.43571
G1 X117.608 Y97.062 E29.11409
G1 X117.348 Y95.868 E29.15403
G1 X104.131 Y82.652 E29.76520
G1 X105.397 Y82.983 E29.80796
G1 X117.017 Y94.603 E30.34532
G1 X116.462 Y93.114 E30.39730
G1 X106.886 Y83.538 E30.84009
G1 X108.738 Y84.456 E30.90765
G1 X115.544 Y91.262 E31.22239
G1 X113.510 Y88.294 F7800.000
G1 X111.706 Y86.490 F1080.000 E31.30582
G1 X111.510 Y91.898 F7800.000
G1 X117.742 Y98.130 F1080.000 E31.59399
G1 X117.814 Y99.136 E31.62696
G1 X112.777 Y94.099 E31.85988
G1 X113.386 Y95.642 E31.91414
G1 X117.867 Y100.123 E32.12134
G1 X117.805 Y100.994 E32.14991
G1 X113.758 Y96.947 E32.33705
G1 X113.949 Y98.073 E32.37440
G1 X117.742 Y101.866 E32.54978
G1 X117.657 Y102.714 E32.57766
G1 X114.045 Y99.102 E32.74468
G1 X114.118 Y100.109 E32.77769
G1 X117.490 Y103.481 E32.93361
G1 X117.323 Y104.248 E32.95928
G1 X114.039 Y100.964 E33.11115
G1 X113.960 Y101.819 E33.13922
G1 X117.156 Y105.015 E33.28703
G1 X116.905 Y105.698 E33.31082
G1 X113.869 Y102.662 E33.45121
G1 X113.662 Y103.389 E33.47592
G1 X116.651 Y106.378 E33.61415
G1 X116.397 Y107.058 E33.63789
G1 X113.455 Y104.116 E33.77394
G1 X113.248 Y104.843 E33.79866
G1 X116.109 Y107.703 E33.93094
G1 X115.779 Y108.308 E33.95344
G1 X112.975 Y105.504 E34.08310
G1 X112.664 Y106.127 E34.10587
G1 X115.449 Y108.912 E34.23464
G1 X115.119 Y109.516 E34.25714
G1 X112.354 Y106.751 E34.38501
G1 X112.044 Y107.374 E34.40778
G1 X114.736 Y110.067 E34.53231
G1 X114.337 Y110.601 E34.55412
G1 X111.651 Y107.915 E34.67832
G1 X111.249 Y108.447 E34.70012
G1 X113.937 Y111.135 E34.82440
G1 X113.537 Y111.669 E34.84622
G1 X110.847 Y108.980 E34.97059
G1 X110.446 Y109.512 E34.99240
G1 X113.075 Y112.141 E35.11397
G1 X112.608 Y112.608 E35.13556
G1 X109.958 Y109.958 E35.25809
G1 X109.470 Y110.403 E35.27971
G1 X112.141 Y113.075 E35.40323
G1 X111.669 Y113.537 E35.42482
G1 X108.981 Y110.849 E35.54914
G1 X108.489 Y111.290 E35.57076
G1 X111.135 Y113.937 E35.69315
G1 X110.601 Y114.337 E35.71496
G1 X107.912 Y111.647 E35.83932
G1 X107.335 Y112.004 E35.86150
G1 X110.067 Y114.736 E35.98784
G1 X109.516 Y115.119 E36.00978
G1 X106.758 Y112.362 E36.13729
G1 X106.162 Y112.699 E36.15969
G1 X108.912 Y115.449 E36.28684
G1 X108.308 Y115.779 E36.30935
G1 X105.489 Y112.960 E36.43969
G1 X104.816 Y113.221 E36.46329
G1 X107.703 Y116.109 E36.59683
G1 X107.058 Y116.397 E36.61994
G1 X104.143 Y113.482 E36.75476
G1 X103.402 Y113.675 E36.77978
G1 X106.378 Y116.651 E36.91738
G1 X105.698 Y116.905 E36.94112
G1 X102.616 Y113.822 E37.08365
G1 X101.829 Y113.970 E37.10982
G1 X105.015 Y117.156 E37.25717
G1 X104.248 Y117.323 E37.28284
G1 X100.993 Y114.068 E37.43336
G1 X100.059 Y114.068 E37.46390
G1 X103.481 Y117.490 E37.62214
G1 X102.714 Y117.657 E37.64781
G1 X99.125 Y114.068 E37.81377
G1 X98.075 Y113.952 E37.84831
G1 X101.866 Y117.742 E38.02359
G1 X100.994 Y117.805 E38.05216
G1 X96.927 Y113.737 E38.24026
