; generated by Slic3r 0.9.10-dev on 2013-05-23 at 18:37:55

; layer_height = 0.4
; perimeters = 3
; top_solid_layers = 3
; bottom_solid_layers = 3
; fill_density = 0.4
; perimeter_speed = 30
; infill_speed = 60
; travel_speed = 130
; nozzle_diameter = 0.5
; filament_diameter = 3
; extrusion_multiplier = 1
; perimeters extrusion width = 0.53mm
; infill extrusion width = 0.53mm
; solid infill extrusion width = 0.53mm
; top infill extrusion width = 0.53mm
; first layer extrusion width = 0.70mm

G21 ; set units to millimeters
M107 ; disable fan
M104 S200 ; set temperature
G28 ; home all axes
G1 Z5 F5000 ; lift nozzle

M109 S200 ; wait for temperature to be reached
G90 ; use absolute coordinates
G92 E0 ; reset extrusion distance
M82 ; use absolute distances for extrusion
G1 F1800.000 E-1.00000 ; retract
G92 E0 ; reset extrusion distance
G1 Z0.350 F7800.000 ; move to next layer (0)
G1 X57.650 Y66.430 ; move to first skirt point
G1 F1800.000 E1.00000 ; compensate retraction
G1 X65.930 Y60.070 F540.000 E1.33969 ; skirt
G1 X66.660 Y59.580 E1.36830 ; skirt
G1 X67.450 Y59.200 E1.39682 ; skirt
G1 X77.100 Y55.210 E1.73656 ; skirt
G1 X77.920 Y54.930 E1.76475 ; skirt
G1 X78.770 Y54.760 E1.79295 ; skirt
G1 X89.120 Y53.400 E2.13259 ; skirt
G1 X89.990 Y53.340 E2.16096 ; skirt
G1 X90.860 Y53.400 E2.18933 ; skirt
G1 X101.220 Y54.760 E2.52929 ; skirt
G1 X102.070 Y54.930 E2.55749 ; skirt
G1 X102.900 Y55.210 E2.58599 ; skirt
G1 X112.540 Y59.200 E2.92544 ; skirt
G1 X113.260 Y59.550 E2.95148 ; skirt
G1 X113.940 Y59.990 E2.97783 ; skirt
G1 X148.970 Y85.790 E4.39330 ; skirt
G1 X151.240 Y87.590 E4.48756 ; skirt
G1 X151.870 Y88.170 E4.51542 ; skirt
G1 X152.430 Y88.820 E4.54333 ; skirt
G1 X154.010 Y90.940 E4.62935 ; skirt
G1 X154.470 Y91.660 E4.65715 ; skirt
G1 X154.840 Y92.430 E4.68495 ; skirt
G1 X155.830 Y94.880 E4.77092 ; skirt
G1 X156.100 Y95.690 E4.79870 ; skirt
G1 X156.260 Y96.540 E4.82684 ; skirt
G1 X156.590 Y99.160 E4.91276 ; skirt
G1 X156.650 Y99.990 E4.93983 ; skirt
G1 X156.600 Y100.820 E4.96688 ; skirt
G1 X156.270 Y103.450 E5.05312 ; skirt
G1 X156.100 Y104.300 E5.08132 ; skirt
G1 X155.830 Y105.110 E5.10910 ; skirt
G1 X154.840 Y107.560 E5.19508 ; skirt
G1 X154.470 Y108.330 E5.22287 ; skirt
G1 X154.010 Y109.050 E5.25067 ; skirt
G1 X152.430 Y111.170 E5.33669 ; skirt
G1 X151.870 Y111.820 E5.36461 ; skirt
G1 X151.240 Y112.400 E5.39247 ; skirt
G1 X149.170 Y114.050 E5.47859 ; skirt
G1 X113.940 Y140.000 E6.90219 ; skirt
G1 X113.260 Y140.440 E6.92854 ; skirt
G1 X112.540 Y140.790 E6.95459 ; skirt
G1 X102.900 Y144.780 E7.29403 ; skirt
G1 X102.070 Y145.060 E7.32253 ; skirt
G1 X101.220 Y145.230 E7.35074 ; skirt
G1 X90.860 Y146.590 E7.69069 ; skirt
G1 X89.990 Y146.650 E7.71906 ; skirt
G1 X89.120 Y146.590 E7.74744 ; skirt
G1 X78.770 Y145.230 E8.08707 ; skirt
G1 X77.920 Y145.060 E8.11527 ; skirt
G1 X77.100 Y144.780 E8.14347 ; skirt
G1 X67.450 Y140.790 E8.48321 ; skirt
G1 X66.660 Y140.410 E8.51173 ; skirt
G1 X65.930 Y139.920 E8.54034 ; skirt
G1 X57.650 Y133.560 E8.88003 ; skirt
G1 X57.000 Y132.990 E8.90815 ; skirt
G1 X56.430 Y132.330 E8.93653 ; skirt
G1 X50.070 Y124.040 E9.27647 ; skirt
G1 X49.580 Y123.320 E9.30481 ; skirt
G1 X49.200 Y122.540 E9.33304 ; skirt
G1 X45.210 Y112.900 E9.67248 ; skirt
G1 X44.930 Y112.070 E9.70098 ; skirt
G1 X44.760 Y111.220 E9.72918 ; skirt
G1 X43.400 Y100.860 E10.06914 ; skirt
G1 X43.340 Y99.990 E10.09751 ; skirt
G1 X43.400 Y99.120 E10.12589 ; skirt
G1 X44.760 Y88.770 E10.46552 ; skirt
G1 X44.930 Y87.920 E10.49372 ; skirt
G1 X45.210 Y87.100 E10.52192 ; skirt
G1 X49.200 Y77.450 E10.86166 ; skirt
G1 X49.580 Y76.660 E10.89018 ; skirt
G1 X50.070 Y75.930 E10.91879 ; skirt
G1 X56.430 Y67.650 E11.25848 ; skirt
G1 X57.000 Y67.000 E11.28660 ; skirt
G1 X57.576 Y66.495 E11.31152 ; skirt
G1 F1800.000 E10.31152 ; retract
G92 E0 ; reset extrusion distance
G1 X132.380 Y97.692 F7800.000 ; move to first perimeter point
G1 F1800.000 E1.00000 ; compensate retraction
G1 X133.010 Y96.172 F540.000 E1.05354 ; perimeter
G1 X134.227 Y94.586 E1.11857 ; perimeter
G1 X135.813 Y93.369 E1.18360 ; perimeter
G1 X137.659 Y92.604 E1.24864 ; perimeter
G1 X139.641 Y92.343 E1.31367 ; perimeter
G1 X141.623 Y92.604 E1.37870 ; perimeter
G1 X143.469 Y93.369 E1.44374 ; perimeter
G1 X145.055 Y94.586 E1.50877 ; perimeter
G1 X146.272 Y96.172 E1.57380 ; perimeter
G1 X147.037 Y98.018 E1.63883 ; perimeter
G1 X147.083 Y98.369 E1.65033 ; perimeter
G1 X147.298 Y100.000 E1.70387 ; perimeter
G1 X147.037 Y101.982 E1.76890 ; perimeter
G1 X146.272 Y103.828 E1.83393 ; perimeter
G1 X145.055 Y105.414 E1.89897 ; perimeter
G1 X143.469 Y106.631 E1.96400 ; perimeter
G1 X141.623 Y107.396 E2.02903 ; perimeter
G1 X141.272 Y107.442 E2.04052 ; perimeter
G1 X139.641 Y107.657 E2.09406 ; perimeter
G1 X137.659 Y107.396 E2.15910 ; perimeter
G1 X135.813 Y106.631 E2.22413 ; perimeter
G1 X134.227 Y105.414 E2.28916 ; perimeter
G1 X133.010 Y103.828 E2.35419 ; perimeter
G1 X132.245 Y101.982 E2.41923 ; perimeter
G1 X131.984 Y100.000 E2.48426 ; perimeter
G1 X132.245 Y98.018 E2.54929 ; perimeter
G1 X132.343 Y97.783 E2.55758 ; perimeter
G1 X132.987 Y97.943 F7800.000 ; move to first perimeter point
G1 X133.584 Y96.503 F540.000 E2.60830 ; perimeter
G1 X134.695 Y95.054 E2.66771 ; perimeter
G1 X136.144 Y93.943 E2.72711 ; perimeter
G1 X137.831 Y93.244 E2.78652 ; perimeter
G1 X139.641 Y93.006 E2.84592 ; perimeter
G1 X141.451 Y93.244 E2.90532 ; perimeter
G1 X143.138 Y93.943 E2.96473 ; perimeter
G1 X144.587 Y95.054 E3.02413 ; perimeter
G1 X145.698 Y96.503 E3.08354 ; perimeter
G1 X146.397 Y98.190 E3.14294 ; perimeter
G1 X146.432 Y98.454 E3.15162 ; perimeter
G1 X146.635 Y100.000 E3.20234 ; perimeter
G1 X146.397 Y101.810 E3.26175 ; perimeter
G1 X145.698 Y103.497 E3.32115 ; perimeter
G1 X144.587 Y104.946 E3.38056 ; perimeter
G1 X143.138 Y106.057 E3.43996 ; perimeter
G1 X141.451 Y106.756 E3.49936 ; perimeter
G1 X141.187 Y106.791 E3.50804 ; perimeter
G1 X139.641 Y106.994 E3.55877 ; perimeter
G1 X137.831 Y106.756 E3.61817 ; perimeter
G1 X136.144 Y106.057 E3.67757 ; perimeter
G1 X134.695 Y104.946 E3.73698 ; perimeter
G1 X133.584 Y103.497 E3.79638 ; perimeter
G1 X132.885 Y101.810 E3.85578 ; perimeter
G1 X132.647 Y100.000 E3.91519 ; perimeter
G1 X132.885 Y98.190 E3.97459 ; perimeter
G1 X132.950 Y98.034 E3.98007 ; perimeter
G1 X133.525 Y98.361 F7800.000 ; move to first perimeter point
G1 X134.158 Y96.834 F540.000 E4.03384 ; perimeter
G1 X134.268 Y96.691 E4.03971 ; perimeter
G1 X135.164 Y95.523 E4.08762 ; perimeter
G1 X136.475 Y94.517 E4.14139 ; perimeter
G1 X138.002 Y93.884 E4.19517 ; perimeter
G1 X139.641 Y93.669 E4.24894 ; perimeter
G1 X141.280 Y93.884 E4.30272 ; perimeter
G1 X142.807 Y94.517 E4.35649 ; perimeter
G1 X144.118 Y95.523 E4.41027 ; perimeter
G1 X145.124 Y96.834 E4.46404 ; perimeter
G1 X145.757 Y98.361 E4.51782 ; perimeter
G1 X145.780 Y98.540 E4.52368 ; perimeter
G1 X145.972 Y100.000 E4.57159 ; perimeter
G1 X145.757 Y101.639 E4.62537 ; perimeter
G1 X145.124 Y103.166 E4.67914 ; perimeter
G1 X144.118 Y104.477 E4.73292 ; perimeter
G1 X142.807 Y105.483 E4.78669 ; perimeter
G1 X141.280 Y106.116 E4.84046 ; perimeter
G1 X139.641 Y106.331 E4.89424 ; perimeter
G1 X138.002 Y106.116 E4.94802 ; perimeter
G1 X136.475 Y105.483 E5.00179 ; perimeter
G1 X135.164 Y104.477 E5.05556 ; perimeter
G1 X134.158 Y103.166 E5.10934 ; perimeter
G1 X133.525 Y101.639 E5.16311 ; perimeter
G1 X133.310 Y100.000 E5.21689 ; perimeter
G1 X133.513 Y98.459 E5.26746 ; perimeter
G1 X134.167 Y98.219 F7800.000 ; move inwards before travel
G1 F1800.000 E4.26746 ; retract
G92 E0 ; reset extrusion distance
G1 X128.331 Y100.000 F7800.000 ; move to first perimeter point
G1 F1800.000 E1.00000 ; compensate retraction
G1 X127.025 Y109.921 F378.000 E1.32556 ; perimeter
G1 X123.196 Y119.166 E1.65113 ; perimeter
G1 X117.104 Y127.104 E1.97669 ; perimeter
G1 X109.166 Y133.196 E2.30225 ; perimeter
G1 X99.921 Y137.025 E2.62782 ; perimeter
G1 X90.000 Y138.331 E2.95338 ; perimeter
G1 X80.079 Y137.025 E3.27894 ; perimeter
G1 X70.834 Y133.196 E3.60451 ; perimeter
G1 X62.896 Y127.104 E3.93007 ; perimeter
G1 X56.804 Y119.166 E4.25564 ; perimeter
G1 X52.975 Y109.921 E4.58120 ; perimeter
G1 X51.669 Y100.000 E4.90676 ; perimeter
G1 X52.975 Y90.079 E5.23233 ; perimeter
G1 X53.323 Y89.237 E5.26197 ; perimeter
G1 X56.804 Y80.834 E5.55789 ; perimeter
G1 X62.896 Y72.896 E5.88345 ; perimeter
G1 X70.834 Y66.804 E6.20902 ; perimeter
G1 X80.079 Y62.975 E6.53458 ; perimeter
G1 X90.000 Y61.669 E6.86014 ; perimeter
G1 X99.921 Y62.975 E7.18571 ; perimeter
G1 X108.324 Y66.455 E7.48162 ; perimeter
G1 X109.166 Y66.804 E7.51127 ; perimeter
G1 X117.104 Y72.896 E7.83683 ; perimeter
G1 X123.196 Y80.834 E8.16240 ; perimeter
G1 X127.025 Y90.079 E8.48796 ; perimeter
G1 X128.319 Y99.902 E8.81032 ; perimeter
G1 X127.749 Y100.303 F7800.000 ; move inwards before travel
G1 X129.515 Y101.075 ; move to first perimeter point
G1 X129.657 Y100.000 F540.000 E8.84559 ; perimeter
G1 X128.510 Y91.290 E9.13142 ; perimeter
G1 X139.866 Y91.290 E9.50089 ; perimeter
G1 X142.135 Y91.662 E9.57571 ; perimeter
G1 X144.165 Y92.566 E9.64800 ; perimeter
G1 X145.900 Y93.954 E9.72029 ; perimeter
G1 X147.228 Y95.736 E9.79259 ; perimeter
G1 X148.060 Y97.796 E9.86488 ; perimeter
G1 X148.344 Y100.000 E9.93718 ; perimeter
G1 X148.060 Y102.204 E10.00947 ; perimeter
G1 X147.228 Y104.264 E10.08176 ; perimeter
G1 X145.900 Y106.046 E10.15406 ; perimeter
G1 X144.165 Y107.434 E10.22635 ; perimeter
G1 X142.135 Y108.338 E10.29864 ; perimeter
G1 X139.866 Y108.710 E10.37346 ; perimeter
G1 X128.510 Y108.710 E10.74293 ; perimeter
G1 X129.502 Y101.173 E10.99027 ; perimeter
G1 X128.864 Y100.989 F7800.000 ; move to first perimeter point
G1 X128.994 Y100.000 F540.000 E11.02274 ; perimeter
G1 X127.761 Y90.633 E11.33013 ; perimeter
G1 X139.920 Y90.633 E11.72571 ; perimeter
G1 X142.325 Y91.028 E11.80503 ; perimeter
G1 X144.510 Y92.000 E11.88282 ; perimeter
G1 X146.377 Y93.494 E11.96062 ; perimeter
G1 X147.743 Y95.328 E12.03501 ; perimeter
G1 X147.805 Y95.411 E12.03842 ; perimeter
G1 X148.701 Y97.628 E12.11621 ; perimeter
G1 X149.006 Y100.000 E12.19401 ; perimeter
G1 X148.701 Y102.372 E12.27181 ; perimeter
G1 X147.844 Y104.492 E12.34620 ; perimeter
G1 X147.805 Y104.589 E12.34961 ; perimeter
G1 X146.377 Y106.506 E12.42740 ; perimeter
G1 X144.510 Y108.000 E12.50520 ; perimeter
G1 X142.325 Y108.972 E12.58300 ; perimeter
G1 X139.920 Y109.367 E12.66231 ; perimeter
G1 X127.761 Y109.367 E13.05790 ; perimeter
G1 X128.851 Y101.087 E13.32962 ; perimeter
G1 X128.418 Y110.024 F7800.000 ; move to first perimeter point
G1 X124.354 Y119.834 F378.000 E13.67509 ; perimeter
G1 X118.050 Y128.050 E14.01201 ; perimeter
G1 X109.834 Y134.354 E14.34893 ; perimeter
G1 X100.267 Y138.317 E14.68585 ; perimeter
G1 X90.000 Y139.669 E15.02277 ; perimeter
G1 X79.733 Y138.317 E15.35970 ; perimeter
G1 X70.166 Y134.354 E15.69662 ; perimeter
G1 X61.950 Y128.050 E16.03354 ; perimeter
G1 X55.646 Y119.834 E16.37046 ; perimeter
G1 X51.683 Y110.267 E16.70738 ; perimeter
G1 X50.331 Y100.000 E17.04430 ; perimeter
G1 X51.683 Y89.733 E17.38122 ; perimeter
G1 X55.646 Y80.166 E17.71814 ; perimeter
G1 X61.950 Y71.950 E18.05507 ; perimeter
G1 X70.166 Y65.646 E18.39199 ; perimeter
G1 X79.733 Y61.683 E18.72891 ; perimeter
G1 X90.000 Y60.331 E19.06583 ; perimeter
G1 X100.267 Y61.683 E19.40275 ; perimeter
G1 X109.834 Y65.646 E19.73967 ; perimeter
G1 X118.050 Y71.950 E20.07659 ; perimeter
G1 X124.354 Y80.166 E20.41351 ; perimeter
G1 X128.418 Y89.976 E20.75899 ; perimeter
G1 X139.973 Y89.976 E21.13495 ; perimeter
G1 X142.515 Y90.393 E21.21876 ; perimeter
G1 X144.854 Y91.434 E21.30206 ; perimeter
G1 X146.854 Y93.033 E21.38536 ; perimeter
G1 X148.383 Y95.087 E21.46866 ; perimeter
G1 X149.342 Y97.461 E21.55196 ; perimeter
G1 X149.645 Y99.812 E21.62911 ; perimeter
G1 X149.669 Y100.000 E21.63526 ; perimeter
G1 X149.342 Y102.539 E21.71856 ; perimeter
G1 X148.383 Y104.913 E21.80186 ; perimeter
G1 X146.854 Y106.967 E21.88516 ; perimeter
G1 X144.854 Y108.566 E21.96846 ; perimeter
G1 X142.515 Y109.607 E22.05176 ; perimeter
G1 X139.973 Y110.024 E22.13557 ; perimeter
G1 X128.516 Y110.024 E22.50833 ; perimeter
G1 X127.783 Y109.854 F7800.000 ; move inwards before travel
G1 X129.626 Y108.234 ; move to first fill point
G1 X129.120 Y107.727 F1080.000 E22.53171 ; fill
G1 X129.228 Y106.903 E22.55885 ; fill
G1 X130.559 Y108.234 E22.62027 ; fill
G1 X131.491 Y108.234 E22.65071 ; fill
G1 X129.337 Y106.079 E22.75018 ; fill
G1 X129.445 Y105.255 E22.77732 ; fill
G1 X132.424 Y108.234 E22.91483 ; fill
G1 X133.356 Y108.234 E22.94527 ; fill
G1 X129.554 Y104.431 E23.12082 ; fill
G1 X129.662 Y103.607 E23.14796 ; fill
G1 X134.289 Y108.234 E23.36155 ; fill
G1 X135.221 Y108.234 E23.39200 ; fill
G1 X129.771 Y102.784 E23.64364 ; fill
G1 X129.879 Y101.960 E23.67077 ; fill
G1 X136.154 Y108.234 E23.96045 ; fill
G1 X137.086 Y108.234 E23.99089 ; fill
G1 X136.130 Y107.278 E24.03502 ; fill
G1 X132.363 Y103.511 F7800.000 ; move to first fill point
G1 X129.988 Y101.136 F1080.000 E24.14467 ; fill
G1 X130.096 Y100.312 E24.17181 ; fill
G1 X131.764 Y101.980 E24.24883 ; fill
G1 X131.623 Y100.906 E24.28419 ; fill
G1 X130.049 Y99.332 E24.35685 ; fill
G1 X129.908 Y98.258 E24.39221 ; fill
G1 X131.521 Y99.871 E24.46667 ; fill
G1 X131.629 Y99.047 E24.49380 ; fill
G1 X129.767 Y97.185 E24.57980 ; fill
G1 X129.625 Y96.111 E24.61516 ; fill
G1 X131.738 Y98.223 E24.71269 ; fill
G1 X131.945 Y97.498 E24.73731 ; fill
G1 X129.484 Y95.037 E24.85094 ; fill
G1 X129.342 Y93.963 E24.88630 ; fill
G1 X132.218 Y96.839 E25.01907 ; fill
G1 X132.491 Y96.179 E25.04237 ; fill
G1 X129.201 Y92.889 E25.19427 ; fill
G1 X129.060 Y91.816 E25.22963 ; fill
G1 X132.846 Y95.602 E25.40447 ; fill
G1 X133.251 Y95.075 E25.42618 ; fill
G1 X129.943 Y91.766 E25.57893 ; fill
G1 X130.875 Y91.766 E25.60937 ; fill
G1 X133.656 Y94.547 E25.73777 ; fill
G1 X134.114 Y94.072 E25.75930 ; fill
G1 X131.808 Y91.766 E25.86576 ; fill
G1 X132.740 Y91.766 E25.89621 ; fill
G1 X134.641 Y93.667 E25.98398 ; fill
G1 X135.169 Y93.262 E26.00569 ; fill
G1 X133.673 Y91.766 E26.07478 ; fill
G1 X134.605 Y91.766 E26.10522 ; fill
G1 X135.728 Y92.889 E26.15704 ; fill
G1 X136.387 Y92.616 E26.18034 ; fill
G1 X135.538 Y91.766 E26.21956 ; fill
G1 X136.470 Y91.766 E26.25000 ; fill
G1 X137.046 Y92.342 E26.27660 ; fill
G1 F1800.000 E25.27660 ; retract
G92 E0 ; reset extrusion distance
G1 X127.496 Y109.932 F7800.000 ; move to first fill point
G1 F1800.000 E1.00000 ; compensate retraction
G1 X127.816 Y110.252 F360.000 E1.00733 ; fill
G1 X127.952 Y109.924 E1.01307 ; fill
G1 X127.863 Y109.836 E1.01511 ; fill
G1 X127.383 Y110.281 F7800.000 ; move to first fill point
G1 X127.681 Y110.579 F360.000 E1.02193 ; fill
G1 X127.545 Y110.906 E1.02767 ; fill
G1 X127.247 Y110.609 E1.03449 ; fill
G1 X127.112 Y110.936 E1.04023 ; fill
G1 X127.410 Y111.234 E1.04706 ; fill
G1 X127.274 Y111.561 E1.05280 ; fill
G1 X126.976 Y111.263 E1.05962 ; fill
G1 X126.841 Y111.590 E1.06536 ; fill
G1 X127.138 Y111.888 E1.07218 ; fill
G1 X127.003 Y112.215 E1.07792 ; fill
G1 X126.705 Y111.918 E1.08474 ; fill
G1 X126.570 Y112.245 E1.09048 ; fill
G1 X126.867 Y112.543 E1.09731 ; fill
G1 X126.732 Y112.870 E1.10305 ; fill
G1 X126.434 Y112.572 E1.10987 ; fill
G1 X126.298 Y112.900 E1.11561 ; fill
G1 X126.596 Y113.197 E1.12243 ; fill
G1 X126.461 Y113.524 E1.12817 ; fill
G1 X126.163 Y113.227 E1.13499 ; fill
G1 X126.027 Y113.554 E1.14073 ; fill
G1 X126.325 Y113.852 E1.14755 ; fill
G1 X126.189 Y114.179 E1.15329 ; fill
G1 X125.892 Y113.881 E1.16012 ; fill
G1 X125.756 Y114.209 E1.16586 ; fill
G1 X126.054 Y114.506 E1.17268 ; fill
G1 X125.918 Y114.834 E1.17842 ; fill
G1 X125.621 Y114.536 E1.18524 ; fill
G1 X125.485 Y114.863 E1.19098 ; fill
G1 X125.783 Y115.161 E1.19780 ; fill
G1 X125.647 Y115.488 E1.20354 ; fill
G1 X125.350 Y115.190 E1.21037 ; fill
G1 X125.214 Y115.518 E1.21611 ; fill
G1 X125.512 Y115.815 E1.22293 ; fill
G1 X125.376 Y116.143 E1.22867 ; fill
G1 X125.078 Y115.845 E1.23549 ; fill
G1 X124.943 Y116.172 E1.24123 ; fill
G1 X125.241 Y116.470 E1.24805 ; fill
G1 X125.105 Y116.797 E1.25379 ; fill
G1 X124.807 Y116.500 E1.26061 ; fill
