; generated by Slic3r 0.9.11-dev on 2013-06-24 at 21:51:28

; layer_height = 0.4
; perimeters = 3
; top_solid_layers = 3
; bottom_solid_layers = 3
; fill_density = 0.4
; perimeter_speed = 30
; infill_speed = 60
; travel_speed = 130
; nozzle_diameter = 0.5
; filament_diameter = 3
; extrusion_multiplier = 1
; perimeters extrusion width = 0.50mm
; infill extrusion width = 0.53mm
; solid infill extrusion width = 0.53mm
; top infill extrusion width = 0.53mm
; first layer extrusion width = 0.70mm

G21 ; set units to millimeters
M107 ; disable fan
M104 S200 ; set temperature
G28 ; home all axes
G1 Z5 F5000 ; lift nozzle

M109 S200 ; wait for temperature to be reached
G90 ; use absolute coordinates
G92 E0 ; reset extrusion distance
M82 ; use absolute distances for extrusion
G1 F1800.000 E-1.00000 ; retract
G92 E0 ; reset extrusion distance
G1 Z0.350 F7800.000 ; move to next layer (0)
G1 X85.529 Y83.880 ; move to first skirt point
G1 F1800.000 E1.00000 ; compensate retraction
G1 X86.139 Y83.310 F540.000 E1.02716 ; skirt
G3 X90.709 Y80.400 I22.313 J29.986 E1.02716 ; skirt
G3 X95.889 Y78.720 I14.389 J35.506 E1.02716 ; skirt
G1 X96.719 Y78.620 E1.05436 ; skirt
G1 X100.879 Y78.370 E1.18995 ; skirt
G1 X101.499 Y78.400 E1.21015 ; skirt
G1 X102.119 Y78.490 E1.23053 ; skirt
G1 X105.809 Y79.190 E1.35273 ; skirt
G1 X106.619 Y79.400 E1.37995 ; skirt
G3 X111.539 Y81.710 I-14.098 J36.609 E1.37995 ; skirt
G3 X115.719 Y85.170 I-22.273 J31.158 E1.37995 ; skirt
G3 X118.909 Y89.560 I-31.328 J26.086 E1.37995 ; skirt
G3 X120.919 Y94.610 I-30.965 J15.325 E1.37995 ; skirt
G3 X121.599 Y100.000 I-42.362 J8.084 E1.37995 ; skirt
G3 X120.919 Y105.390 I-43.042 J-2.694 E1.37995 ; skirt
G3 X118.909 Y110.430 I-39.296 J-12.817 E1.37995 ; skirt
G3 X115.719 Y114.820 I-34.518 J-21.696 E1.37995 ; skirt
G3 X111.539 Y118.280 I-26.453 J-27.698 E1.37995 ; skirt
G3 X106.629 Y120.590 I-19.736 J-35.627 E1.37995 ; skirt
G3 X95.879 Y121.270 I-7.135 J-25.552 E1.37995 ; skirt
G3 X90.709 Y119.590 I9.567 J-38.073 E1.37995 ; skirt
G3 X86.139 Y116.680 I17.743 J-32.896 E1.37996 ; skirt
G3 X82.419 Y112.730 I24.292 J-26.608 E1.37996 ; skirt
G3 X79.799 Y107.970 I31.465 J-20.440 E1.37996 ; skirt
G3 X78.449 Y102.710 I35.846 J-12.092 E1.37996 ; skirt
G3 X78.449 Y97.290 I38.072 J-2.710 E1.37996 ; skirt
G3 X79.799 Y92.020 I39.170 J7.316 E1.37996 ; skirt
G3 X82.419 Y87.260 I34.085 J15.680 E1.37996 ; skirt
G1 X82.949 Y86.620 E1.40699 ; skirt
G1 X85.462 Y83.951 E1.52623 ; skirt
G1 F1800.000 E0.52623 ; retract
G92 E0 ; reset extrusion distance
G1 X92.298 Y92.357 F7800.000 ; move to first perimeter point
G1 F1800.000 E1.00000 ; compensate retraction
G1 X107.584 Y92.357 F540.000 E1.49731 ; perimeter
G1 X107.584 Y107.643 E1.99463 ; perimeter
G1 X92.298 Y107.643 E2.49194 ; perimeter
G1 X92.298 Y92.456 E2.98605 ; perimeter
G1 X92.955 Y93.014 F7800.000 ; move to first perimeter point
G1 X106.926 Y93.014 F540.000 E3.44061 ; perimeter
G1 X106.926 Y106.986 E3.89516 ; perimeter
G1 X92.955 Y106.986 E4.34972 ; perimeter
G1 X92.955 Y93.113 E4.80107 ; perimeter
G1 X93.612 Y93.671 F7800.000 ; move to first perimeter point
G1 X106.269 Y93.671 F378.000 E5.21287 ; perimeter
G1 X106.269 Y106.329 E5.62467 ; perimeter
G1 X93.612 Y106.329 E6.03647 ; perimeter
G1 X93.612 Y93.770 E6.44507 ; perimeter
G1 X94.181 Y94.000 F7800.000 ; move inwards before travel
G1 X91.435 Y89.718 ; move to first perimeter point
G3 X100.779 Y86.682 I8.506 J10.282 F540.000 E6.44507 ; perimeter
G3 X91.367 Y89.790 I-0.849 J13.375 E6.44507 ; perimeter
G1 X91.013 Y89.208 F7800.000 ; move to first perimeter point
G3 X100.820 Y86.021 I8.928 J10.792 F540.000 E6.44507 ; perimeter
G3 X90.945 Y89.280 I-0.891 J14.036 E6.44507 ; perimeter
G1 X90.591 Y88.697 F7800.000 ; move to first perimeter point
G3 X100.862 Y85.360 I9.350 J11.303 F378.000 E6.44507 ; perimeter
G3 X90.523 Y88.769 I-0.932 J14.697 E6.44507 ; perimeter
G1 X91.196 Y88.952 F7800.000 ; move inwards before travel
G1 X105.874 Y88.687 ; move to first fill point
G1 X111.361 Y94.174 F1080.000 E6.69766 ; fill
G1 X111.970 Y95.713 F7800.000 ; move to first fill point
G1 X104.118 Y87.860 F1080.000 E7.05913 ; fill
G1 X102.899 Y87.571 E7.09989 ; fill
G1 X107.209 Y91.881 E7.29828 ; fill
G1 X106.279 Y91.881 E7.32854 ; fill
G1 X101.750 Y87.352 E7.53702 ; fill
G1 X100.637 Y87.168 E7.57376 ; fill
G1 X105.349 Y91.881 E7.79071 ; fill
G1 X104.420 Y91.881 E7.82097 ; fill
G1 X99.762 Y87.223 E8.03538 ; fill
G1 X98.887 Y87.278 E8.06391 ; fill
G1 X103.490 Y91.881 E8.27579 ; fill
G1 X102.560 Y91.881 E8.30605 ; fill
G1 X98.013 Y87.333 E8.51540 ; fill
G1 X97.216 Y87.466 E8.54170 ; fill
G1 X101.631 Y91.881 E8.74494 ; fill
G1 X100.701 Y91.881 E8.77520 ; fill
G1 X96.514 Y87.694 E8.96795 ; fill
G1 X95.812 Y87.922 E8.99197 ; fill
G1 X99.771 Y91.881 E9.17422 ; fill
G1 X98.842 Y91.881 E9.20448 ; fill
G1 X95.110 Y88.150 E9.37623 ; fill
G1 X94.419 Y88.388 E9.40004 ; fill
G1 X97.912 Y91.881 E9.56082 ; fill
G1 X96.982 Y91.881 E9.59108 ; fill
G1 X93.850 Y88.749 E9.73525 ; fill
G1 X93.282 Y89.110 E9.75718 ; fill
G1 X96.052 Y91.881 E9.88473 ; fill
G1 X95.123 Y91.881 E9.91499 ; fill
G1 X92.713 Y89.471 E10.02592 ; fill
G1 X92.144 Y89.832 E10.04785 ; fill
G1 X94.193 Y91.881 E10.14217 ; fill
G1 X93.263 Y91.881 E10.17243 ; fill
G1 X91.610 Y90.228 E10.24855 ; fill
G1 X91.160 Y90.707 E10.26996 ; fill
G1 X92.334 Y91.881 E10.32401 ; fill
G1 X91.822 Y92.299 E10.34552 ; fill
G1 X90.709 Y91.186 E10.39673 ; fill
G1 X90.259 Y91.666 E10.41814 ; fill
G1 X91.822 Y93.229 E10.49008 ; fill
G1 X91.822 Y94.158 E10.52034 ; fill
G1 X89.809 Y92.145 E10.61300 ; fill
G1 X89.405 Y92.672 E10.63459 ; fill
G1 X91.822 Y95.088 E10.74583 ; fill
G1 X91.822 Y96.018 E10.77609 ; fill
G1 X89.076 Y93.271 E10.90251 ; fill
G1 X88.746 Y93.871 E10.92479 ; fill
G1 X91.822 Y96.947 E11.06639 ; fill
G1 X91.822 Y97.877 E11.09666 ; fill
G1 X88.416 Y94.471 E11.25344 ; fill
G1 X88.086 Y95.071 E11.27572 ; fill
G1 X91.822 Y98.807 E11.44769 ; fill
G1 X91.822 Y99.736 E11.47795 ; fill
G1 X87.851 Y95.766 E11.66073 ; fill
G1 X87.661 Y96.506 E11.68559 ; fill
G1 X91.822 Y100.666 E11.87711 ; fill
G1 X91.822 Y101.596 E11.90737 ; fill
G1 X87.471 Y97.245 E12.10764 ; fill
G1 X87.281 Y97.985 E12.13250 ; fill
G1 X91.822 Y102.526 E12.34151 ; fill
G1 X91.822 Y103.455 E12.37178 ; fill
G1 X87.178 Y98.811 E12.58555 ; fill
G1 X87.178 Y99.741 E12.61581 ; fill
G1 X91.822 Y104.385 E12.82958 ; fill
G1 X91.822 Y105.315 E12.85984 ; fill
G1 X87.178 Y100.671 E13.07361 ; fill
G1 X87.178 Y101.601 E13.10387 ; fill
G1 X91.822 Y106.244 E13.31764 ; fill
G1 X91.822 Y107.174 E13.34790 ; fill
G1 X87.495 Y102.847 E13.54707 ; fill
G1 X87.816 Y104.098 E13.58911 ; fill
G1 X91.822 Y108.104 E13.77350 ; fill
G1 X91.823 Y109.964 F7800.000 ; move to first fill point
G1 X91.279 Y109.420 F1080.000 E13.79854 ; fill
G1 X91.837 Y108.119 E13.84462 ; fill
G1 X95.789 Y112.070 E14.02652 ; fill
G1 X97.166 Y112.518 E14.07366 ; fill
G1 X92.767 Y108.119 E14.27615 ; fill
G1 X93.697 Y108.119 E14.30642 ; fill
G1 X98.260 Y112.682 E14.51648 ; fill
G1 X99.252 Y112.745 E14.54884 ; fill
G1 X94.626 Y108.119 E14.76177 ; fill
G1 X95.556 Y108.119 E14.79204 ; fill
G1 X100.244 Y112.807 E15.00785 ; fill
G1 X101.132 Y112.766 E15.03679 ; fill
G1 X96.486 Y108.119 E15.25069 ; fill
G1 X97.415 Y108.119 E15.28095 ; fill
G1 X101.913 Y112.617 E15.48800 ; fill
G1 X102.694 Y112.468 E15.51387 ; fill
G1 X98.345 Y108.119 E15.71406 ; fill
G1 X99.275 Y108.119 E15.74432 ; fill
G1 X103.475 Y112.319 E15.93765 ; fill
G1 X104.191 Y112.105 E15.96198 ; fill
G1 X100.204 Y108.119 E16.14549 ; fill
G1 X101.134 Y108.119 E16.17575 ; fill
G1 X104.823 Y111.808 E16.34556 ; fill
G1 X105.455 Y111.510 E16.36830 ; fill
G1 X102.064 Y108.119 E16.52442 ; fill
G1 X102.993 Y108.119 E16.55468 ; fill
G1 X106.087 Y111.213 E16.69710 ; fill
G1 X106.720 Y110.915 E16.71985 ; fill
G1 X103.923 Y108.119 E16.84857 ; fill
G1 X104.853 Y108.119 E16.87884 ; fill
G1 X107.251 Y110.517 E16.98921 ; fill
G1 X107.759 Y110.096 E17.01071 ; fill
G1 X105.783 Y108.119 E17.10171 ; fill
G1 X106.712 Y108.119 E17.13197 ; fill
G1 X108.268 Y109.675 E17.20360 ; fill
G1 X108.777 Y109.254 E17.22509 ; fill
G1 X107.642 Y108.119 E17.27735 ; fill
G1 X108.060 Y107.607 E17.29885 ; fill
G1 X109.286 Y108.833 E17.35529 ; fill
G1 X109.685 Y108.302 E17.37690 ; fill
G1 X108.060 Y106.677 E17.45170 ; fill
G1 X108.060 Y105.748 E17.48196 ; fill
G1 X110.076 Y107.764 E17.57476 ; fill
G1 X110.467 Y107.225 E17.59642 ; fill
G1 X108.060 Y104.818 E17.70724 ; fill
G1 X108.060 Y103.888 E17.73750 ; fill
G1 X110.858 Y106.687 E17.86632 ; fill
G1 X111.238 Y106.137 E17.88807 ; fill
G1 X108.060 Y102.959 E18.03437 ; fill
G1 X108.060 Y102.029 E18.06463 ; fill
G1 X111.502 Y105.471 E18.22307 ; fill
G1 X111.765 Y104.805 E18.24638 ; fill
G1 X108.060 Y101.099 E18.41695 ; fill
G1 X108.060 Y100.170 E18.44722 ; fill
G1 X112.029 Y104.139 E18.62993 ; fill
G1 X112.293 Y103.473 E18.65324 ; fill
G1 X108.060 Y99.240 E18.84809 ; fill
G1 X108.060 Y98.310 E18.87835 ; fill
G1 X112.462 Y102.713 E19.08101 ; fill
G1 X112.567 Y101.887 E19.10810 ; fill
G1 X108.060 Y97.381 E19.31556 ; fill
G1 X108.060 Y96.451 E19.34582 ; fill
G1 X112.671 Y101.062 E19.55808 ; fill
G1 X112.775 Y100.237 E19.58517 ; fill
G1 X108.060 Y95.521 E19.80223 ; fill
G1 X108.060 Y94.591 E19.83249 ; fill
G1 X112.709 Y99.241 E20.04652 ; fill
G1 X112.575 Y98.177 E20.08143 ; fill
G1 X108.060 Y93.662 E20.28926 ; fill
G1 X108.060 Y92.732 E20.31953 ; fill
G1 X112.440 Y97.113 E20.52117 ; fill
G1 X109.339 Y91.222 F7800.000 ; move to first fill point
G1 X109.273 Y91.157 F1080.000 E20.52420 ; fill
G1 F1800.000 E19.52420 ; retract
G92 E0 ; reset extrusion distance
G1 X94.367 Y111.579 F7800.000 ; move to first fill point
G1 F1800.000 E1.00000 ; compensate retraction
G1 X88.537 Y105.748 F1080.000 E1.26841 ; fill
M106 S255 ; enable fan
G1 F1800.000 E0.26841 ; retract
G92 E0 ; reset extrusion distance
G1 Z0.750 F7800.000 ; move to next layer (1)
G1 X92.691 Y107.250 ; move to first perimeter point
G1 F1800.000 E1.00000 ; compensate retraction
G1 X92.691 Y92.750 F1686.920 E1.41027 ; perimeter
G1 X107.191 Y92.750 E1.82053 ; perimeter
G1 X107.191 Y107.250 E2.23080 ; perimeter
G1 X92.766 Y107.250 E2.63894 ; perimeter
G1 X93.191 Y106.750 F7800.000 ; move to first perimeter point
G1 X93.191 Y93.250 F1686.920 E3.02091 ; perimeter
G1 X106.691 Y93.250 E3.40289 ; perimeter
G1 X106.691 Y106.750 E3.78486 ; perimeter
G1 X93.266 Y106.750 E4.16471 ; perimeter
G1 X93.691 Y106.250 F7800.000 ; move to first perimeter point
G1 X93.691 Y93.750 F1180.844 E4.51839 ; perimeter
G1 X106.191 Y93.750 E4.87206 ; perimeter
G1 X106.191 Y106.250 E5.22574 ; perimeter
G1 X93.766 Y106.250 E5.57730 ; perimeter
G1 X93.941 Y105.817 F7800.000 ; move inwards before travel
G1 F1800.000 E4.57730 ; retract
G92 E0 ; reset extrusion distance
G1 X94.020 Y87.612 F7800.000 ; move to first perimeter point
G1 F1800.000 E1.00000 ; compensate retraction
G3 X100.804 Y86.287 I5.701 J8.906 F1800.000 E1.00000 ; perimeter
G3 X94.020 Y112.388 I-1.718 J18.198 E1.00000 ; perimeter
G3 X93.957 Y87.652 I5.849 J-12.353 E1.00000 ; perimeter
G1 X93.752 Y87.190 F7800.000 ; move to first perimeter point
G3 X100.835 Y85.784 I5.965 J9.263 F1800.000 E1.00000 ; perimeter
G3 X93.689 Y87.230 I-0.925 J14.375 E1.00001 ; perimeter
G1 X86.194 Y94.707 F7800.000 ; move to first perimeter point
G3 X100.867 Y85.281 I13.630 J3.427 F1260.000 E1.00001 ; perimeter
G3 X112.926 Y92.980 I-0.941 J14.794 E1.00001 ; perimeter
G1 X112.898 Y92.980 E1.00080 ; perimeter
G3 X93.485 Y113.232 I-10.241 J5.993 E1.00080 ; perimeter
G3 X86.175 Y94.780 I6.289 J-13.164 E1.00080 ; perimeter
G1 X86.329 Y94.669 F7800.000 ; move inwards before travel
G1 X87.507 Y95.088 ; move to first fill point
G1 X94.907 Y87.688 F3373.839 E1.30887 ; fill
G1 X95.997 Y87.334 E1.34260 ; fill
G1 X87.253 Y96.078 E1.70661 ; fill
G1 X86.999 Y97.068 E1.73669 ; fill
G1 X97.086 Y86.980 E2.15665 ; fill
G1 X93.452 Y88.407 F7800.000 ; move to first fill point
G1 X88.398 Y93.461 F3373.839 E2.36703 ; fill
G1 X91.304 Y89.820 F7800.000 ; move to first fill point
G1 X91.439 Y89.685 F3373.839 E2.37263 ; fill
G1 F1800.000 E1.37263 ; retract
G92 E0 ; reset extrusion distance
G1 X107.558 Y107.407 F7800.000 ; move to first fill point
G1 F1800.000 E1.00000 ; compensate retraction
G1 X113.072 Y101.892 F3373.839 E1.22957 ; fill
G1 X113.179 Y101.050 E1.25455 ; fill
G1 X107.558 Y106.671 E1.48855 ; fill
G1 X107.558 Y105.935 E1.51021 ; fill
G1 X113.285 Y100.208 E1.74864 ; fill
G1 X113.249 Y99.508 E1.76926 ; fill
G1 X107.558 Y105.200 E2.00620 ; fill
G1 X107.558 Y104.464 E2.02786 ; fill
G1 X113.167 Y98.855 E2.26136 ; fill
G1 X113.084 Y98.202 E2.28074 ; fill
G1 X107.558 Y103.728 E2.51080 ; fill
G1 X107.558 Y102.993 E2.53246 ; fill
G1 X113.002 Y97.549 E2.75909 ; fill
G1 X112.919 Y96.896 E2.77847 ; fill
G1 X107.558 Y102.257 E3.00166 ; fill
G1 X107.558 Y101.521 E3.02332 ; fill
G1 X112.753 Y96.326 E3.23960 ; fill
G1 X112.544 Y95.799 E3.25629 ; fill
G1 X107.558 Y100.786 E3.46389 ; fill
G1 X107.558 Y100.050 E3.48554 ; fill
G1 X112.336 Y95.272 E3.68445 ; fill
G1 X112.127 Y94.745 E3.70114 ; fill
G1 X107.558 Y99.314 E3.89136 ; fill
G1 X107.558 Y98.579 E3.91302 ; fill
G1 X111.918 Y94.218 E4.09456 ; fill
G1 X111.710 Y93.691 E4.11124 ; fill
G1 X107.558 Y97.843 E4.28410 ; fill
G1 X107.558 Y97.107 E4.30575 ; fill
G1 X111.425 Y93.240 E4.46677 ; fill
G1 X111.116 Y92.813 E4.48227 ; fill
G1 X107.558 Y96.372 E4.63040 ; fill
G1 X107.558 Y95.636 E4.65206 ; fill
G1 X110.806 Y92.387 E4.78730 ; fill
G1 X110.497 Y91.961 E4.80281 ; fill
G1 X107.558 Y94.900 E4.92516 ; fill
G1 X107.558 Y94.165 E4.94682 ; fill
G1 X110.187 Y91.535 E5.05628 ; fill
G1 X109.878 Y91.109 E5.07179 ; fill
G1 X107.558 Y93.429 E5.16837 ; fill
G1 X107.558 Y92.693 E5.19002 ; fill
G1 X109.532 Y90.719 E5.27222 ; fill
G1 X109.130 Y90.386 E5.28760 ; fill
G1 X107.132 Y92.383 E5.37075 ; fill
G1 X106.396 Y92.383 E5.39241 ; fill
G1 X108.727 Y90.053 E5.48942 ; fill
G1 X108.324 Y89.720 E5.50481 ; fill
G1 X105.661 Y92.383 E5.61569 ; fill
G1 X104.925 Y92.383 E5.63734 ; fill
G1 X107.922 Y89.387 E5.76209 ; fill
G1 X107.519 Y89.054 E5.77747 ; fill
G1 X104.189 Y92.383 E5.91609 ; fill
G1 X103.454 Y92.383 E5.93774 ; fill
G1 X107.116 Y88.721 E6.09022 ; fill
G1 X106.619 Y88.482 E6.10646 ; fill
G1 X102.718 Y92.383 E6.26885 ; fill
G1 X101.982 Y92.383 E6.29051 ; fill
G1 X106.119 Y88.247 E6.46270 ; fill
G1 X105.618 Y88.012 E6.47898 ; fill
G1 X101.247 Y92.383 E6.66097 ; fill
G1 X100.511 Y92.383 E6.68263 ; fill
G1 X105.118 Y87.776 E6.87442 ; fill
G1 X104.618 Y87.541 E6.89069 ; fill
G1 X99.775 Y92.383 E7.09229 ; fill
G1 X99.040 Y92.383 E7.11394 ; fill
G1 X104.118 Y87.305 E7.32534 ; fill
G1 X103.510 Y87.177 E7.34361 ; fill
G1 X98.304 Y92.383 E7.56035 ; fill
G1 X97.568 Y92.383 E7.58201 ; fill
G1 X102.893 Y87.059 E7.80365 ; fill
G1 X102.275 Y86.941 E7.82217 ; fill
G1 X96.833 Y92.383 E8.04872 ; fill
G1 X96.097 Y92.383 E8.07038 ; fill
G1 X101.657 Y86.823 E8.30184 ; fill
G1 X101.039 Y86.705 E8.32036 ; fill
G1 X95.361 Y92.383 E8.55672 ; fill
G1 X94.626 Y92.383 E8.57838 ; fill
G1 X100.324 Y86.685 E8.81561 ; fill
G1 X99.539 Y86.734 E8.83877 ; fill
G1 X93.890 Y92.383 E9.07394 ; fill
G1 X93.154 Y92.383 E9.09559 ; fill
G1 X98.754 Y86.784 E9.32871 ; fill
G1 X97.969 Y86.833 E9.35187 ; fill
G1 X86.744 Y98.058 E9.81915 ; fill
G1 X86.676 Y98.862 E9.84291 ; fill
G1 X92.324 Y93.214 E10.07804 ; fill
G1 X92.324 Y93.949 E10.09970 ; fill
G1 X86.676 Y99.597 E10.33483 ; fill
G1 X86.676 Y100.333 E10.35649 ; fill
G1 X92.324 Y94.685 E10.59162 ; fill
G1 X92.324 Y95.421 E10.61328 ; fill
G1 X86.676 Y101.069 E10.84841 ; fill
G1 X86.702 Y101.778 E10.86931 ; fill
G1 X92.324 Y96.156 E11.10334 ; fill
G1 X92.324 Y96.892 E11.12500 ; fill
G1 X86.853 Y102.363 E11.35278 ; fill
G1 X87.003 Y102.949 E11.37057 ; fill
G1 X92.324 Y97.628 E11.59210 ; fill
G1 X92.324 Y98.363 E11.61375 ; fill
G1 X87.153 Y103.534 E11.82902 ; fill
G1 X87.303 Y104.120 E11.84681 ; fill
G1 X92.324 Y99.099 E12.05582 ; fill
G1 X92.324 Y99.835 E12.07748 ; fill
G1 X87.454 Y104.705 E12.28023 ; fill
G1 X87.674 Y105.221 E12.29673 ; fill
G1 X92.324 Y100.570 E12.49033 ; fill
G1 X92.324 Y101.306 E12.51199 ; fill
