; generated by Slic3r 0.9.11-dev on 2013-06-24 at 20:57:02

; layer_height = 0.4
; perimeters = 3
; top_solid_layers = 3
; bottom_solid_layers = 3
; fill_density = 0.4
; perimeter_speed = 30
; infill_speed = 60
; travel_speed = 130
; nozzle_diameter = 0.5
; filament_diameter = 3
; extrusion_multiplier = 1
; perimeters extrusion width = 0.50mm
; infill extrusion width = 0.53mm
; solid infill extrusion width = 0.53mm
; top infill extrusion width = 0.53mm
; first layer extrusion width = 0.70mm

G21 ; set units to millimeters
M107 ; disable fan
M104 S200 ; set temperature
G28 ; home all axes
G1 Z5 F5000 ; lift nozzle

M109 S200 ; wait for temperature to be reached
G90 ; use absolute coordinates
G92 E0 ; reset extrusion distance
M82 ; use absolute distances for extrusion
G1 F1800.000 E-1.00000 ; retract
G92 E0 ; reset extrusion distance
G1 Z0.350 F7800.000 ; move to next layer (0)
G1 X75.290 Y75.290 ; move to first skirt point
G1 F1800.000 E1.00000 ; compensate retraction
G3 X80.000 Y73.340 I4.720 J4.714 F540.000 E1.00000 ; skirt
G1 X120.000 Y73.340 E2.30141 ; skirt
G3 X126.660 Y80.000 I-0.011 J6.671 E2.30141 ; skirt
G1 X126.660 Y120.000 E3.60282 ; skirt
G3 X120.000 Y126.660 I-6.671 J-0.011 E3.60282 ; skirt
G1 X80.000 Y126.660 E4.90423 ; skirt
G3 X73.340 Y120.000 I0.011 J-6.671 E4.90423 ; skirt
G1 X73.340 Y80.000 E6.20564 ; skirt
G3 X75.227 Y75.366 I6.576 J0.001 E6.20564 ; skirt
G1 F1800.000 E5.20564 ; retract
G92 E0 ; reset extrusion distance
G1 X91.123 Y89.661 F7800.000 ; move to first perimeter point
G1 F1800.000 E1.00000 ; compensate retraction
G3 X100.857 Y86.371 I8.731 J8.026 F540.000 E1.00000 ; perimeter
G3 X88.831 Y107.806 I-1.243 J15.650 E1.00000 ; perimeter
G3 X91.056 Y89.733 I10.911 J-7.808 E1.00000 ; perimeter
G1 X91.602 Y90.111 F7800.000 ; move to first perimeter point
G3 X100.816 Y87.032 I8.256 J7.637 F540.000 E1.00000 ; perimeter
G3 X89.407 Y107.490 I-1.191 J14.936 E1.00001 ; perimeter
G3 X91.535 Y90.183 I10.406 J-7.483 E1.00001 ; perimeter
G1 X92.081 Y90.561 F7800.000 ; move to first perimeter point
G3 X100.774 Y87.693 I7.781 J7.248 F378.000 E1.00001 ; perimeter
G3 X89.983 Y107.173 I-1.140 J14.222 E1.00001 ; perimeter
G3 X92.014 Y90.633 I9.900 J-7.157 E1.00001 ; perimeter
G1 X92.164 Y90.580 F7800.000 ; move inwards before travel
G1 X81.643 Y81.643 ; move to first perimeter point
G1 X118.357 Y81.643 F540.000 E2.19453 ; perimeter
G1 X118.357 Y118.357 E3.38904 ; perimeter
G1 X81.643 Y118.357 E4.58356 ; perimeter
G1 X81.643 Y81.741 E5.77487 ; perimeter
G1 X80.986 Y80.986 F7800.000 ; move to first perimeter point
G1 X119.014 Y80.986 F540.000 E7.01215 ; perimeter
G1 X119.014 Y119.014 E8.24942 ; perimeter
G1 X80.986 Y119.014 E9.48669 ; perimeter
G1 X80.986 Y81.084 E10.72076 ; perimeter
G1 X80.329 Y80.329 F7800.000 ; move to first perimeter point
G1 X119.671 Y80.329 F378.000 E12.00079 ; perimeter
G1 X119.671 Y119.671 E13.28082 ; perimeter
G1 X80.329 Y119.671 E14.56085 ; perimeter
G1 X80.329 Y80.427 E15.83768 ; perimeter
G1 X80.898 Y80.657 F7800.000 ; move inwards before travel
G1 X105.163 Y86.930 ; move to first fill point
G1 X100.352 Y82.119 F1080.000 E16.06041 ; fill
G1 X99.417 Y82.119 E16.09102 ; fill
G1 X103.733 Y86.435 E16.29084 ; fill
G1 X102.577 Y86.214 E16.32934 ; fill
G1 X98.482 Y82.119 E16.51895 ; fill
G1 X97.547 Y82.119 E16.54956 ; fill
G1 X101.422 Y85.994 E16.72897 ; fill
G1 X100.415 Y85.922 E16.76202 ; fill
G1 X96.612 Y82.119 E16.93809 ; fill
G1 X95.677 Y82.119 E16.96870 ; fill
G1 X99.535 Y85.977 E17.14732 ; fill
G1 X98.655 Y86.033 E17.17618 ; fill
G1 X94.742 Y82.119 E17.35737 ; fill
G1 X93.807 Y82.119 E17.38798 ; fill
G1 X97.776 Y86.088 E17.57173 ; fill
G1 X96.986 Y86.233 E17.59802 ; fill
G1 X92.872 Y82.119 E17.78850 ; fill
G1 X91.937 Y82.119 E17.81911 ; fill
G1 X96.280 Y86.463 E18.02020 ; fill
G1 X95.575 Y86.692 E18.04450 ; fill
G1 X91.002 Y82.119 E18.25621 ; fill
G1 X90.067 Y82.119 E18.28682 ; fill
G1 X94.869 Y86.921 E18.50915 ; fill
G1 X94.163 Y87.150 E18.53344 ; fill
G1 X89.132 Y82.119 E18.76639 ; fill
G1 X88.197 Y82.119 E18.79700 ; fill
G1 X93.557 Y87.479 E19.04515 ; fill
G1 X92.985 Y87.842 E19.06733 ; fill
G1 X87.262 Y82.119 E19.33229 ; fill
G1 X86.327 Y82.119 E19.36290 ; fill
G1 X92.413 Y88.205 E19.64467 ; fill
G1 X91.841 Y88.568 E19.66685 ; fill
G1 X85.392 Y82.119 E19.96542 ; fill
G1 X84.457 Y82.119 E19.99603 ; fill
G1 X91.269 Y88.931 E20.31141 ; fill
G1 X90.758 Y89.355 E20.33315 ; fill
G1 X83.522 Y82.119 E20.66816 ; fill
G1 X82.587 Y82.119 E20.69877 ; fill
G1 X90.305 Y89.837 E21.05611 ; fill
G1 X89.852 Y90.319 E21.07776 ; fill
G1 X82.119 Y82.586 E21.43578 ; fill
G1 X82.119 Y83.521 E21.46639 ; fill
G1 X89.399 Y90.802 E21.80345 ; fill
G1 X88.946 Y91.284 E21.82510 ; fill
G1 X82.119 Y84.456 E22.14120 ; fill
G1 X82.119 Y85.391 E22.17180 ; fill
G1 X88.512 Y91.785 E22.46780 ; fill
G1 X88.181 Y92.388 E22.49034 ; fill
G1 X82.119 Y86.326 E22.77098 ; fill
G1 X82.119 Y87.262 E22.80159 ; fill
G1 X87.849 Y92.992 E23.06688 ; fill
G1 X87.517 Y93.595 E23.08942 ; fill
G1 X82.119 Y88.197 E23.33935 ; fill
G1 X82.119 Y89.132 E23.36996 ; fill
G1 X87.186 Y94.198 E23.60453 ; fill
G1 X86.855 Y94.803 E23.62709 ; fill
G1 X82.119 Y90.067 E23.84636 ; fill
G1 X82.119 Y91.002 E23.87697 ; fill
G1 X86.664 Y95.547 E24.08741 ; fill
G1 X86.473 Y96.291 E24.11255 ; fill
G1 X82.119 Y91.937 E24.31414 ; fill
G1 X82.119 Y92.872 E24.34475 ; fill
G1 X86.282 Y97.035 E24.53749 ; fill
G1 X86.091 Y97.779 E24.56264 ; fill
G1 X82.119 Y93.807 E24.74653 ; fill
G1 X82.119 Y94.742 E24.77714 ; fill
G1 X85.976 Y98.598 E24.95570 ; fill
G1 X85.976 Y99.533 E24.98631 ; fill
G1 X82.119 Y95.677 E25.16486 ; fill
G1 X82.119 Y96.612 E25.19547 ; fill
G1 X85.976 Y100.468 E25.37403 ; fill
G1 X85.976 Y101.403 E25.40464 ; fill
G1 X82.119 Y97.547 E25.58319 ; fill
G1 X82.119 Y98.482 E25.61380 ; fill
G1 X86.171 Y102.534 E25.80142 ; fill
G1 X86.494 Y103.792 E25.84394 ; fill
G1 X82.119 Y99.417 E26.04651 ; fill
G1 X82.119 Y100.352 E26.07712 ; fill
G1 X86.817 Y105.050 E26.29465 ; fill
G1 X87.859 Y107.027 F7800.000 ; move to first fill point
G1 X82.119 Y101.287 F1080.000 E26.56041 ; fill
G1 X82.119 Y102.222 E26.59102 ; fill
G1 X97.778 Y117.881 E27.31600 ; fill
G1 X96.843 Y117.881 E27.34661 ; fill
G1 X82.119 Y103.157 E28.02830 ; fill
G1 X82.119 Y104.092 E28.05891 ; fill
G1 X95.908 Y117.881 E28.69732 ; fill
G1 X94.973 Y117.881 E28.72793 ; fill
G1 X82.119 Y105.027 E29.32304 ; fill
G1 X82.119 Y105.962 E29.35365 ; fill
G1 X94.038 Y117.881 E29.90548 ; fill
G1 X93.103 Y117.881 E29.93609 ; fill
G1 X82.119 Y106.897 E30.44462 ; fill
G1 X82.119 Y107.832 E30.47523 ; fill
G1 X92.168 Y117.881 E30.94048 ; fill
G1 X91.233 Y117.881 E30.97109 ; fill
G1 X82.119 Y108.767 E31.39305 ; fill
G1 X82.119 Y109.702 E31.42366 ; fill
G1 X90.298 Y117.881 E31.80233 ; fill
G1 X89.363 Y117.881 E31.83294 ; fill
G1 X82.119 Y110.637 E32.16832 ; fill
G1 X82.119 Y111.572 E32.19893 ; fill
G1 X88.428 Y117.881 E32.49102 ; fill
G1 X87.493 Y117.881 E32.52163 ; fill
G1 X82.119 Y112.507 E32.77044 ; fill
G1 X82.119 Y113.442 E32.80105 ; fill
G1 X86.558 Y117.881 E33.00656 ; fill
G1 X85.623 Y117.881 E33.03717 ; fill
G1 X82.119 Y114.377 E33.19940 ; fill
G1 X82.119 Y115.312 E33.23001 ; fill
G1 X84.688 Y117.881 E33.34894 ; fill
G1 X83.753 Y117.881 E33.37955 ; fill
G1 X82.119 Y116.247 E33.45520 ; fill
G1 X82.119 Y117.182 E33.48581 ; fill
G1 X82.818 Y117.881 E33.51817 ; fill
G1 X93.000 Y112.168 F7800.000 ; move to first fill point
G1 X98.713 Y117.881 F1080.000 E33.78269 ; fill
G1 X94.835 Y113.068 F7800.000 ; move to first fill point
G1 X99.648 Y117.881 F1080.000 E34.00553 ; fill
G1 X100.583 Y117.881 E34.03614 ; fill
G1 X96.220 Y113.518 E34.23815 ; fill
G1 X97.534 Y113.897 E34.28292 ; fill
G1 X101.518 Y117.881 E34.46737 ; fill
G1 X102.453 Y117.881 E34.49798 ; fill
G1 X98.532 Y113.960 E34.67953 ; fill
G1 X99.530 Y114.022 E34.71226 ; fill
G1 X103.388 Y117.881 E34.89090 ; fill
G1 X104.323 Y117.881 E34.92151 ; fill
G1 X100.528 Y114.085 E35.09725 ; fill
G1 X101.389 Y114.012 E35.12557 ; fill
G1 X105.258 Y117.881 E35.30469 ; fill
G1 X106.193 Y117.881 E35.33530 ; fill
G1 X102.175 Y113.862 E35.52135 ; fill
G1 X102.960 Y113.713 E35.54752 ; fill
G1 X107.128 Y117.881 E35.74051 ; fill
G1 X108.063 Y117.881 E35.77112 ; fill
G1 X103.745 Y113.563 E35.97104 ; fill
G1 X104.500 Y113.382 E35.99644 ; fill
G1 X108.998 Y117.881 E36.20472 ; fill
G1 X109.933 Y117.881 E36.23533 ; fill
G1 X105.135 Y113.083 E36.45747 ; fill
G1 X105.771 Y112.784 E36.48047 ; fill
G1 X110.868 Y117.881 E36.71646 ; fill
G1 X111.803 Y117.881 E36.74707 ; fill
G1 X106.407 Y112.485 E36.99692 ; fill
G1 X107.043 Y112.185 E37.01992 ; fill
G1 X112.738 Y117.881 E37.28362 ; fill
G1 X113.674 Y117.881 E37.31423 ; fill
G1 X107.658 Y111.866 E37.59272 ; fill
G1 X108.170 Y111.442 E37.61446 ; fill
G1 X114.609 Y117.881 E37.91255 ; fill
G1 X115.544 Y117.881 E37.94316 ; fill
G1 X108.682 Y111.019 E38.26084 ; fill
G1 X109.193 Y110.596 E38.28258 ; fill
G1 X116.479 Y117.881 E38.61987 ; fill
G1 X117.414 Y117.881 E38.65048 ; fill
G1 X109.705 Y110.173 E39.00736 ; fill
G1 X110.217 Y109.749 E39.02910 ; fill
G1 X117.881 Y117.413 E39.38394 ; fill
G1 X117.881 Y116.478 E39.41455 ; fill
G1 X110.631 Y109.228 E39.75022 ; fill
G1 X111.024 Y108.686 E39.77214 ; fill
G1 X117.881 Y115.543 E40.08960 ; fill
G1 X117.881 Y114.608 E40.12021 ; fill
G1 X111.417 Y108.145 E40.41946 ; fill
G1 X111.811 Y107.603 E40.44137 ; fill
G1 X117.881 Y113.673 E40.72240 ; fill
G1 X117.881 Y112.738 E40.75301 ; fill
G1 X112.204 Y107.062 E41.01582 ; fill
G1 X112.529 Y106.452 E41.03845 ; fill
G1 X117.881 Y111.803 E41.28623 ; fill
G1 X117.881 Y110.868 E41.31684 ; fill
G1 X112.794 Y105.782 E41.55233 ; fill
G1 X113.060 Y105.112 E41.57592 ; fill
G1 X117.881 Y109.933 E41.79914 ; fill
G1 X117.881 Y108.998 E41.82975 ; fill
G1 X113.325 Y104.442 E42.04069 ; fill
G1 X113.590 Y103.772 E42.06427 ; fill
G1 X117.881 Y108.063 E42.26294 ; fill
G1 X117.881 Y107.128 E42.29355 ; fill
G1 X113.756 Y103.004 E42.48451 ; fill
G1 X113.861 Y102.173 E42.51190 ; fill
G1 X117.881 Y106.193 E42.69801 ; fill
G1 X117.881 Y105.258 E42.72862 ; fill
G1 X113.966 Y101.343 E42.90987 ; fill
G1 X114.071 Y100.513 E42.93726 ; fill
G1 X117.881 Y104.323 E43.11366 ; fill
G1 X117.881 Y103.388 E43.14427 ; fill
G1 X114.084 Y99.591 E43.32005 ; fill
G1 X113.949 Y98.521 E43.35536 ; fill
G1 X117.881 Y102.453 E43.53741 ; fill
G1 X117.881 Y101.518 E43.56802 ; fill
G1 X113.814 Y97.451 E43.75632 ; fill
G1 X113.632 Y96.334 E43.79336 ; fill
G1 X117.881 Y100.583 E43.99007 ; fill
G1 X117.881 Y99.648 E44.02068 ; fill
G1 X113.019 Y94.786 E44.24576 ; fill
G1 X112.407 Y93.239 F7800.000 ; move to first fill point
G1 X117.881 Y98.713 F1080.000 E44.49921 ; fill
G1 X117.881 Y97.778 E44.52982 ; fill
G1 X102.222 Y82.119 E45.25480 ; fill
G1 X101.287 Y82.119 E45.28541 ; fill
G1 X106.929 Y87.761 E45.54662 ; fill
G1 X117.881 Y82.818 F7800.000 ; move to first fill point
G1 X117.182 Y82.119 F1080.000 E45.57898 ; fill
G1 X116.247 Y82.119 E45.60959 ; fill
G1 X117.881 Y83.753 E45.68523 ; fill
G1 X117.881 Y84.688 E45.71584 ; fill
G1 X115.312 Y82.119 E45.83477 ; fill
G1 X114.377 Y82.119 E45.86538 ; fill
G1 X117.881 Y85.623 E46.02760 ; fill
G1 X117.881 Y86.558 E46.05821 ; fill
G1 X113.442 Y82.119 E46.26372 ; fill
G1 X112.507 Y82.119 E46.29433 ; fill
G1 X117.881 Y87.493 E46.54313 ; fill
G1 X117.881 Y88.428 E46.57374 ; fill
G1 X111.572 Y82.119 E46.86583 ; fill
G1 X110.637 Y82.119 E46.89644 ; fill
G1 X117.881 Y89.363 E47.23182 ; fill
G1 X117.881 Y90.298 E47.26242 ; fill
G1 X109.702 Y82.119 E47.64109 ; fill
G1 X108.767 Y82.119 E47.67170 ; fill
G1 X117.881 Y91.233 E48.09365 ; fill
G1 X117.881 Y92.168 E48.12426 ; fill
G1 X107.832 Y82.119 E48.58951 ; fill
G1 X106.897 Y82.119 E48.62012 ; fill
G1 X117.881 Y93.103 E49.12865 ; fill
G1 X117.881 Y94.038 E49.15926 ; fill
G1 X105.962 Y82.119 E49.71108 ; fill
G1 X105.027 Y82.119 E49.74169 ; fill
G1 X117.881 Y94.973 E50.33680 ; fill
G1 X117.881 Y95.908 E50.36741 ; fill
G1 X104.092 Y82.119 E51.00581 ; fill
G1 X103.157 Y82.119 E51.03641 ; fill
G1 X117.881 Y96.843 E51.71810 ; fill
M106 S126 ; enable fan
G1 F1800.000 E50.71810 ; retract
G92 E0 ; reset extrusion distance
G1 Z0.750 F7800.000 ; move to next layer (1)
G1 X112.734 Y96.427 ; move to first perimeter point
G1 F1800.000 E1.00000 ; compensate retraction
G3 X100.537 Y113.215 I-11.284 J4.627 F1800.000 E1.00000 ; perimeter
G3 X91.345 Y110.001 I-0.834 J-10.860 E1.00000 ; perimeter
G3 X100.537 Y86.785 I8.503 J-10.062 E1.00000 ; perimeter
G1 X100.833 Y86.766 E1.00837 ; perimeter
G3 X112.707 Y96.358 I-0.791 J13.018 E1.00837 ; perimeter
G1 X112.270 Y96.611 F7800.000 ; move to first perimeter point
G3 X100.569 Y112.716 I-10.849 J4.421 F1800.000 E1.00837 ; perimeter
G3 X91.710 Y109.659 I-0.829 J-10.439 E1.00837 ; perimeter
G3 X100.569 Y87.284 I8.171 J-9.706 E1.00837 ; perimeter
G1 X100.801 Y87.269 E1.01495 ; perimeter
G3 X112.242 Y96.542 I-0.767 J12.552 E1.01495 ; perimeter
G1 X111.805 Y96.796 F7800.000 ; move to first perimeter point
G3 X92.074 Y109.317 I-11.013 J4.452 F1260.000 E1.01496 ; perimeter
G3 X100.769 Y87.772 I7.919 J-9.427 E1.01496 ; perimeter
G3 X111.777 Y96.726 I-0.742 J12.085 E1.01496 ; perimeter
G1 X111.699 Y96.928 F7800.000 ; move inwards before travel
G1 X118.750 Y81.250 ; move to first perimeter point
G1 X118.750 Y118.750 F1800.000 E2.07599 ; perimeter
G1 X81.250 Y118.750 E3.13702 ; perimeter
G1 X81.250 Y81.250 E4.19806 ; perimeter
G1 X118.675 Y81.250 E5.25697 ; perimeter
G1 X119.250 Y80.750 F7800.000 ; move to first perimeter point
G1 X119.250 Y119.250 F1800.000 E6.34629 ; perimeter
G1 X80.750 Y119.250 E7.43562 ; perimeter
G1 X80.750 Y80.750 E8.52495 ; perimeter
G1 X119.175 Y80.750 E9.61215 ; perimeter
G1 X119.750 Y80.250 F7800.000 ; move to first perimeter point
G1 X119.750 Y119.750 F1260.000 E10.72977 ; perimeter
G1 X80.250 Y119.750 E11.84740 ; perimeter
G1 X80.250 Y80.250 E12.96502 ; perimeter
G1 X119.675 Y80.250 E14.08052 ; perimeter
G1 X119.500 Y80.683 F7800.000 ; move inwards before travel
G1 X112.489 Y105.188 ; move to first fill point
G1 X118.383 Y99.294 F3600.000 E14.32715 ; fill
G1 X118.383 Y98.555 E14.34903 ; fill
G1 X112.974 Y103.964 E14.57538 ; fill
G1 X113.258 Y102.941 E14.60682 ; fill
G1 X118.383 Y97.816 E14.82127 ; fill
G1 X118.383 Y97.076 E14.84315 ; fill
G1 X113.365 Y102.094 E15.05313 ; fill
G1 X113.472 Y101.248 E15.07838 ; fill
G1 X118.383 Y96.337 E15.28388 ; fill
G1 X118.383 Y95.597 E15.30576 ; fill
G1 X113.579 Y100.401 E15.50680 ; fill
G1 X113.586 Y99.655 E15.52889 ; fill
G1 X118.383 Y94.858 E15.72963 ; fill
G1 X118.383 Y94.118 E15.75151 ; fill
G1 X113.503 Y98.998 E15.95571 ; fill
G1 X113.420 Y98.342 E15.97529 ; fill
G1 X118.383 Y93.379 E16.18297 ; fill
G1 X118.383 Y92.639 E16.20485 ; fill
G1 X113.337 Y97.685 E16.41600 ; fill
G1 X113.254 Y97.029 E16.43558 ; fill
G1 X118.383 Y91.900 E16.65020 ; fill
G1 X118.383 Y91.160 E16.67208 ; fill
G1 X113.125 Y96.418 E16.89209 ; fill
G1 X112.916 Y95.889 E16.90895 ; fill
G1 X118.383 Y90.421 E17.13774 ; fill
G1 X118.383 Y89.681 E17.15962 ; fill
G1 X112.706 Y95.359 E17.39718 ; fill
G1 X112.496 Y94.829 E17.41404 ; fill
G1 X118.383 Y88.942 E17.66038 ; fill
G1 X118.383 Y88.203 E17.68226 ; fill
G1 X112.286 Y94.299 E17.93738 ; fill
G1 X112.077 Y93.770 E17.95424 ; fill
G1 X118.383 Y87.463 E18.21814 ; fill
G1 X118.383 Y86.724 E18.24002 ; fill
G1 X111.830 Y93.277 E18.51424 ; fill
G1 X111.519 Y92.849 E18.52991 ; fill
G1 X118.383 Y85.984 E18.81715 ; fill
G1 X118.383 Y85.245 E18.83903 ; fill
G1 X111.207 Y92.420 E19.13930 ; fill
G1 X110.896 Y91.992 E19.15496 ; fill
G1 X118.383 Y84.505 E19.46825 ; fill
G1 X118.383 Y83.766 E19.49013 ; fill
G1 X110.585 Y91.564 E19.81644 ; fill
G1 X110.274 Y91.136 E19.83211 ; fill
G1 X118.383 Y83.026 E20.17144 ; fill
G1 X118.383 Y82.287 E20.19332 ; fill
G1 X109.963 Y90.707 E20.54567 ; fill
G1 X109.566 Y90.364 E20.56118 ; fill
G1 X118.314 Y81.617 E20.92722 ; fill
G1 X117.574 Y81.617 E20.94910 ; fill
G1 X109.162 Y90.030 E21.30113 ; fill
G1 X108.757 Y89.695 E21.31667 ; fill
G1 X116.835 Y81.617 E21.65469 ; fill
G1 X116.095 Y81.617 E21.67657 ; fill
G1 X108.352 Y89.360 E22.00059 ; fill
G1 X107.948 Y89.025 E22.01613 ; fill
