; generated by Slic3r 0.9.10-dev on 2013-06-11 at 19:43:50

; layer_height = 0.4
; perimeters = 3
; top_solid_layers = 3
; bottom_solid_layers = 3
; fill_density = 0.4
; perimeter_speed = 30
; infill_speed = 60
; travel_speed = 130
; nozzle_diameter = 0.5
; filament_diameter = 3
; extrusion_multiplier = 1
; perimeters extrusion width = 0.53mm
; infill extrusion width = 0.53mm
; solid infill extrusion width = 0.53mm
; top infill extrusion width = 0.53mm
; first layer extrusion width = 0.70mm

G21 ; set units to millimeters
M107 ; disable fan
M104 S200 ; set temperature
G28 ; home all axes
G1 Z5 F5000 ; lift nozzle

M109 S200 ; wait for temperature to be reached
G90 ; use absolute coordinates
G92 E0 ; reset extrusion distance
M82 ; use absolute distances for extrusion
G1 F1800.000 E-1.00000 ; retract
G92 E0 ; reset extrusion distance
G1 Z0.350 F7800.000 ; move to next layer (0)
G1 X85.020 Y84.350 ; move to first skirt point
G1 F1800.000 E1.00000 ; compensate retraction
G1 X86.010 Y83.460 F540.000 E1.04331 ; skirt
G1 X86.340 Y83.190 E1.05718 ; skirt
G1 X86.340 Y83.190 F7800.000 ; move to first skirt point
G3 X99.840 Y78.340 I13.495 J16.531 F540.000 E1.05719 ; skirt
G1 X99.840 Y78.340 F7800.000 ; move to first skirt point
G3 X120.520 Y106.880 I0.279 J21.175 F540.000 E1.05719 ; skirt
G1 X120.520 Y106.880 F7800.000 ; move to first skirt point
G3 X84.950 Y84.420 I-20.369 J-6.660 F540.000 E1.05719 ; skirt
G1 F1800.000 E0.05719 ; retract
G92 E0 ; reset extrusion distance
G1 X93.399 Y92.970 F7800.000 ; move to first perimeter point
G1 F1800.000 E1.00000 ; compensate retraction
G3 X100.000 Y90.356 I6.602 J7.030 F540.000 E1.00000 ; perimeter
G1 X100.000 Y90.356 F7800.000 ; move to first perimeter point
G3 X93.329 Y93.040 I-0.002 J9.711 F540.000 E1.00000 ; perimeter
G1 X93.849 Y93.449 F7800.000 ; move to first perimeter point
G3 X100.000 Y91.014 I6.151 J6.551 F540.000 E1.00000 ; perimeter
G1 X100.000 Y91.014 F7800.000 ; move to first perimeter point
G3 X93.779 Y93.519 I-0.002 J9.054 F540.000 E1.00000 ; perimeter
G1 X94.299 Y93.929 F7800.000 ; move to first perimeter point
G3 X100.000 Y91.671 I5.701 J6.071 F540.000 E1.00000 ; perimeter
G1 X100.000 Y91.671 F7800.000 ; move to first perimeter point
G3 X94.229 Y93.998 I-0.002 J8.396 F378.000 E1.00001 ; perimeter
G1 X94.798 Y94.085 F7800.000 ; move inwards before travel
G1 F1800.000 E0.00001 ; retract
G92 E0 ; reset extrusion distance
G1 X91.486 Y89.709 F7800.000 ; move to first perimeter point
G1 F1800.000 E1.00000 ; compensate retraction
G3 X100.000 Y86.644 I8.514 J10.291 F540.000 E1.00000 ; perimeter
G1 X100.000 Y86.644 F7800.000 ; move to first perimeter point
G3 X91.412 Y89.774 I-0.002 J13.428 F540.000 E1.00000 ; perimeter
G1 X91.067 Y89.202 F7800.000 ; move to first perimeter point
G3 X100.000 Y85.986 I8.933 J10.797 F540.000 E1.00000 ; perimeter
G1 X100.000 Y85.986 F7800.000 ; move to first perimeter point
G3 X90.993 Y89.267 I-0.002 J14.085 F540.000 E1.00001 ; perimeter
G1 X90.644 Y88.700 F7800.000 ; move to first perimeter point
G3 X100.000 Y85.329 I9.356 J11.294 F540.000 E1.00001 ; perimeter
G1 X100.000 Y85.329 F7800.000 ; move to first perimeter point
G3 X90.570 Y88.765 I-0.002 J14.747 F378.000 E1.00001 ; perimeter
G1 X91.257 Y88.935 F7800.000 ; move inwards before travel
G1 X105.713 Y88.462 ; move to first fill point
G1 X111.538 Y94.287 F1080.000 E1.26895 ; fill
G1 X112.200 Y95.882 E1.32532 ; fill
G1 X104.118 Y87.800 E1.69847 ; fill
G1 X102.826 Y87.440 E1.74226 ; fill
G1 X112.560 Y97.174 E2.19167 ; fill
G1 X109.562 Y91.379 F7800.000 ; move to first fill point
G1 X108.621 Y90.438 F1080.000 E2.23514 ; fill
G1 F1800.000 E1.23514 ; retract
G92 E0 ; reset extrusion distance
G1 X99.339 Y112.859 F7800.000 ; move to first fill point
G1 F1800.000 E1.00000 ; compensate retraction
G1 X95.580 Y109.100 F1080.000 E1.17356 ; fill
G1 X97.104 Y109.692 E1.22695 ; fill
G1 X100.283 Y112.871 E1.37373 ; fill
G1 X101.165 Y112.821 E1.40258 ; fill
G1 X98.319 Y109.975 E1.53398 ; fill
G1 X99.377 Y110.100 E1.56876 ; fill
G1 X101.995 Y112.718 E1.68962 ; fill
G1 X102.779 Y112.570 E1.71568 ; fill
G1 X100.319 Y110.110 E1.82926 ; fill
G1 X101.189 Y110.048 E1.85774 ; fill
G1 X103.524 Y112.382 E1.96552 ; fill
G1 X104.233 Y112.159 E1.98979 ; fill
G1 X101.993 Y109.919 E2.09319 ; fill
G1 X102.743 Y109.736 E2.11838 ; fill
G1 X104.909 Y111.903 E2.21841 ; fill
G1 X105.556 Y111.617 E2.24149 ; fill
G1 X103.448 Y109.509 E2.33883 ; fill
G1 X104.113 Y109.242 E2.36223 ; fill
G1 X106.174 Y111.303 E2.45738 ; fill
G1 X106.762 Y110.958 E2.47962 ; fill
G1 X104.741 Y108.937 E2.57292 ; fill
G1 X105.334 Y108.597 E2.59523 ; fill
G1 X107.324 Y110.588 E2.68713 ; fill
G1 X107.863 Y110.194 E2.70891 ; fill
G1 X105.893 Y108.225 E2.79983 ; fill
G1 X106.422 Y107.820 E2.82154 ; fill
G1 X108.378 Y109.776 E2.91186 ; fill
G1 X108.870 Y109.336 E2.93342 ; fill
G1 X106.919 Y107.385 E3.02350 ; fill
G1 X107.385 Y106.919 E3.04503 ; fill
G1 X109.336 Y108.870 E3.13511 ; fill
G1 X109.776 Y108.378 E3.15667 ; fill
G1 X107.820 Y106.422 E3.24699 ; fill
G1 X108.225 Y105.893 E3.26870 ; fill
G1 X110.194 Y107.863 E3.35962 ; fill
G1 X110.588 Y107.324 E3.38140 ; fill
G1 X108.597 Y105.334 E3.47330 ; fill
G1 X108.937 Y104.741 E3.49561 ; fill
G1 X110.958 Y106.762 E3.58891 ; fill
G1 X111.303 Y106.174 E3.61115 ; fill
G1 X109.240 Y104.111 E3.70640 ; fill
G1 X109.509 Y103.448 E3.72976 ; fill
G1 X111.617 Y105.556 E3.82709 ; fill
G1 X111.903 Y104.909 E3.85018 ; fill
G1 X109.736 Y102.743 E3.95021 ; fill
G1 X109.919 Y101.993 E3.97540 ; fill
G1 X112.159 Y104.233 E4.07880 ; fill
G1 X112.382 Y103.524 E4.10306 ; fill
G1 X110.048 Y101.189 E4.21085 ; fill
G1 X110.110 Y100.319 E4.23933 ; fill
G1 X112.570 Y102.779 E4.35291 ; fill
G1 X112.718 Y101.995 E4.37897 ; fill
G1 X110.100 Y99.377 E4.49983 ; fill
G1 X109.975 Y98.319 E4.53461 ; fill
G1 X112.821 Y101.165 E4.66601 ; fill
G1 X112.871 Y100.283 E4.69486 ; fill
G1 X109.692 Y97.104 E4.84165 ; fill
G1 X109.100 Y95.579 E4.89503 ; fill
G1 X112.859 Y99.339 E5.06860 ; fill
G1 X112.767 Y98.314 E5.10218 ; fill
G1 X101.686 Y87.233 E5.61380 ; fill
G1 X100.661 Y87.141 E5.64739 ; fill
G1 X104.421 Y90.900 E5.82095 ; fill
G1 X102.896 Y90.308 E5.87434 ; fill
G1 X99.717 Y87.129 E6.02113 ; fill
G1 X98.835 Y87.179 E6.04998 ; fill
G1 X101.681 Y90.025 E6.18137 ; fill
G1 X100.626 Y89.903 E6.21603 ; fill
G1 X98.005 Y87.282 E6.33705 ; fill
G1 X97.221 Y87.430 E6.36311 ; fill
G1 X99.681 Y89.890 E6.47670 ; fill
G1 X98.811 Y89.952 E6.50518 ; fill
G1 X96.476 Y87.618 E6.61296 ; fill
G1 X95.767 Y87.841 E6.63723 ; fill
G1 X98.007 Y90.081 E6.74062 ; fill
G1 X97.257 Y90.264 E6.76582 ; fill
G1 X95.091 Y88.097 E6.86584 ; fill
G1 X94.444 Y88.383 E6.88893 ; fill
G1 X96.552 Y90.491 E6.98626 ; fill
G1 X95.887 Y90.758 E7.00966 ; fill
G1 X93.826 Y88.697 E7.10482 ; fill
G1 X93.238 Y89.042 E7.12706 ; fill
G1 X95.259 Y91.063 E7.22036 ; fill
G1 X94.666 Y91.403 E7.24267 ; fill
G1 X92.676 Y89.412 E7.33457 ; fill
G1 X92.137 Y89.806 E7.35635 ; fill
G1 X94.107 Y91.775 E7.44727 ; fill
G1 X93.578 Y92.180 E7.46898 ; fill
G1 X91.622 Y90.224 E7.55929 ; fill
G1 X91.130 Y90.664 E7.58085 ; fill
G1 X93.081 Y92.615 E7.67094 ; fill
G1 X92.615 Y93.081 E7.69246 ; fill
G1 X90.664 Y91.130 E7.78255 ; fill
G1 X90.224 Y91.622 E7.80411 ; fill
G1 X92.180 Y93.578 E7.89442 ; fill
G1 X91.775 Y94.107 E7.91614 ; fill
G1 X89.806 Y92.137 E8.00705 ; fill
G1 X89.412 Y92.676 E8.02883 ; fill
G1 X91.403 Y94.666 E8.12074 ; fill
G1 X91.063 Y95.259 E8.14304 ; fill
G1 X89.042 Y93.238 E8.23634 ; fill
G1 X88.697 Y93.826 E8.25858 ; fill
G1 X90.758 Y95.887 E8.35374 ; fill
G1 X90.491 Y96.552 E8.37714 ; fill
G1 X88.383 Y94.444 E8.47447 ; fill
G1 X88.097 Y95.091 E8.49756 ; fill
G1 X90.264 Y97.257 E8.59758 ; fill
G1 X90.081 Y98.007 E8.62278 ; fill
G1 X87.841 Y95.767 E8.72617 ; fill
G1 X87.618 Y96.476 E8.75044 ; fill
G1 X89.952 Y98.811 E8.85822 ; fill
G1 X89.890 Y99.681 E8.88670 ; fill
G1 X87.430 Y97.221 E9.00029 ; fill
G1 X87.282 Y98.005 E9.02635 ; fill
G1 X89.900 Y100.623 E9.14720 ; fill
G1 X90.027 Y101.682 E9.18205 ; fill
G1 X87.179 Y98.835 E9.31352 ; fill
G1 X87.129 Y99.717 E9.34237 ; fill
G1 X90.308 Y102.896 E9.48915 ; fill
G1 X90.900 Y104.420 E9.54254 ; fill
G1 X87.141 Y100.661 E9.71610 ; fill
G1 X87.233 Y101.686 E9.74968 ; fill
G1 X98.314 Y112.767 E10.26131 ; fill
G1 X97.174 Y112.560 E10.29913 ; fill
G1 X87.440 Y102.826 E10.74855 ; fill
G1 X87.800 Y104.118 E10.79234 ; fill
G1 X95.882 Y112.200 E11.16549 ; fill
G1 X94.287 Y111.538 E11.22186 ; fill
G1 X88.462 Y105.713 E11.49081 ; fill
G1 X90.437 Y108.620 F7800.000 ; move to first fill point
G1 X91.380 Y109.563 F1080.000 E11.53435 ; fill
M106 S255 ; enable fan
G1 F1800.000 E10.53435 ; retract
G92 E0 ; reset extrusion distance
G1 Z0.750 F7800.000 ; move to next layer (1)
G1 X93.634 Y106.779 ; move to first perimeter point
G1 F1800.000 E1.00000 ; compensate retraction
G3 X99.932 Y90.702 I6.334 J-6.710 F1800.000 E1.00000 ; perimeter
G1 X99.932 Y90.702 F7800.000 ; move to first perimeter point
G3 X93.692 Y106.831 I0.095 J9.327 F1800.000 E1.00000 ; perimeter
G1 X93.990 Y106.400 F7800.000 ; move to first perimeter point
G3 X99.948 Y91.222 I5.986 J-6.346 F1800.000 E1.00000 ; perimeter
G1 X99.948 Y91.222 F7800.000 ; move to first perimeter point
G3 X94.048 Y106.452 I0.073 J8.814 F1800.000 E1.00000 ; perimeter
G1 X94.346 Y106.021 F7800.000 ; move to first perimeter point
G3 X99.964 Y91.741 I5.638 J-5.983 F1800.000 E1.00000 ; perimeter
G1 X99.964 Y91.741 F7800.000 ; move to first perimeter point
G3 X94.404 Y106.073 I0.050 J8.301 F1800.000 E1.00000 ; perimeter
G1 X94.471 Y105.517 F7800.000 ; move inwards before travel
G1 F1800.000 E0.00000 ; retract
G92 E0 ; reset extrusion distance
G1 X90.013 Y109.378 F7800.000 ; move to first perimeter point
G1 F1800.000 E1.00000 ; compensate retraction
G3 X86.443 Y101.941 I9.827 J-9.238 F1800.000 E1.00000 ; perimeter
G1 X86.443 Y101.941 F7800.000 ; move to first perimeter point
G1 X86.429 Y101.941 F1485.878 E1.00042 ; perimeter
G1 X86.429 Y101.941 F7800.000 ; move to first perimeter point
G3 X86.429 Y98.059 I14.765 J-1.941 F1800.000 E1.00042 ; perimeter
G1 X86.429 Y98.059 F7800.000 ; move to first perimeter point
G1 X86.443 Y98.059 F1485.878 E1.00084 ; perimeter
G1 X86.443 Y98.059 F7800.000 ; move to first perimeter point
G3 X100.000 Y86.300 I13.558 J1.827 F1800.000 E1.00084 ; perimeter
G1 X100.000 Y86.300 F7800.000 ; move to first perimeter point
G3 X90.068 Y109.434 I-0.002 J13.757 F1800.000 E1.00084 ; perimeter
G1 X89.634 Y109.734 F7800.000 ; move to first perimeter point
G3 X100.000 Y85.780 I10.366 J-9.735 F1800.000 E1.00085 ; perimeter
G1 X100.000 Y85.780 F7800.000 ; move to first perimeter point
G3 X89.689 Y109.789 I-0.002 J14.277 F1800.000 E1.00085 ; perimeter
G1 X89.255 Y110.090 F7800.000 ; move to first perimeter point
G3 X100.000 Y85.260 I10.745 J-10.091 F1800.000 E1.00085 ; perimeter
G1 X100.000 Y85.260 F7800.000 ; move to first perimeter point
G3 X89.310 Y110.145 I-0.002 J14.797 F1260.000 E1.00085 ; perimeter
G1 X89.410 Y109.594 F7800.000 ; move inwards before travel
G1 X91.404 Y95.566 ; move to first fill point
G1 X86.685 Y100.285 F2971.756 E1.19788 ; fill
G1 X86.717 Y100.991 E1.21874 ; fill
G1 X90.853 Y96.856 E1.39140 ; fill
G1 X90.563 Y97.883 E1.42293 ; fill
G1 X86.781 Y101.665 E1.58082 ; fill
G1 X86.882 Y102.302 E1.59987 ; fill
G1 X90.405 Y98.779 E1.74699 ; fill
G1 X90.337 Y99.585 E1.77090 ; fill
G1 X87.006 Y102.916 E1.90995 ; fill
G1 X87.152 Y103.508 E1.92796 ; fill
G1 X90.334 Y100.326 E2.06082 ; fill
G1 X90.381 Y101.016 E2.08125 ; fill
G1 X87.318 Y104.080 E2.20916 ; fill
G1 X87.511 Y104.624 E2.22622 ; fill
G1 X90.472 Y101.663 E2.34985 ; fill
G1 X90.598 Y102.275 E2.36830 ; fill
G1 X87.720 Y105.153 E2.48848 ; fill
G1 X87.943 Y105.668 E2.50504 ; fill
G1 X90.757 Y102.854 E2.62257 ; fill
G1 X90.946 Y103.403 E2.63972 ; fill
G1 X88.191 Y106.157 E2.75472 ; fill
G1 X88.452 Y106.635 E2.77077 ; fill
G1 X91.161 Y103.926 E2.88386 ; fill
G1 X91.400 Y104.425 E2.90018 ; fill
G1 X88.726 Y107.098 E3.01180 ; fill
G1 X89.023 Y107.540 E3.02750 ; fill
G1 X91.662 Y104.901 E3.13769 ; fill
G1 X91.945 Y105.355 E3.15350 ; fill
G1 X89.329 Y107.971 E3.26273 ; fill
G1 X89.652 Y108.387 E3.27825 ; fill
G1 X92.250 Y105.789 E3.38673 ; fill
G1 X92.574 Y106.202 E3.40225 ; fill
G1 X89.991 Y108.785 E3.51008 ; fill
G1 X90.341 Y109.173 E3.52551 ; fill
G1 X92.921 Y106.593 E3.63326 ; fill
G1 X93.288 Y106.964 E3.64867 ; fill
G1 X90.709 Y109.542 E3.75631 ; fill
G1 X91.091 Y109.899 E3.77172 ; fill
G1 X93.673 Y107.316 E3.87956 ; fill
G1 X94.080 Y107.648 E3.89504 ; fill
G1 X91.483 Y110.244 E4.00345 ; fill
G1 X91.897 Y110.568 E4.01897 ; fill
G1 X94.506 Y107.960 E4.12789 ; fill
G1 X94.952 Y108.251 E4.14363 ; fill
G1 X92.321 Y110.882 E4.25349 ; fill
G1 X92.760 Y111.181 E4.26917 ; fill
G1 X95.420 Y108.521 E4.38023 ; fill
G1 X95.910 Y108.769 E4.39644 ; fill
G1 X93.218 Y111.461 E4.50884 ; fill
G1 X93.687 Y111.729 E4.52480 ; fill
G1 X96.425 Y108.992 E4.63912 ; fill
G1 X96.967 Y109.188 E4.65613 ; fill
G1 X94.176 Y111.978 E4.77267 ; fill
G1 X94.683 Y112.209 E4.78911 ; fill
G1 X97.536 Y109.356 E4.90826 ; fill
G1 X98.136 Y109.494 E4.92643 ; fill
G1 X95.204 Y112.427 E5.04889 ; fill
G1 X95.746 Y112.622 E5.06592 ; fill
G1 X98.771 Y109.598 E5.19220 ; fill
G1 X99.447 Y109.659 E5.21225 ; fill
G1 X96.310 Y112.796 E5.34321 ; fill
G1 X96.893 Y112.951 E5.36101 ; fill
G1 X100.173 Y109.671 E5.49795 ; fill
G1 X100.957 Y109.624 E5.52116 ; fill
G1 X97.496 Y113.086 E5.66568 ; fill
G1 X98.132 Y113.187 E5.68472 ; fill
G1 X101.815 Y109.505 E5.83847 ; fill
G1 X102.799 Y109.258 E5.86842 ; fill
G1 X98.795 Y113.262 E6.03559 ; fill
G1 X99.488 Y113.307 E6.05609 ; fill
G1 X103.978 Y108.817 E6.24359 ; fill
G1 X105.763 Y107.770 E6.30468 ; fill
G1 X100.216 Y113.317 E6.53627 ; fill
G1 X100.988 Y113.283 E6.55908 ; fill
G1 X113.283 Y100.988 E7.07243 ; fill
G1 X113.196 Y101.813 E7.09692 ; fill
G1 X101.813 Y113.196 E7.57219 ; fill
G1 X102.706 Y113.041 E7.59895 ; fill
G1 X113.041 Y102.706 E8.03046 ; fill
G1 X112.796 Y103.689 E8.06036 ; fill
G1 X103.689 Y112.796 E8.44061 ; fill
G1 X104.795 Y112.427 E8.47505 ; fill
G1 X112.427 Y104.795 E8.79372 ; fill
G1 X111.814 Y106.146 E8.83750 ; fill
G1 X106.146 Y111.814 E9.07420 ; fill
G1 X108.223 Y110.475 E9.14716 ; fill
G1 X110.475 Y108.223 E9.24121 ; fill
G1 X107.770 Y105.763 F7800.000 ; move to first fill point
G1 X113.317 Y100.216 F2971.756 E9.47281 ; fill
G1 X113.307 Y99.488 E9.49432 ; fill
G1 X108.811 Y103.985 E9.68208 ; fill
G1 X109.258 Y102.799 E9.71950 ; fill
G1 X113.262 Y98.795 E9.88667 ; fill
G1 X113.187 Y98.132 E9.90636 ; fill
G1 X109.505 Y101.815 E10.06011 ; fill
G1 X109.624 Y100.957 E10.08567 ; fill
G1 X113.086 Y97.496 E10.23020 ; fill
G1 X112.951 Y96.893 E10.24844 ; fill
G1 X109.671 Y100.173 E10.38539 ; fill
G1 X109.659 Y99.447 E10.40683 ; fill
G1 X112.796 Y96.310 E10.53778 ; fill
G1 X112.622 Y95.746 E10.55522 ; fill
G1 X109.598 Y98.771 E10.68150 ; fill
G1 X109.494 Y98.136 E10.70047 ; fill
G1 X112.427 Y95.204 E10.82293 ; fill
G1 X112.209 Y94.683 E10.83958 ; fill
G1 X109.356 Y97.536 E10.95873 ; fill
G1 X109.188 Y96.967 E10.97626 ; fill
G1 X111.978 Y94.176 E11.09279 ; fill
G1 X111.729 Y93.687 E11.10899 ; fill
G1 X108.992 Y96.425 E11.22331 ; fill
G1 X108.769 Y95.910 E11.23987 ; fill
G1 X111.461 Y93.218 E11.35227 ; fill
G1 X111.181 Y92.760 E11.36812 ; fill
G1 X108.521 Y95.420 E11.47918 ; fill
G1 X108.251 Y94.952 E11.49512 ; fill
G1 X110.882 Y92.321 E11.60499 ; fill
G1 X110.568 Y91.897 E11.62056 ; fill
G1 X107.960 Y94.506 E11.72947 ; fill
G1 X107.648 Y94.080 E11.74506 ; fill
G1 X110.244 Y91.483 E11.85348 ; fill
G1 X109.899 Y91.091 E11.86891 ; fill
G1 X107.316 Y93.673 E11.97674 ; fill
G1 X106.964 Y93.288 E11.99216 ; fill
G1 X109.542 Y90.709 E12.09981 ; fill
G1 X109.173 Y90.341 E12.11521 ; fill
G1 X106.593 Y92.921 E12.22297 ; fill
G1 X106.202 Y92.574 E12.23840 ; fill
G1 X108.785 Y89.991 E12.34623 ; fill
G1 X108.387 Y89.652 E12.36168 ; fill
G1 X105.789 Y92.250 E12.47016 ; fill
G1 X105.355 Y91.945 E12.48580 ; fill
G1 X107.971 Y89.329 E12.59503 ; fill
G1 X107.540 Y89.023 E12.61065 ; fill
G1 X104.901 Y91.662 E12.72084 ; fill
