; generated by Slic3r 0.9.10-dev on 2013-05-23 at 10:37:10

; layer_height = 0.4
; perimeters = 3
; top_solid_layers = 3
; bottom_solid_layers = 3
; fill_density = 0.4
; perimeter_speed = 30
; infill_speed = 60
; travel_speed = 130
; nozzle_diameter = 0.5
; filament_diameter = 3
; extrusion_multiplier = 1
; perimeters extrusion width = 0.53mm
; infill extrusion width = 0.53mm
; solid infill extrusion width = 0.53mm
; top infill extrusion width = 0.53mm
; first layer extrusion width = 0.70mm

G21 ; set units to millimeters
M107 ; disable fan
M104 S200 ; set temperature
;G28 ; home all axes
G1 Z5 F5000 ; lift nozzle

M109 S200 ; wait for temperature to be reached
G90 ; use absolute coordinates
G92 E0 ; reset extrusion distance
M82 ; use absolute distances for extrusion
G1 F1800.000 E-1.00000 ; retract
G92 E0 ; reset extrusion distance
G1 Z0.350 F7800.000 ; move to next layer (0)
G1 X80.290 Y80.290 ; move to first skirt point
G1 F1800.000 E1.00000 ; compensate retraction
G1 X81.300 Y79.460 F540.000 E1.04253 ; skirt
G1 X82.450 Y78.850 E1.08489 ; skirt
G1 X83.700 Y78.470 E1.12739 ; skirt
G1 X85.000 Y78.340 E1.16990 ; skirt
G1 X115.000 Y78.340 E2.14596 ; skirt
G1 X116.300 Y78.470 E2.18846 ; skirt
G1 X117.550 Y78.850 E2.23097 ; skirt
G1 X118.700 Y79.460 E2.27332 ; skirt
G1 X119.710 Y80.290 E2.31586 ; skirt
G1 X120.540 Y81.300 E2.35839 ; skirt
G1 X121.150 Y82.450 E2.40074 ; skirt
G1 X121.530 Y83.700 E2.44325 ; skirt
G1 X121.660 Y85.000 E2.48576 ; skirt
G1 X121.660 Y115.000 E3.46181 ; skirt
G1 X121.530 Y116.300 E3.50432 ; skirt
G1 X121.150 Y117.550 E3.54683 ; skirt
G1 X120.540 Y118.700 E3.58918 ; skirt
G1 X119.710 Y119.710 E3.63171 ; skirt
G1 X118.700 Y120.540 E3.67424 ; skirt
G1 X117.550 Y121.150 E3.71660 ; skirt
G1 X116.300 Y121.530 E3.75910 ; skirt
G1 X115.000 Y121.660 E3.80161 ; skirt
G1 X85.000 Y121.660 E4.77767 ; skirt
G1 X83.700 Y121.530 E4.82017 ; skirt
G1 X82.450 Y121.150 E4.86268 ; skirt
G1 X81.300 Y120.540 E4.90503 ; skirt
G1 X80.290 Y119.710 E4.94757 ; skirt
G1 X79.460 Y118.700 E4.99010 ; skirt
G1 X78.850 Y117.550 E5.03245 ; skirt
G1 X78.470 Y116.300 E5.07496 ; skirt
G1 X78.340 Y115.000 E5.11747 ; skirt
G1 X78.340 Y85.000 E6.09352 ; skirt
G1 X78.470 Y83.700 E6.13603 ; skirt
G1 X78.850 Y82.450 E6.17854 ; skirt
G1 X79.460 Y81.300 E6.22089 ; skirt
G1 X80.227 Y80.366 E6.26022 ; skirt
G1 F1800.000 E5.26022 ; retract
G92 E0 ; reset extrusion distance
G1 X92.971 Y93.398 F7800.000 ; move to first perimeter point
G1 F1800.000 E1.00000 ; compensate retraction
G1 X93.399 Y92.970 F540.000 E1.01970 ; perimeter
G1 X93.853 Y92.570 E1.03940 ; perimeter
G1 X94.332 Y92.198 E1.05913 ; perimeter
G1 X94.833 Y91.858 E1.07882 ; perimeter
G1 X95.354 Y91.549 E1.09853 ; perimeter
G1 X95.894 Y91.274 E1.11823 ; perimeter
G1 X96.400 Y91.055 E1.13620 ; perimeter
G1 X97.020 Y90.828 E1.15768 ; perimeter
G1 X97.601 Y90.660 E1.17737 ; perimeter
G1 X98.193 Y90.527 E1.19707 ; perimeter
G1 X98.792 Y90.433 E1.21681 ; perimeter
G1 X99.395 Y90.376 E1.23652 ; perimeter
G1 X100.000 Y90.356 E1.25622 ; perimeter
G1 X100.606 Y90.376 E1.27594 ; perimeter
G1 X101.208 Y90.432 E1.29563 ; perimeter
G1 X101.807 Y90.527 E1.31534 ; perimeter
G1 X102.399 Y90.660 E1.33507 ; perimeter
G1 X102.928 Y90.813 E1.35300 ; perimeter
G1 X103.550 Y91.034 E1.37448 ; perimeter
G1 X104.106 Y91.274 E1.39419 ; perimeter
G1 X104.597 Y91.525 E1.41212 ; perimeter
G1 X105.167 Y91.858 E1.43361 ; perimeter
G1 X105.669 Y92.199 E1.45334 ; perimeter
G1 X106.104 Y92.536 E1.47126 ; perimeter
G1 X106.602 Y92.971 E1.49275 ; perimeter
G1 X107.030 Y93.399 E1.51245 ; perimeter
G1 X107.430 Y93.853 E1.53215 ; perimeter
G1 X107.802 Y94.332 E1.55187 ; perimeter
G1 X108.142 Y94.833 E1.57157 ; perimeter
G1 X108.451 Y95.354 E1.59128 ; perimeter
G1 X108.726 Y95.894 E1.61098 ; perimeter
G1 X108.966 Y96.450 E1.63072 ; perimeter
G1 X109.171 Y97.019 E1.65040 ; perimeter
G1 X109.340 Y97.601 E1.67012 ; perimeter
G1 X109.473 Y98.193 E1.68984 ; perimeter
G1 X109.567 Y98.792 E1.70956 ; perimeter
G1 X109.624 Y99.395 E1.72927 ; perimeter
G1 X109.642 Y99.946 E1.74720 ; perimeter
G1 X109.624 Y100.605 E1.76867 ; perimeter
G1 X109.567 Y101.208 E1.78838 ; perimeter
G1 X109.473 Y101.807 E1.80810 ; perimeter
G1 X109.341 Y102.398 E1.82779 ; perimeter
G1 X109.171 Y102.981 E1.84754 ; perimeter
G1 X108.966 Y103.550 E1.86725 ; perimeter
G1 X108.726 Y104.106 E1.88695 ; perimeter
G1 X108.451 Y104.645 E1.90663 ; perimeter
G1 X108.142 Y105.167 E1.92635 ; perimeter
G1 X107.768 Y105.711 E1.94783 ; perimeter
G1 X107.431 Y106.147 E1.96577 ; perimeter
G1 X107.030 Y106.601 E1.98549 ; perimeter
G1 X106.601 Y107.030 E2.00522 ; perimeter
G1 X106.147 Y107.431 E2.02491 ; perimeter
G1 X105.669 Y107.801 E2.04460 ; perimeter
G1 X105.167 Y108.142 E2.06433 ; perimeter
G1 X104.645 Y108.451 E2.08406 ; perimeter
G1 X104.106 Y108.726 E2.10375 ; perimeter
G1 X103.499 Y108.985 E2.12522 ; perimeter
G1 X102.980 Y109.171 E2.14316 ; perimeter
G1 X102.399 Y109.340 E2.16287 ; perimeter
G1 X101.807 Y109.473 E2.18260 ; perimeter
G1 X101.208 Y109.568 E2.20231 ; perimeter
G1 X100.551 Y109.626 E2.22377 ; perimeter
G1 X100.000 Y109.644 E2.24172 ; perimeter
G1 X99.395 Y109.624 E2.26142 ; perimeter
G1 X98.792 Y109.567 E2.28113 ; perimeter
G1 X98.193 Y109.473 E2.30085 ; perimeter
G1 X97.601 Y109.340 E2.32057 ; perimeter
G1 X97.019 Y109.171 E2.34029 ; perimeter
G1 X96.450 Y108.966 E2.35997 ; perimeter
G1 X95.894 Y108.726 E2.37971 ; perimeter
G1 X95.354 Y108.451 E2.39941 ; perimeter
G1 X94.833 Y108.142 E2.41912 ; perimeter
G1 X94.289 Y107.768 E2.44059 ; perimeter
G1 X93.853 Y107.430 E2.45853 ; perimeter
G1 X93.399 Y107.030 E2.47823 ; perimeter
G1 X92.934 Y106.561 E2.49971 ; perimeter
G1 X92.570 Y106.147 E2.51765 ; perimeter
G1 X92.199 Y105.669 E2.53735 ; perimeter
G1 X91.830 Y105.120 E2.55885 ; perimeter
G1 X91.549 Y104.646 E2.57679 ; perimeter
G1 X91.274 Y104.106 E2.59650 ; perimeter
G1 X91.034 Y103.550 E2.61621 ; perimeter
G1 X90.829 Y102.980 E2.63591 ; perimeter
G1 X90.660 Y102.399 E2.65562 ; perimeter
G1 X90.527 Y101.807 E2.67535 ; perimeter
G1 X90.432 Y101.208 E2.69506 ; perimeter
G1 X90.376 Y100.606 E2.71475 ; perimeter
G1 X90.356 Y100.000 E2.73447 ; perimeter
G1 X90.376 Y99.394 E2.75419 ; perimeter
G1 X90.432 Y98.792 E2.77388 ; perimeter
G1 X90.527 Y98.193 E2.79360 ; perimeter
G1 X90.660 Y97.601 E2.81333 ; perimeter
G1 X90.828 Y97.020 E2.83303 ; perimeter
G1 X91.034 Y96.450 E2.85273 ; perimeter
G1 X91.274 Y95.894 E2.87245 ; perimeter
G1 X91.549 Y95.354 E2.89216 ; perimeter
G1 X91.858 Y94.832 E2.91189 ; perimeter
G1 X92.198 Y94.332 E2.93158 ; perimeter
G1 X92.570 Y93.853 E2.95130 ; perimeter
G1 X92.905 Y93.472 E2.96781 ; perimeter
G1 X93.427 Y93.874 F7800.000 ; move to first perimeter point
G1 X93.849 Y93.449 F540.000 E2.98726 ; perimeter
G1 X94.272 Y93.076 E3.00563 ; perimeter
G1 X94.718 Y92.730 E3.02400 ; perimeter
G1 X95.185 Y92.413 E3.04236 ; perimeter
G1 X95.671 Y92.125 E3.06073 ; perimeter
G1 X96.174 Y91.869 E3.07909 ; perimeter
G1 X96.692 Y91.645 E3.09747 ; perimeter
G1 X97.223 Y91.454 E3.11584 ; perimeter
G1 X97.765 Y91.296 E3.13419 ; perimeter
G1 X98.316 Y91.173 E3.15256 ; perimeter
G1 X98.840 Y91.090 E3.16983 ; perimeter
G1 X99.436 Y91.032 E3.18930 ; perimeter
G1 X100.000 Y91.014 E3.20766 ; perimeter
G1 X100.564 Y91.032 E3.22604 ; perimeter
G1 X101.126 Y91.085 E3.24439 ; perimeter
G1 X101.684 Y91.173 E3.26276 ; perimeter
G1 X102.235 Y91.296 E3.28114 ; perimeter
G1 X102.744 Y91.444 E3.29840 ; perimeter
G1 X103.308 Y91.645 E3.31786 ; perimeter
G1 X103.826 Y91.869 E3.33623 ; perimeter
G1 X104.329 Y92.125 E3.35460 ; perimeter
G1 X104.815 Y92.413 E3.37296 ; perimeter
G1 X105.282 Y92.730 E3.39135 ; perimeter
G1 X105.701 Y93.055 E3.40860 ; perimeter
G1 X106.152 Y93.450 E3.42807 ; perimeter
G1 X106.551 Y93.849 E3.44643 ; perimeter
G1 X106.924 Y94.272 E3.46479 ; perimeter
G1 X107.270 Y94.718 E3.48317 ; perimeter
G1 X107.587 Y95.185 E3.50153 ; perimeter
G1 X107.875 Y95.671 E3.51989 ; perimeter
G1 X108.131 Y96.174 E3.53825 ; perimeter
G1 X108.355 Y96.692 E3.55664 ; perimeter
G1 X108.546 Y97.223 E3.57499 ; perimeter
G1 X108.704 Y97.765 E3.59336 ; perimeter
G1 X108.827 Y98.316 E3.61173 ; perimeter
G1 X108.915 Y98.874 E3.63010 ; perimeter
G1 X108.968 Y99.436 E3.64847 ; perimeter
G1 X108.985 Y99.966 E3.66573 ; perimeter
G1 X108.968 Y100.564 E3.68519 ; perimeter
G1 X108.915 Y101.126 E3.70356 ; perimeter
G1 X108.827 Y101.684 E3.72193 ; perimeter
G1 X108.704 Y102.234 E3.74028 ; perimeter
G1 X108.546 Y102.777 E3.75867 ; perimeter
G1 X108.355 Y103.308 E3.77704 ; perimeter
G1 X108.131 Y103.826 E3.79540 ; perimeter
G1 X107.875 Y104.329 E3.81375 ; perimeter
G1 X107.587 Y104.815 E3.83212 ; perimeter
G1 X107.249 Y105.309 E3.85159 ; perimeter
G1 X106.924 Y105.728 E3.86885 ; perimeter
G1 X106.551 Y106.151 E3.88723 ; perimeter
G1 X106.151 Y106.551 E3.90560 ; perimeter
G1 X105.728 Y106.924 E3.92396 ; perimeter
G1 X105.282 Y107.270 E3.94232 ; perimeter
G1 X104.815 Y107.587 E3.96070 ; perimeter
G1 X104.329 Y107.875 E3.97907 ; perimeter
G1 X103.826 Y108.131 E3.99743 ; perimeter
G1 X103.276 Y108.366 E4.01689 ; perimeter
G1 X102.777 Y108.546 E4.03416 ; perimeter
G1 X102.235 Y108.704 E4.05252 ; perimeter
G1 X101.684 Y108.827 E4.07090 ; perimeter
G1 X101.126 Y108.915 E4.08927 ; perimeter
G1 X100.531 Y108.969 E4.10872 ; perimeter
G1 X100.000 Y108.986 E4.12599 ; perimeter
G1 X99.436 Y108.968 E4.14435 ; perimeter
G1 X98.874 Y108.915 E4.16272 ; perimeter
G1 X98.316 Y108.827 E4.18109 ; perimeter
G1 X97.765 Y108.704 E4.19947 ; perimeter
G1 X97.223 Y108.546 E4.21784 ; perimeter
G1 X96.692 Y108.355 E4.23619 ; perimeter
G1 X96.174 Y108.131 E4.25457 ; perimeter
G1 X95.671 Y107.875 E4.27293 ; perimeter
G1 X95.185 Y107.587 E4.29130 ; perimeter
G1 X94.691 Y107.249 E4.31076 ; perimeter
G1 X94.272 Y106.924 E4.32803 ; perimeter
G1 X93.849 Y106.551 E4.34639 ; perimeter
G1 X93.427 Y106.126 E4.36585 ; perimeter
G1 X93.076 Y105.728 E4.38312 ; perimeter
G1 X92.730 Y105.282 E4.40147 ; perimeter
G1 X92.396 Y104.786 E4.42096 ; perimeter
G1 X92.125 Y104.329 E4.43822 ; perimeter
G1 X91.869 Y103.826 E4.45659 ; perimeter
G1 X91.645 Y103.308 E4.47496 ; perimeter
G1 X91.454 Y102.777 E4.49332 ; perimeter
G1 X91.296 Y102.235 E4.51168 ; perimeter
G1 X91.173 Y101.684 E4.53006 ; perimeter
G1 X91.085 Y101.126 E4.54843 ; perimeter
G1 X91.032 Y100.564 E4.56678 ; perimeter
G1 X91.014 Y100.000 E4.58516 ; perimeter
G1 X91.032 Y99.436 E4.60353 ; perimeter
G1 X91.085 Y98.874 E4.62188 ; perimeter
G1 X91.173 Y98.316 E4.64025 ; perimeter
G1 X91.296 Y97.765 E4.65863 ; perimeter
G1 X91.454 Y97.223 E4.67699 ; perimeter
G1 X91.645 Y96.692 E4.69536 ; perimeter
G1 X91.869 Y96.174 E4.71372 ; perimeter
G1 X92.125 Y95.671 E4.73209 ; perimeter
G1 X92.413 Y95.185 E4.75047 ; perimeter
G1 X92.730 Y94.718 E4.76883 ; perimeter
G1 X93.076 Y94.272 E4.78720 ; perimeter
G1 X93.362 Y93.948 E4.80126 ; perimeter
G1 X93.920 Y94.308 F7800.000 ; move to first perimeter point
G1 X94.299 Y93.929 F378.000 E4.81871 ; perimeter
G1 X94.691 Y93.583 E4.83573 ; perimeter
G1 X95.105 Y93.262 E4.85276 ; perimeter
G1 X95.537 Y92.968 E4.86978 ; perimeter
G1 X95.988 Y92.702 E4.88680 ; perimeter
G1 X96.454 Y92.464 E4.90382 ; perimeter
G1 X96.934 Y92.256 E4.92085 ; perimeter
G1 X97.426 Y92.079 E4.93787 ; perimeter
G1 X97.929 Y91.933 E4.95489 ; perimeter
G1 X98.439 Y91.819 E4.97191 ; perimeter
G1 X98.943 Y91.739 E4.98851 ; perimeter
G1 X99.477 Y91.688 E5.00596 ; perimeter
G1 X100.000 Y91.671 E5.02298 ; perimeter
G1 X100.523 Y91.688 E5.04001 ; perimeter
G1 X101.044 Y91.737 E5.05703 ; perimeter
G1 X101.561 Y91.819 E5.07405 ; perimeter
G1 X102.071 Y91.933 E5.09108 ; perimeter
G1 X102.561 Y92.075 E5.10767 ; perimeter
G1 X103.066 Y92.256 E5.12512 ; perimeter
G1 X103.546 Y92.464 E5.14214 ; perimeter
G1 X104.012 Y92.702 E5.15917 ; perimeter
G1 X104.463 Y92.968 E5.17619 ; perimeter
G1 X104.896 Y93.262 E5.19322 ; perimeter
G1 X105.298 Y93.575 E5.20981 ; perimeter
G1 X105.701 Y93.929 E5.22726 ; perimeter
G1 X106.071 Y94.299 E5.24428 ; perimeter
G1 X106.417 Y94.691 E5.26131 ; perimeter
G1 X106.738 Y95.105 E5.27833 ; perimeter
G1 X107.032 Y95.537 E5.29535 ; perimeter
G1 X107.298 Y95.988 E5.31237 ; perimeter
G1 X107.536 Y96.454 E5.32940 ; perimeter
G1 X107.744 Y96.934 E5.34642 ; perimeter
G1 X107.921 Y97.426 E5.36344 ; perimeter
G1 X108.067 Y97.929 E5.38047 ; perimeter
G1 X108.181 Y98.439 E5.39749 ; perimeter
G1 X108.263 Y98.956 E5.41452 ; perimeter
G1 X108.312 Y99.477 E5.43154 ; perimeter
G1 X108.328 Y99.987 E5.44813 ; perimeter
G1 X108.312 Y100.523 E5.46558 ; perimeter
G1 X108.263 Y101.044 E5.48260 ; perimeter
G1 X108.181 Y101.561 E5.49963 ; perimeter
G1 X108.067 Y102.071 E5.51665 ; perimeter
G1 X107.921 Y102.574 E5.53368 ; perimeter
G1 X107.744 Y103.066 E5.55070 ; perimeter
G1 X107.536 Y103.546 E5.56772 ; perimeter
G1 X107.299 Y104.012 E5.58474 ; perimeter
G1 X107.032 Y104.463 E5.60177 ; perimeter
G1 X106.730 Y104.906 E5.61922 ; perimeter
G1 X106.417 Y105.309 E5.63581 ; perimeter
G1 X106.071 Y105.701 E5.65284 ; perimeter
G1 X105.701 Y106.071 E5.66986 ; perimeter
G1 X105.309 Y106.417 E5.68688 ; perimeter
G1 X104.896 Y106.738 E5.70390 ; perimeter
G1 X104.463 Y107.032 E5.72093 ; perimeter
G1 X104.012 Y107.299 E5.73796 ; perimeter
G1 X103.546 Y107.536 E5.75498 ; perimeter
G1 X103.066 Y107.744 E5.77200 ; perimeter
G1 X102.574 Y107.921 E5.78902 ; perimeter
G1 X102.071 Y108.067 E5.80604 ; perimeter
G1 X101.561 Y108.181 E5.82307 ; perimeter
G1 X101.044 Y108.263 E5.84009 ; perimeter
G1 X100.523 Y108.312 E5.85711 ; perimeter
G1 X100.000 Y108.329 E5.87414 ; perimeter
G1 X99.477 Y108.312 E5.89116 ; perimeter
G1 X98.956 Y108.263 E5.90818 ; perimeter
G1 X98.439 Y108.181 E5.92521 ; perimeter
G1 X97.929 Y108.067 E5.94223 ; perimeter
G1 X97.426 Y107.921 E5.95926 ; perimeter
G1 X96.934 Y107.744 E5.97627 ; perimeter
G1 X96.454 Y107.536 E5.99330 ; perimeter
G1 X95.988 Y107.298 E6.01032 ; perimeter
G1 X95.537 Y107.032 E6.02735 ; perimeter
G1 X95.094 Y106.730 E6.04480 ; perimeter
G1 X94.691 Y106.417 E6.06139 ; perimeter
G1 X94.299 Y106.071 E6.07841 ; perimeter
G1 X93.920 Y105.692 E6.09586 ; perimeter
G1 X93.583 Y105.309 E6.11246 ; perimeter
G1 X93.262 Y104.896 E6.12948 ; perimeter
G1 X92.961 Y104.451 E6.14694 ; perimeter
G1 X92.702 Y104.012 E6.16353 ; perimeter
G1 X92.464 Y103.546 E6.18055 ; perimeter
G1 X92.256 Y103.066 E6.19757 ; perimeter
G1 X92.079 Y102.574 E6.21460 ; perimeter
G1 X91.933 Y102.071 E6.23162 ; perimeter
G1 X91.819 Y101.561 E6.24865 ; perimeter
G1 X91.737 Y101.044 E6.26567 ; perimeter
G1 X91.688 Y100.523 E6.28269 ; perimeter
G1 X91.671 Y100.000 E6.29971 ; perimeter
G1 X91.688 Y99.477 E6.31674 ; perimeter
G1 X91.737 Y98.956 E6.33376 ; perimeter
G1 X91.819 Y98.439 E6.35078 ; perimeter
G1 X91.933 Y97.929 E6.36781 ; perimeter
G1 X92.079 Y97.426 E6.38483 ; perimeter
G1 X92.256 Y96.934 E6.40185 ; perimeter
G1 X92.464 Y96.454 E6.41887 ; perimeter
G1 X92.702 Y95.988 E6.43590 ; perimeter
G1 X92.968 Y95.537 E6.45293 ; perimeter
G1 X93.262 Y95.104 E6.46995 ; perimeter
G1 X93.583 Y94.691 E6.48697 ; perimeter
G1 X93.855 Y94.382 E6.50036 ; perimeter
G1 X94.441 Y94.436 F7800.000 ; move inwards before travel
G1 F1800.000 E5.50036 ; retract
G92 E0 ; reset extrusion distance
G1 X86.643 Y86.643 F7800.000 ; move to first perimeter point
G1 F1800.000 E1.00000 ; compensate retraction
G1 X113.357 Y86.643 F540.000 E1.86917 ; perimeter
G1 X113.357 Y113.357 E2.73833 ; perimeter
G1 X86.643 Y113.357 E3.60750 ; perimeter
G1 X86.643 Y86.741 E4.47345 ; perimeter
G1 X85.986 Y85.986 F7800.000 ; move to first perimeter point
G1 X114.014 Y85.986 F540.000 E5.38538 ; perimeter
G1 X114.014 Y114.014 E6.29730 ; perimeter
G1 X85.986 Y114.014 E7.20922 ; perimeter
G1 X85.986 Y86.084 E8.11793 ; perimeter
G1 X85.329 Y85.329 F7800.000 ; move to first perimeter point
G1 X114.671 Y85.329 F378.000 E9.07261 ; perimeter
G1 X114.671 Y114.671 E10.02729 ; perimeter
G1 X85.329 Y114.671 E10.98197 ; perimeter
G1 X85.329 Y85.427 E11.93344 ; perimeter
G1 X85.898 Y85.657 F7800.000 ; move inwards before travel
G1 F1800.000 E10.93344 ; retract
G92 E0 ; reset extrusion distance
