; generated by Slic3r 0.9.10-dev on 2013-06-11 at 18:59:20

; layer_height = 0.4
; perimeters = 3
; top_solid_layers = 3
; bottom_solid_layers = 3
; fill_density = 0.4
; perimeter_speed = 30
; infill_speed = 60
; travel_speed = 130
; nozzle_diameter = 0.5
; filament_diameter = 3
; extrusion_multiplier = 1
; perimeters extrusion width = 0.53mm
; infill extrusion width = 0.53mm
; solid infill extrusion width = 0.53mm
; top infill extrusion width = 0.53mm
; first layer extrusion width = 0.70mm

G21 ; set units to millimeters
M107 ; disable fan
M104 S200 ; set temperature
G28 ; home all axes
G1 Z5 F5000 ; lift nozzle

M109 S200 ; wait for temperature to be reached
G90 ; use absolute coordinates
G92 E0 ; reset extrusion distance
M82 ; use absolute distances for extrusion
G1 F1800.000 E-1.00000 ; retract
G92 E0 ; reset extrusion distance
G1 Z0.350 F7800.000 ; move to next layer (0)
G1 X80.290 Y80.290 ; move to first skirt point
G1 F1800.000 E1.00000 ; compensate retraction
G3 X85.000 Y78.340 I4.720 J4.714 F540.000 E1.00000 ; skirt
G1 X85.000 Y78.340 F7800.000 ; move to first skirt point
G1 X115.000 Y78.340 F540.000 E1.97606 ; skirt
G1 X115.000 Y78.340 F7800.000 ; move to first skirt point
G3 X121.660 Y85.000 I-0.011 J6.671 F540.000 E1.97606 ; skirt
G1 X121.660 Y85.000 F7800.000 ; move to first skirt point
G1 X121.660 Y115.000 F540.000 E2.95211 ; skirt
G1 X121.660 Y115.000 F7800.000 ; move to first skirt point
G3 X115.000 Y121.660 I-6.671 J-0.011 F540.000 E2.95211 ; skirt
G1 X115.000 Y121.660 F7800.000 ; move to first skirt point
G1 X85.000 Y121.660 F540.000 E3.92817 ; skirt
G1 X85.000 Y121.660 F7800.000 ; move to first skirt point
G3 X78.340 Y115.000 I0.011 J-6.671 F540.000 E3.92817 ; skirt
G1 X78.340 Y115.000 F7800.000 ; move to first skirt point
G1 X78.340 Y85.000 F540.000 E4.90423 ; skirt
G1 X78.340 Y85.000 F7800.000 ; move to first skirt point
G3 X80.227 Y80.366 I6.576 J0.001 F540.000 E4.90423 ; skirt
G1 F1800.000 E3.90423 ; retract
G92 E0 ; reset extrusion distance
G1 X92.970 Y93.399 F7800.000 ; move to first perimeter point
G1 F1800.000 E1.00000 ; compensate retraction
G3 X99.940 Y90.358 I6.999 J6.570 F540.000 E1.00000 ; perimeter
G1 X99.940 Y90.358 F7800.000 ; move to first perimeter point
G3 X92.905 Y93.472 I0.083 J9.727 F540.000 E1.00000 ; perimeter
G1 X93.423 Y93.878 F7800.000 ; move to first perimeter point
G3 X100.000 Y91.014 I6.576 J6.097 F540.000 E1.00000 ; perimeter
G1 X100.000 Y91.014 F7800.000 ; move to first perimeter point
G3 X93.358 Y93.952 I-0.003 J9.076 F540.000 E1.00000 ; perimeter
G1 X93.916 Y94.313 F7800.000 ; move to first perimeter point
G3 X100.000 Y91.671 I6.084 J5.674 F540.000 E1.00000 ; perimeter
G1 X100.000 Y91.671 F7800.000 ; move to first perimeter point
G3 X93.851 Y94.387 I-0.002 J8.405 F378.000 E1.00001 ; perimeter
G1 X94.443 Y94.442 F7800.000 ; move inwards before travel
G1 F1800.000 E0.00001 ; retract
G92 E0 ; reset extrusion distance
G1 X86.643 Y86.643 F7800.000 ; move to first perimeter point
G1 F1800.000 E1.00000 ; compensate retraction
G1 X113.357 Y86.643 F540.000 E1.86917 ; perimeter
G1 X113.357 Y113.357 E2.73833 ; perimeter
G1 X86.643 Y113.357 E3.60750 ; perimeter
G1 X86.643 Y86.741 E4.47345 ; perimeter
G1 X85.986 Y85.986 F7800.000 ; move to first perimeter point
G1 X114.014 Y85.986 F540.000 E5.38538 ; perimeter
G1 X114.014 Y114.014 E6.29730 ; perimeter
G1 X85.986 Y114.014 E7.20922 ; perimeter
G1 X85.986 Y86.084 E8.11793 ; perimeter
G1 X85.329 Y85.329 F7800.000 ; move to first perimeter point
G1 X114.671 Y85.329 F378.000 E9.07261 ; perimeter
G1 X114.671 Y114.671 E10.02729 ; perimeter
G1 X85.329 Y114.671 E10.98197 ; perimeter
G1 X85.329 Y85.427 E11.93344 ; perimeter
G1 X85.898 Y85.657 F7800.000 ; move inwards before travel
G1 F1800.000 E10.93344 ; retract
G92 E0 ; reset extrusion distance
G1 X109.100 Y95.579 F7800.000 ; move to first fill point
G1 F1800.000 E1.00000 ; compensate retraction
G1 X112.881 Y99.360 F1080.000 E1.17457 ; fill
G1 X112.881 Y100.293 E1.20502 ; fill
G1 X109.692 Y97.104 E1.35226 ; fill
G1 X109.975 Y98.319 E1.39301 ; fill
G1 X112.881 Y101.225 E1.52719 ; fill
G1 X112.881 Y102.158 E1.55763 ; fill
G1 X110.100 Y99.377 E1.68601 ; fill
G1 X110.110 Y100.319 E1.71677 ; fill
G1 X112.881 Y103.090 E1.84471 ; fill
G1 X112.881 Y104.023 E1.87515 ; fill
G1 X110.048 Y101.189 E2.00597 ; fill
G1 X109.919 Y101.993 E2.03254 ; fill
G1 X112.881 Y104.955 E2.16930 ; fill
G1 X112.881 Y105.888 E2.19974 ; fill
G1 X109.736 Y102.743 E2.34493 ; fill
G1 X109.509 Y103.448 E2.36912 ; fill
G1 X112.881 Y106.820 E2.52480 ; fill
G1 X112.881 Y107.753 E2.55524 ; fill
G1 X109.240 Y104.111 E2.72337 ; fill
G1 X108.937 Y104.741 E2.74618 ; fill
G1 X112.881 Y108.685 E2.92828 ; fill
G1 X112.881 Y109.617 E2.95873 ; fill
G1 X108.597 Y105.334 E3.15651 ; fill
G1 X108.225 Y105.893 E3.17847 ; fill
G1 X112.881 Y110.550 E3.39345 ; fill
G1 X112.881 Y111.482 E3.42390 ; fill
G1 X107.820 Y106.422 E3.65755 ; fill
G1 X107.385 Y106.919 E3.67913 ; fill
G1 X112.881 Y112.415 E3.93288 ; fill
G1 X112.415 Y112.881 E3.95440 ; fill
G1 X106.919 Y107.385 E4.20816 ; fill
G1 X106.422 Y107.820 E4.22973 ; fill
G1 X111.482 Y112.881 E4.46339 ; fill
G1 X110.550 Y112.881 E4.49383 ; fill
G1 X105.893 Y108.225 E4.70882 ; fill
G1 X105.334 Y108.597 E4.73078 ; fill
G1 X109.618 Y112.881 E4.92856 ; fill
G1 X108.685 Y112.881 E4.95901 ; fill
G1 X104.741 Y108.937 E5.14111 ; fill
G1 X104.113 Y109.242 E5.16389 ; fill
G1 X107.753 Y112.881 E5.33193 ; fill
G1 X106.820 Y112.881 E5.36237 ; fill
G1 X103.448 Y109.509 E5.51805 ; fill
G1 X102.743 Y109.736 E5.54224 ; fill
G1 X105.888 Y112.881 E5.68743 ; fill
G1 X104.955 Y112.881 E5.71787 ; fill
G1 X101.993 Y109.919 E5.85463 ; fill
G1 X101.189 Y110.048 E5.88120 ; fill
G1 X104.023 Y112.881 E6.01202 ; fill
G1 X103.090 Y112.881 E6.04246 ; fill
G1 X100.319 Y110.110 E6.17040 ; fill
G1 X99.377 Y110.100 E6.20116 ; fill
G1 X102.158 Y112.881 E6.32954 ; fill
G1 X101.225 Y112.881 E6.35998 ; fill
G1 X98.319 Y109.975 E6.49416 ; fill
G1 X97.104 Y109.692 E6.53490 ; fill
G1 X100.293 Y112.881 E6.68215 ; fill
G1 X99.361 Y112.881 E6.71259 ; fill
G1 X95.580 Y109.100 E6.88716 ; fill
G1 X87.239 Y112.881 F7800.000 ; move to first fill point
G1 X87.119 Y112.761 F1080.000 E6.89269 ; fill
G1 X87.119 Y111.829 E6.92313 ; fill
G1 X88.171 Y112.881 E6.97171 ; fill
G1 X89.104 Y112.881 E7.00216 ; fill
G1 X87.119 Y110.896 E7.09379 ; fill
G1 X87.119 Y109.964 E7.12423 ; fill
G1 X90.036 Y112.881 E7.25891 ; fill
G1 X90.969 Y112.881 E7.28936 ; fill
G1 X87.119 Y109.031 E7.46709 ; fill
G1 X87.119 Y108.099 E7.49753 ; fill
G1 X91.901 Y112.881 E7.71832 ; fill
G1 X92.833 Y112.881 E7.74876 ; fill
G1 X87.119 Y107.167 E8.01260 ; fill
G1 X87.119 Y106.234 E8.04304 ; fill
G1 X93.766 Y112.881 E8.34993 ; fill
G1 X94.698 Y112.881 E8.38037 ; fill
G1 X87.119 Y105.302 E8.73031 ; fill
G1 X87.119 Y104.369 E8.76075 ; fill
G1 X95.631 Y112.881 E9.15374 ; fill
G1 X96.563 Y112.881 E9.18418 ; fill
G1 X87.119 Y103.437 E9.62023 ; fill
G1 X87.119 Y102.504 E9.65067 ; fill
G1 X97.496 Y112.881 E10.12976 ; fill
G1 X98.428 Y112.881 E10.16020 ; fill
G1 X87.119 Y101.572 E10.68235 ; fill
G1 X87.119 Y100.639 E10.71279 ; fill
G1 X90.900 Y104.420 E10.88736 ; fill
G1 X90.308 Y102.896 E10.94074 ; fill
G1 X87.119 Y99.707 E11.08799 ; fill
G1 X87.119 Y98.775 E11.11843 ; fill
G1 X90.027 Y101.682 E11.25268 ; fill
G1 X89.900 Y100.623 E11.28752 ; fill
G1 X87.119 Y97.842 E11.41590 ; fill
G1 X87.119 Y96.910 E11.44635 ; fill
G1 X89.890 Y99.681 E11.57429 ; fill
G1 X89.952 Y98.811 E11.60277 ; fill
G1 X87.119 Y95.977 E11.73358 ; fill
G1 X87.119 Y95.045 E11.76403 ; fill
G1 X90.081 Y98.007 E11.90078 ; fill
G1 X90.264 Y97.257 E11.92597 ; fill
G1 X87.119 Y94.112 E12.07116 ; fill
G1 X87.119 Y93.180 E12.10161 ; fill
G1 X90.491 Y96.552 E12.25729 ; fill
G1 X90.758 Y95.887 E12.28068 ; fill
G1 X87.119 Y92.247 E12.44872 ; fill
G1 X87.119 Y91.315 E12.47916 ; fill
G1 X91.063 Y95.259 E12.66127 ; fill
G1 X91.403 Y94.666 E12.68357 ; fill
G1 X87.119 Y90.382 E12.88136 ; fill
G1 X87.119 Y89.450 E12.91180 ; fill
G1 X91.775 Y94.107 E13.12679 ; fill
G1 X92.180 Y93.578 E13.14850 ; fill
G1 X87.119 Y88.518 E13.38216 ; fill
G1 X87.119 Y87.585 E13.41261 ; fill
G1 X92.615 Y93.081 E13.66636 ; fill
G1 X93.081 Y92.615 E13.68789 ; fill
G1 X87.585 Y87.119 E13.94164 ; fill
G1 X88.518 Y87.119 E13.97208 ; fill
G1 X93.578 Y92.180 E14.20574 ; fill
G1 X94.107 Y91.775 E14.22745 ; fill
G1 X89.450 Y87.119 E14.44244 ; fill
G1 X90.383 Y87.119 E14.47288 ; fill
G1 X94.666 Y91.403 E14.67067 ; fill
G1 X95.259 Y91.063 E14.69297 ; fill
G1 X91.315 Y87.119 E14.87508 ; fill
G1 X92.247 Y87.119 E14.90552 ; fill
G1 X95.887 Y90.758 E15.07355 ; fill
G1 X96.552 Y90.491 E15.09695 ; fill
G1 X93.180 Y87.119 E15.25263 ; fill
G1 X94.112 Y87.119 E15.28307 ; fill
G1 X97.257 Y90.264 E15.42826 ; fill
G1 X98.007 Y90.081 E15.45346 ; fill
G1 X95.045 Y87.119 E15.59021 ; fill
G1 X95.977 Y87.119 E15.62065 ; fill
G1 X98.811 Y89.952 E15.75147 ; fill
G1 X99.681 Y89.890 E15.77995 ; fill
G1 X96.910 Y87.119 E15.90789 ; fill
G1 X97.842 Y87.119 E15.93833 ; fill
G1 X100.626 Y89.903 E16.06688 ; fill
G1 X101.681 Y90.025 E16.10153 ; fill
G1 X98.775 Y87.119 E16.23571 ; fill
G1 X99.707 Y87.119 E16.26615 ; fill
G1 X102.896 Y90.308 E16.41340 ; fill
G1 X104.421 Y90.900 E16.46678 ; fill
G1 X100.640 Y87.119 E16.64136 ; fill
G1 X101.572 Y87.119 E16.67180 ; fill
G1 X112.881 Y98.428 E17.19394 ; fill
G1 X112.881 Y97.496 E17.22438 ; fill
G1 X102.504 Y87.119 E17.70347 ; fill
G1 X103.437 Y87.119 E17.73391 ; fill
G1 X112.881 Y96.563 E18.16995 ; fill
G1 X112.881 Y95.631 E18.20039 ; fill
G1 X104.369 Y87.119 E18.59338 ; fill
G1 X105.302 Y87.119 E18.62382 ; fill
G1 X112.881 Y94.698 E18.97376 ; fill
G1 X112.881 Y93.766 E19.00420 ; fill
G1 X106.234 Y87.119 E19.31109 ; fill
G1 X107.167 Y87.119 E19.34153 ; fill
G1 X112.881 Y92.833 E19.60536 ; fill
G1 X112.881 Y91.901 E19.63580 ; fill
G1 X108.099 Y87.119 E19.85658 ; fill
G1 X109.032 Y87.119 E19.88703 ; fill
G1 X112.881 Y90.968 E20.06476 ; fill
G1 X112.881 Y90.036 E20.09520 ; fill
G1 X109.964 Y87.119 E20.22988 ; fill
G1 X110.896 Y87.119 E20.26032 ; fill
G1 X112.881 Y89.104 E20.35195 ; fill
G1 X112.881 Y88.171 E20.38239 ; fill
G1 X111.829 Y87.119 E20.43097 ; fill
G1 X112.761 Y87.119 E20.46141 ; fill
G1 X112.881 Y87.239 E20.46693 ; fill
M106 S233 ; enable fan
G1 F1800.000 E19.46693 ; retract
G92 E0 ; reset extrusion distance
G1 Z0.750 F7800.000 ; move to next layer (1)
G1 X106.731 Y93.585 ; move to first perimeter point
G1 F1800.000 E1.00000 ; compensate retraction
G3 X100.000 Y90.700 I-6.730 J6.450 F1800.000 E1.00000 ; perimeter
G1 X100.000 Y90.700 F7800.000 ; move to first perimeter point
G3 X106.676 Y93.530 I0.003 J9.193 F1800.000 E1.00000 ; perimeter
G1 X106.363 Y93.953 F7800.000 ; move to first perimeter point
G3 X100.000 Y91.220 I-6.362 J6.075 F1800.000 E1.00000 ; perimeter
G1 X100.000 Y91.220 F7800.000 ; move to first perimeter point
G3 X106.308 Y93.898 I0.003 J8.685 F1800.000 E1.00000 ; perimeter
G1 X105.996 Y94.320 F7800.000 ; move to first perimeter point
G3 X100.000 Y91.740 I-5.995 J5.700 F1260.000 E1.00000 ; perimeter
G1 X100.000 Y91.740 F7800.000 ; move to first perimeter point
G3 X105.941 Y94.265 I0.003 J8.177 F1800.000 E1.00000 ; perimeter
G1 X105.842 Y94.817 F7800.000 ; move inwards before travel
G1 F1800.000 E0.00000 ; retract
G92 E0 ; reset extrusion distance
G1 X113.701 Y86.299 F7800.000 ; move to first perimeter point
G1 F1800.000 E1.00000 ; compensate retraction
G1 X113.701 Y113.701 F1800.000 E1.80576 ; perimeter
G1 X86.299 Y113.701 E2.61152 ; perimeter
G1 X86.299 Y86.299 E3.41728 ; perimeter
G1 X113.623 Y86.299 E4.22075 ; perimeter
G1 X114.221 Y85.779 F7800.000 ; move to first perimeter point
G1 X114.221 Y114.221 F1800.000 E5.05707 ; perimeter
G1 X85.779 Y114.221 E5.89339 ; perimeter
G1 X85.779 Y85.779 E6.72971 ; perimeter
G1 X114.143 Y85.779 E7.56373 ; perimeter
G1 X114.740 Y85.260 F7800.000 ; move to first perimeter point
G1 X114.740 Y114.740 F1260.000 E8.43061 ; perimeter
G1 X85.260 Y114.740 E9.29749 ; perimeter
G1 X85.260 Y85.260 E10.16437 ; perimeter
G1 X114.662 Y85.260 E11.02896 ; perimeter
G1 X114.480 Y85.710 F7800.000 ; move inwards before travel
G1 X113.324 Y100.209 ; move to first fill point
G1 X107.770 Y105.763 F3600.000 E11.26087 ; fill
G1 X108.811 Y103.985 E11.32171 ; fill
G1 X113.324 Y99.471 E11.51017 ; fill
G1 X113.324 Y98.733 E11.53196 ; fill
G1 X109.258 Y102.799 E11.70172 ; fill
G1 X109.505 Y101.815 E11.73167 ; fill
G1 X113.324 Y97.995 E11.89115 ; fill
G1 X113.324 Y97.257 E11.91294 ; fill
G1 X109.624 Y100.957 E12.06742 ; fill
G1 X109.671 Y100.173 E12.09063 ; fill
G1 X113.324 Y96.520 E12.24316 ; fill
G1 X113.324 Y95.782 E12.26495 ; fill
G1 X109.659 Y99.447 E12.41798 ; fill
G1 X109.598 Y98.771 E12.43803 ; fill
G1 X113.324 Y95.044 E12.59364 ; fill
G1 X113.324 Y94.306 E12.61542 ; fill
G1 X109.494 Y98.136 E12.77536 ; fill
G1 X109.356 Y97.536 E12.79353 ; fill
G1 X113.324 Y93.568 E12.95923 ; fill
G1 X113.324 Y92.830 E12.98101 ; fill
G1 X109.188 Y96.967 E13.15374 ; fill
G1 X108.992 Y96.425 E13.17075 ; fill
G1 X113.324 Y92.092 E13.35166 ; fill
G1 X113.324 Y91.355 E13.37344 ; fill
G1 X108.769 Y95.910 E13.56366 ; fill
G1 X108.521 Y95.420 E13.57987 ; fill
G1 X113.324 Y90.617 E13.78042 ; fill
G1 X113.324 Y89.879 E13.80221 ; fill
G1 X108.251 Y94.952 E14.01403 ; fill
G1 X107.960 Y94.506 E14.02977 ; fill
G1 X113.324 Y89.141 E14.25376 ; fill
G1 X113.324 Y88.403 E14.27555 ; fill
G1 X107.648 Y94.080 E14.51256 ; fill
G1 X107.316 Y93.673 E14.52804 ; fill
G1 X113.324 Y87.665 E14.77890 ; fill
G1 X113.324 Y86.927 E14.80068 ; fill
G1 X106.964 Y93.288 E15.06624 ; fill
G1 X106.593 Y92.921 E15.08165 ; fill
G1 X112.838 Y86.676 E15.34242 ; fill
G1 X112.100 Y86.676 E15.36421 ; fill
G1 X106.202 Y92.574 E15.61049 ; fill
G1 X105.789 Y92.250 E15.62600 ; fill
G1 X111.363 Y86.676 E15.85874 ; fill
G1 X110.625 Y86.676 E15.88052 ; fill
G1 X105.355 Y91.945 E16.10055 ; fill
G1 X104.901 Y91.662 E16.11636 ; fill
G1 X109.887 Y86.676 E16.32455 ; fill
G1 X109.149 Y86.676 E16.34633 ; fill
G1 X104.425 Y91.400 E16.54358 ; fill
G1 X103.926 Y91.161 E16.55991 ; fill
G1 X108.411 Y86.676 E16.74717 ; fill
G1 X107.673 Y86.676 E16.76896 ; fill
G1 X103.403 Y90.946 E16.94725 ; fill
G1 X102.854 Y90.757 E16.96440 ; fill
G1 X106.935 Y86.676 E17.13482 ; fill
G1 X106.198 Y86.676 E17.15661 ; fill
G1 X102.275 Y90.598 E17.32039 ; fill
G1 X101.664 Y90.471 E17.33881 ; fill
G1 X105.460 Y86.676 E17.49729 ; fill
G1 X104.722 Y86.676 E17.51907 ; fill
G1 X101.015 Y90.382 E17.67384 ; fill
G1 X100.326 Y90.334 E17.69424 ; fill
G1 X103.984 Y86.676 E17.84698 ; fill
G1 X103.246 Y86.676 E17.86876 ; fill
G1 X99.585 Y90.337 E18.02161 ; fill
G1 X98.784 Y90.400 E18.04536 ; fill
G1 X102.508 Y86.676 E18.20088 ; fill
G1 X101.770 Y86.676 E18.22266 ; fill
G1 X97.883 Y90.563 E18.38496 ; fill
G1 X96.856 Y90.853 E18.41648 ; fill
G1 X101.033 Y86.676 E18.59088 ; fill
G1 X100.295 Y86.676 E18.61267 ; fill
G1 X95.566 Y91.404 E18.81010 ; fill
G1 X96.605 Y86.676 F7800.000 ; move to first fill point
G1 X86.676 Y96.605 F3600.000 E19.22471 ; fill
G1 X86.676 Y97.343 E19.24649 ; fill
G1 X97.343 Y86.676 E19.69191 ; fill
G1 X98.081 Y86.676 E19.71369 ; fill
G1 X86.676 Y98.081 E20.18992 ; fill
G1 X86.676 Y98.819 E20.21170 ; fill
G1 X98.819 Y86.676 E20.71873 ; fill
G1 X99.557 Y86.676 E20.74052 ; fill
G1 X86.676 Y99.557 E21.27836 ; fill
G1 X86.676 Y95.868 F7800.000 ; move to first fill point
G1 X95.868 Y86.676 F3600.000 E21.66216 ; fill
G1 X95.130 Y86.676 E21.68394 ; fill
G1 X86.676 Y95.130 E22.03693 ; fill
G1 X86.676 Y94.392 E22.05872 ; fill
G1 X94.392 Y86.676 E22.38090 ; fill
G1 X93.654 Y86.676 E22.40268 ; fill
G1 X86.676 Y93.654 E22.69406 ; fill
G1 X86.676 Y92.916 E22.71584 ; fill
G1 X92.916 Y86.676 E22.97641 ; fill
G1 X92.178 Y86.676 E22.99819 ; fill
G1 X86.676 Y92.178 E23.22795 ; fill
G1 X86.676 Y91.441 E23.24973 ; fill
G1 X91.441 Y86.676 E23.44868 ; fill
G1 X90.703 Y86.676 E23.47047 ; fill
G1 X86.676 Y90.703 E23.63861 ; fill
G1 X86.676 Y89.965 E23.66039 ; fill
G1 X89.965 Y86.676 E23.79773 ; fill
G1 X89.227 Y86.676 E23.81951 ; fill
G1 X86.676 Y89.227 E23.92604 ; fill
G1 X86.676 Y88.489 E23.94782 ; fill
