; generated by Slic3r 0.9.10-dev on 2013-05-24 at 12:46:00

; layer_height = 0.4
; perimeters = 3
; top_solid_layers = 3
; bottom_solid_layers = 3
; fill_density = 0.4
; perimeter_speed = 30
; infill_speed = 60
; travel_speed = 130
; nozzle_diameter = 0.5
; filament_diameter = 3
; extrusion_multiplier = 1
; perimeters extrusion width = 0.53mm
; infill extrusion width = 0.53mm
; solid infill extrusion width = 0.53mm
; top infill extrusion width = 0.53mm
; first layer extrusion width = 0.70mm

G21 ; set units to millimeters
M107 ; disable fan
M104 S200 ; set temperature
G28 ; home all axes
G1 Z5 F5000 ; lift nozzle

M109 S200 ; wait for temperature to be reached
G90 ; use absolute coordinates
G92 E0 ; reset extrusion distance
M82 ; use absolute distances for extrusion
G1 F1800.000 E-1.00000 ; retract
G92 E0 ; reset extrusion distance
G1 Z0.350 F7800.000 ; move to next layer (0)
G1 X80.290 Y80.290 ; move to first skirt point
G1 F1800.000 E1.00000 ; compensate retraction
G3 X85.000 Y78.340 I4.720 J4.714 F540.000 E1.00000 ; skirt
G1 X85.000 Y78.340 F7800.000 ; move to first skirt point
G1 X115.000 Y78.340 F540.000 E1.97606 ; skirt
G1 X115.000 Y78.340 F7800.000 ; move to first skirt point
G3 X121.660 Y85.000 I-0.011 J6.671 F540.000 E1.97606 ; skirt
G1 X121.660 Y85.000 F7800.000 ; move to first skirt point
G1 X121.660 Y115.000 F540.000 E2.95211 ; skirt
G1 X121.660 Y115.000 F7800.000 ; move to first skirt point
G3 X115.000 Y121.660 I-6.671 J-0.011 F540.000 E2.95211 ; skirt
G1 X115.000 Y121.660 F7800.000 ; move to first skirt point
G1 X85.000 Y121.660 F540.000 E3.92817 ; skirt
G1 X85.000 Y121.660 F7800.000 ; move to first skirt point
G3 X78.340 Y115.000 I0.011 J-6.671 F540.000 E3.92817 ; skirt
G1 X78.340 Y115.000 F7800.000 ; move to first skirt point
G1 X78.340 Y85.000 F540.000 E4.90423 ; skirt
G1 X78.340 Y85.000 F7800.000 ; move to first skirt point
G3 X80.227 Y80.366 I6.576 J0.001 F540.000 E4.90423 ; skirt
G1 F1800.000 E3.90423 ; retract
G92 E0 ; reset extrusion distance
G1 X92.971 Y93.398 F7800.000 ; move to first perimeter point
G1 F1800.000 E1.00000 ; compensate retraction
G3 X100.000 Y90.356 I7.030 J6.602 F540.000 E1.00000 ; perimeter
G1 X100.000 Y90.356 F7800.000 ; move to first perimeter point
G3 X92.905 Y93.472 I-0.002 J9.707 F540.000 E1.00000 ; perimeter
G1 X93.427 Y93.874 F7800.000 ; move to first perimeter point
G3 X100.000 Y91.014 I6.572 J6.105 F540.000 E1.00000 ; perimeter
G1 X100.000 Y91.014 F7800.000 ; move to first perimeter point
G3 X93.362 Y93.948 I-0.003 J9.072 F540.000 E1.00000 ; perimeter
G1 X93.920 Y94.308 F7800.000 ; move to first perimeter point
G3 X100.000 Y91.671 I6.080 J5.683 F540.000 E1.00000 ; perimeter
G1 X100.000 Y91.671 F7800.000 ; move to first perimeter point
G3 X93.855 Y94.382 I-0.002 J8.401 F378.000 E1.00001 ; perimeter
G1 X94.441 Y94.436 F7800.000 ; move inwards before travel
G1 F1800.000 E0.00001 ; retract
G92 E0 ; reset extrusion distance
G1 X86.643 Y86.643 F7800.000 ; move to first perimeter point
G1 F1800.000 E1.00000 ; compensate retraction
G1 X113.357 Y86.643 F540.000 E1.86917 ; perimeter
G1 X113.357 Y113.357 E2.73833 ; perimeter
G1 X86.643 Y113.357 E3.60750 ; perimeter
G1 X86.643 Y86.741 E4.47345 ; perimeter
G1 X85.986 Y85.986 F7800.000 ; move to first perimeter point
G1 X114.014 Y85.986 F540.000 E5.38538 ; perimeter
G1 X114.014 Y114.014 E6.29730 ; perimeter
G1 X85.986 Y114.014 E7.20922 ; perimeter
G1 X85.986 Y86.084 E8.11793 ; perimeter
G1 X85.329 Y85.329 F7800.000 ; move to first perimeter point
G1 X114.671 Y85.329 F378.000 E9.07261 ; perimeter
G1 X114.671 Y114.671 E10.02729 ; perimeter
G1 X85.329 Y114.671 E10.98197 ; perimeter
G1 X85.329 Y85.427 E11.93344 ; perimeter
G1 X85.898 Y85.657 F7800.000 ; move inwards before travel
G1 F1800.000 E10.93344 ; retract
G92 E0 ; reset extrusion distance
G1 X109.100 Y95.579 F7800.000 ; move to first fill point
G1 F1800.000 E1.00000 ; compensate retraction
G1 X112.881 Y99.360 F1080.000 E1.17457 ; fill
G1 X112.881 Y100.293 E1.20501 ; fill
G1 X109.692 Y97.104 E1.35226 ; fill
G1 X109.975 Y98.319 E1.39301 ; fill
G1 X112.881 Y101.225 E1.52719 ; fill
G1 X112.881 Y102.158 E1.55763 ; fill
G1 X110.100 Y99.377 E1.68601 ; fill
G1 X110.110 Y100.319 E1.71676 ; fill
G1 X112.881 Y103.090 E1.84470 ; fill
G1 X112.881 Y104.023 E1.87515 ; fill
G1 X110.048 Y101.189 E2.00596 ; fill
G1 X109.919 Y101.993 E2.03254 ; fill
G1 X112.881 Y104.955 E2.16929 ; fill
G1 X112.881 Y105.888 E2.19974 ; fill
G1 X109.736 Y102.743 E2.34493 ; fill
G1 X109.509 Y103.448 E2.36912 ; fill
G1 X112.881 Y106.820 E2.52480 ; fill
G1 X112.881 Y107.753 E2.55524 ; fill
G1 X109.242 Y104.113 E2.72327 ; fill
G1 X108.937 Y104.741 E2.74605 ; fill
G1 X112.881 Y108.685 E2.92816 ; fill
G1 X112.881 Y109.617 E2.95860 ; fill
G1 X108.597 Y105.334 E3.15638 ; fill
G1 X108.225 Y105.893 E3.17834 ; fill
G1 X112.881 Y110.550 E3.39333 ; fill
G1 X112.881 Y111.482 E3.42377 ; fill
G1 X107.818 Y106.419 E3.65754 ; fill
G1 X107.385 Y106.919 E3.67912 ; fill
G1 X112.881 Y112.415 E3.93288 ; fill
G1 X112.415 Y112.881 E3.95440 ; fill
G1 X106.919 Y107.385 E4.20815 ; fill
G1 X106.422 Y107.820 E4.22973 ; fill
G1 X111.482 Y112.881 E4.46339 ; fill
G1 X110.550 Y112.881 E4.49383 ; fill
G1 X105.893 Y108.225 E4.70882 ; fill
G1 X105.334 Y108.597 E4.73077 ; fill
G1 X109.618 Y112.881 E4.92856 ; fill
G1 X108.685 Y112.881 E4.95900 ; fill
G1 X104.741 Y108.937 E5.14111 ; fill
G1 X104.113 Y109.242 E5.16389 ; fill
G1 X107.753 Y112.881 E5.33192 ; fill
G1 X106.820 Y112.881 E5.36236 ; fill
G1 X103.447 Y109.508 E5.51811 ; fill
G1 X102.743 Y109.736 E5.54227 ; fill
G1 X105.888 Y112.881 E5.68746 ; fill
G1 X104.955 Y112.881 E5.71790 ; fill
G1 X101.993 Y109.919 E5.85466 ; fill
G1 X101.189 Y110.048 E5.88123 ; fill
G1 X104.023 Y112.881 E6.01205 ; fill
G1 X103.090 Y112.881 E6.04249 ; fill
G1 X100.319 Y110.110 E6.17043 ; fill
G1 X99.377 Y110.100 E6.20119 ; fill
G1 X102.158 Y112.881 E6.32957 ; fill
G1 X101.225 Y112.881 E6.36001 ; fill
G1 X98.319 Y109.975 E6.49419 ; fill
G1 X97.104 Y109.692 E6.53493 ; fill
G1 X100.293 Y112.881 E6.68218 ; fill
G1 X99.361 Y112.881 E6.71262 ; fill
G1 X95.580 Y109.100 E6.88719 ; fill
G1 X87.239 Y112.881 F7800.000 ; move to first fill point
G1 X87.119 Y112.761 F1080.000 E6.89272 ; fill
G1 X87.119 Y111.829 E6.92316 ; fill
G1 X88.171 Y112.881 E6.97174 ; fill
G1 X89.104 Y112.881 E7.00218 ; fill
G1 X87.119 Y110.896 E7.09381 ; fill
G1 X87.119 Y109.964 E7.12426 ; fill
G1 X90.036 Y112.881 E7.25894 ; fill
G1 X90.969 Y112.881 E7.28938 ; fill
G1 X87.119 Y109.031 E7.46712 ; fill
G1 X87.119 Y108.099 E7.49756 ; fill
G1 X91.901 Y112.881 E7.71834 ; fill
G1 X92.833 Y112.881 E7.74879 ; fill
G1 X87.119 Y107.167 E8.01262 ; fill
G1 X87.119 Y106.234 E8.04306 ; fill
G1 X93.766 Y112.881 E8.34995 ; fill
G1 X94.698 Y112.881 E8.38039 ; fill
G1 X87.119 Y105.302 E8.73033 ; fill
G1 X87.119 Y104.369 E8.76078 ; fill
G1 X95.631 Y112.881 E9.15377 ; fill
G1 X96.563 Y112.881 E9.18421 ; fill
G1 X87.119 Y103.437 E9.62025 ; fill
G1 X87.119 Y102.504 E9.65069 ; fill
G1 X97.496 Y112.881 E10.12979 ; fill
G1 X98.428 Y112.881 E10.16023 ; fill
G1 X87.119 Y101.572 E10.68237 ; fill
G1 X87.119 Y100.639 E10.71282 ; fill
G1 X90.900 Y104.420 E10.88739 ; fill
G1 X90.308 Y102.896 E10.94077 ; fill
G1 X87.119 Y99.707 E11.08802 ; fill
G1 X87.119 Y98.775 E11.11846 ; fill
G1 X90.025 Y101.681 E11.25263 ; fill
G1 X89.900 Y100.623 E11.28741 ; fill
G1 X87.119 Y97.842 E11.41580 ; fill
G1 X87.119 Y96.910 E11.44624 ; fill
G1 X89.890 Y99.681 E11.57418 ; fill
G1 X89.952 Y98.811 E11.60266 ; fill
G1 X87.119 Y95.977 E11.73348 ; fill
G1 X87.119 Y95.045 E11.76392 ; fill
G1 X90.081 Y98.007 E11.90067 ; fill
G1 X90.264 Y97.257 E11.92586 ; fill
G1 X87.119 Y94.112 E12.07106 ; fill
G1 X87.119 Y93.180 E12.10150 ; fill
G1 X90.491 Y96.552 E12.25718 ; fill
G1 X90.758 Y95.887 E12.28058 ; fill
G1 X87.119 Y92.247 E12.44861 ; fill
G1 X87.119 Y91.315 E12.47905 ; fill
G1 X91.063 Y95.259 E12.66116 ; fill
G1 X91.403 Y94.666 E12.68347 ; fill
G1 X87.119 Y90.382 E12.88125 ; fill
G1 X87.119 Y89.450 E12.91169 ; fill
G1 X91.776 Y94.107 E13.12670 ; fill
G1 X92.180 Y93.578 E13.14841 ; fill
G1 X87.119 Y88.518 E13.38207 ; fill
G1 X87.119 Y87.585 E13.41251 ; fill
G1 X92.617 Y93.083 E13.66637 ; fill
G1 X93.081 Y92.615 E13.68789 ; fill
G1 X87.585 Y87.119 E13.94164 ; fill
G1 X88.518 Y87.119 E13.97209 ; fill
G1 X93.578 Y92.180 E14.20574 ; fill
G1 X94.107 Y91.775 E14.22746 ; fill
G1 X89.450 Y87.119 E14.44244 ; fill
G1 X90.383 Y87.119 E14.47289 ; fill
G1 X94.666 Y91.403 E14.67067 ; fill
G1 X95.259 Y91.063 E14.69298 ; fill
G1 X91.315 Y87.119 E14.87508 ; fill
G1 X92.247 Y87.119 E14.90552 ; fill
G1 X95.887 Y90.758 E15.07356 ; fill
G1 X96.552 Y90.491 E15.09696 ; fill
G1 X93.180 Y87.119 E15.25264 ; fill
G1 X94.112 Y87.119 E15.28308 ; fill
G1 X97.257 Y90.264 E15.42827 ; fill
G1 X98.007 Y90.081 E15.45346 ; fill
G1 X95.045 Y87.119 E15.59021 ; fill
G1 X95.977 Y87.119 E15.62066 ; fill
G1 X98.811 Y89.952 E15.75147 ; fill
G1 X99.681 Y89.890 E15.77995 ; fill
G1 X96.910 Y87.119 E15.90789 ; fill
G1 X97.842 Y87.119 E15.93834 ; fill
G1 X100.626 Y89.903 E16.06687 ; fill
G1 X101.681 Y90.025 E16.10153 ; fill
G1 X98.775 Y87.119 E16.23571 ; fill
G1 X99.707 Y87.119 E16.26615 ; fill
G1 X102.896 Y90.308 E16.41340 ; fill
G1 X104.421 Y90.900 E16.46678 ; fill
G1 X100.640 Y87.119 E16.64136 ; fill
G1 X101.572 Y87.119 E16.67180 ; fill
G1 X112.881 Y98.428 E17.19394 ; fill
G1 X112.881 Y97.496 E17.22438 ; fill
G1 X102.504 Y87.119 E17.70347 ; fill
G1 X103.437 Y87.119 E17.73391 ; fill
G1 X112.881 Y96.563 E18.16995 ; fill
G1 X112.881 Y95.631 E18.20039 ; fill
G1 X104.369 Y87.119 E18.59338 ; fill
G1 X105.302 Y87.119 E18.62382 ; fill
G1 X112.881 Y94.698 E18.97376 ; fill
G1 X112.881 Y93.766 E19.00420 ; fill
G1 X106.234 Y87.119 E19.31108 ; fill
G1 X107.167 Y87.119 E19.34153 ; fill
G1 X112.881 Y92.833 E19.60536 ; fill
G1 X112.881 Y91.901 E19.63580 ; fill
G1 X108.099 Y87.119 E19.85658 ; fill
G1 X109.032 Y87.119 E19.88703 ; fill
G1 X112.881 Y90.968 E20.06476 ; fill
G1 X112.881 Y90.036 E20.09520 ; fill
G1 X109.964 Y87.119 E20.22988 ; fill
G1 X110.896 Y87.119 E20.26032 ; fill
G1 X112.881 Y89.104 E20.35195 ; fill
G1 X112.881 Y88.171 E20.38239 ; fill
G1 X111.829 Y87.119 E20.43097 ; fill
G1 X112.761 Y87.119 E20.46141 ; fill
G1 X112.881 Y87.239 E20.46693 ; fill
M106 S233 ; enable fan
G1 F1800.000 E19.46693 ; retract
G92 E0 ; reset extrusion distance
G1 Z0.750 F7800.000 ; move to next layer (1)
G1 X106.744 Y93.599 ; move to first perimeter point
G1 F1800.000 E1.00000 ; compensate retraction
G3 X100.000 Y90.700 I-6.743 J6.429 F1800.000 E1.00000 ; perimeter
G1 X100.000 Y90.700 F7800.000 ; move to first perimeter point
G3 X106.689 Y93.543 I0.003 J9.206 F1800.000 E1.00000 ; perimeter
G1 X106.376 Y93.966 F7800.000 ; move to first perimeter point
G3 X100.000 Y91.220 I-6.376 J6.053 F1800.000 E1.00000 ; perimeter
G1 X100.000 Y91.220 F7800.000 ; move to first perimeter point
G3 X106.321 Y93.911 I0.003 J8.698 F1800.000 E1.00000 ; perimeter
G1 X106.009 Y94.333 F7800.000 ; move to first perimeter point
G3 X100.000 Y91.740 I-6.009 J5.677 F1260.000 E1.00000 ; perimeter
G1 X100.000 Y91.740 F7800.000 ; move to first perimeter point
G3 X105.954 Y94.278 I0.002 J8.190 F1800.000 E1.00000 ; perimeter
G1 X105.854 Y94.829 F7800.000 ; move inwards before travel
G1 F1800.000 E0.00000 ; retract
G92 E0 ; reset extrusion distance
G1 X113.701 Y86.299 F7800.000 ; move to first perimeter point
G1 F1800.000 E1.00000 ; compensate retraction
G1 X113.701 Y113.701 F1800.000 E1.80576 ; perimeter
G1 X86.299 Y113.701 E2.61152 ; perimeter
G1 X86.299 Y86.299 E3.41728 ; perimeter
G1 X113.623 Y86.299 E4.22075 ; perimeter
G1 X114.221 Y85.779 F7800.000 ; move to first perimeter point
G1 X114.221 Y114.221 F1800.000 E5.05707 ; perimeter
G1 X85.779 Y114.221 E5.89339 ; perimeter
G1 X85.779 Y85.779 E6.72971 ; perimeter
G1 X114.143 Y85.779 E7.56373 ; perimeter
G1 X114.740 Y85.260 F7800.000 ; move to first perimeter point
G1 X114.740 Y114.740 F1260.000 E8.43061 ; perimeter
G1 X85.260 Y114.740 E9.29749 ; perimeter
G1 X85.260 Y85.260 E10.16437 ; perimeter
G1 X114.662 Y85.260 E11.02896 ; perimeter
G1 X114.480 Y85.710 F7800.000 ; move inwards before travel
G1 X113.324 Y100.209 ; move to first fill point
G1 X107.770 Y105.763 F3600.000 E11.26087 ; fill
G1 X108.817 Y103.978 E11.32196 ; fill
G1 X113.324 Y99.471 E11.51016 ; fill
G1 X113.324 Y98.733 E11.53195 ; fill
G1 X109.258 Y102.799 E11.70171 ; fill
G1 X109.505 Y101.815 E11.73166 ; fill
G1 X113.324 Y97.995 E11.89114 ; fill
G1 X113.324 Y97.257 E11.91293 ; fill
G1 X109.624 Y100.957 E12.06741 ; fill
G1 X109.671 Y100.173 E12.09062 ; fill
G1 X113.324 Y96.520 E12.24315 ; fill
G1 X113.324 Y95.782 E12.26494 ; fill
G1 X109.659 Y99.447 E12.41797 ; fill
G1 X109.598 Y98.771 E12.43802 ; fill
G1 X113.324 Y95.044 E12.59363 ; fill
G1 X113.324 Y94.306 E12.61541 ; fill
G1 X109.494 Y98.136 E12.77535 ; fill
G1 X109.356 Y97.536 E12.79352 ; fill
G1 X113.324 Y93.568 E12.95921 ; fill
G1 X113.324 Y92.830 E12.98100 ; fill
G1 X109.188 Y96.967 E13.15372 ; fill
G1 X108.992 Y96.425 E13.17074 ; fill
G1 X113.324 Y92.092 E13.35165 ; fill
G1 X113.324 Y91.355 E13.37343 ; fill
G1 X108.769 Y95.910 E13.56365 ; fill
G1 X108.521 Y95.420 E13.57986 ; fill
G1 X113.324 Y90.617 E13.78041 ; fill
G1 X113.324 Y89.879 E13.80220 ; fill
G1 X108.251 Y94.952 E14.01402 ; fill
G1 X107.960 Y94.506 E14.02976 ; fill
G1 X113.324 Y89.141 E14.25375 ; fill
G1 X113.324 Y88.403 E14.27553 ; fill
G1 X107.648 Y94.080 E14.51254 ; fill
G1 X107.316 Y93.673 E14.52802 ; fill
G1 X113.324 Y87.665 E14.77889 ; fill
G1 X113.324 Y86.927 E14.80067 ; fill
G1 X106.965 Y93.287 E15.06620 ; fill
G1 X106.594 Y92.920 E15.08161 ; fill
G1 X112.838 Y86.676 E15.34232 ; fill
G1 X112.100 Y86.676 E15.36411 ; fill
G1 X106.202 Y92.574 E15.61039 ; fill
G1 X105.789 Y92.250 E15.62590 ; fill
G1 X111.363 Y86.676 E15.85864 ; fill
G1 X110.625 Y86.676 E15.88042 ; fill
G1 X105.355 Y91.945 E16.10045 ; fill
G1 X104.901 Y91.662 E16.11626 ; fill
G1 X109.887 Y86.676 E16.32445 ; fill
G1 X109.149 Y86.676 E16.34624 ; fill
G1 X104.425 Y91.400 E16.54348 ; fill
G1 X103.926 Y91.161 E16.55981 ; fill
G1 X108.411 Y86.676 E16.74707 ; fill
G1 X107.673 Y86.676 E16.76886 ; fill
G1 X103.403 Y90.946 E16.94715 ; fill
G1 X102.854 Y90.757 E16.96430 ; fill
G1 X106.935 Y86.676 E17.13472 ; fill
G1 X106.198 Y86.676 E17.15651 ; fill
G1 X102.275 Y90.598 E17.32029 ; fill
G1 X101.664 Y90.471 E17.33871 ; fill
G1 X105.460 Y86.676 E17.49719 ; fill
G1 X104.722 Y86.676 E17.51897 ; fill
G1 X101.015 Y90.382 E17.67373 ; fill
G1 X100.326 Y90.334 E17.69414 ; fill
G1 X103.984 Y86.676 E17.84687 ; fill
G1 X103.246 Y86.676 E17.86866 ; fill
G1 X99.585 Y90.337 E18.02151 ; fill
G1 X98.784 Y90.400 E18.04525 ; fill
G1 X102.508 Y86.676 E18.20077 ; fill
G1 X101.770 Y86.676 E18.22256 ; fill
G1 X97.883 Y90.563 E18.38485 ; fill
G1 X96.856 Y90.853 E18.41638 ; fill
G1 X101.033 Y86.676 E18.59078 ; fill
G1 X100.295 Y86.676 E18.61256 ; fill
G1 X95.566 Y91.404 E18.81000 ; fill
G1 X96.605 Y86.676 F7800.000 ; move to first fill point
G1 X86.676 Y96.605 F3600.000 E19.22461 ; fill
G1 X86.676 Y97.343 E19.24639 ; fill
G1 X97.343 Y86.676 E19.69181 ; fill
G1 X98.081 Y86.676 E19.71359 ; fill
G1 X86.676 Y98.081 E20.18981 ; fill
G1 X86.676 Y98.819 E20.21160 ; fill
G1 X98.819 Y86.676 E20.71863 ; fill
G1 X99.557 Y86.676 E20.74041 ; fill
G1 X86.676 Y99.557 E21.27825 ; fill
G1 X86.676 Y95.868 F7800.000 ; move to first fill point
G1 X95.868 Y86.676 F3600.000 E21.66205 ; fill
G1 X95.130 Y86.676 E21.68384 ; fill
G1 X86.676 Y95.130 E22.03683 ; fill
G1 X86.676 Y94.392 E22.05861 ; fill
G1 X94.392 Y86.676 E22.38079 ; fill
G1 X93.654 Y86.676 E22.40258 ; fill
G1 X86.676 Y93.654 E22.69395 ; fill
G1 X86.676 Y92.916 E22.71574 ; fill
G1 X92.916 Y86.676 E22.97630 ; fill
G1 X92.178 Y86.676 E22.99809 ; fill
G1 X86.676 Y92.178 E23.22785 ; fill
G1 X86.676 Y91.441 E23.24963 ; fill
G1 X91.441 Y86.676 E23.44858 ; fill
G1 X90.703 Y86.676 E23.47037 ; fill
G1 X86.676 Y90.703 E23.63851 ; fill
G1 X86.676 Y89.965 E23.66029 ; fill
G1 X89.965 Y86.676 E23.79762 ; fill
G1 X89.227 Y86.676 E23.81941 ; fill
G1 X86.676 Y89.227 E23.92593 ; fill
G1 X86.676 Y88.489 E23.94772 ; fill
