; generated by Slic3r 0.9.11-dev on 2013-06-24 at 16:02:34

; layer_height = 0.4
; perimeters = 3
; top_solid_layers = 3
; bottom_solid_layers = 3
; fill_density = 0.4
; perimeter_speed = 30
; infill_speed = 60
; travel_speed = 130
; nozzle_diameter = 0.5
; filament_diameter = 3
; extrusion_multiplier = 1
; perimeters extrusion width = 0.50mm
; infill extrusion width = 0.53mm
; solid infill extrusion width = 0.53mm
; top infill extrusion width = 0.53mm
; first layer extrusion width = 0.70mm

G21 ; set units to millimeters
M107
M104 S200 ; set temperature
G28 ; home all axes
G1 Z5 F5000 ; lift nozzle

M109 S200 ; wait for temperature to be reached
G90 ; use absolute coordinates
G92 E0
M82 ; use absolute distances for extrusion
G1 F1800.000 E-1.00000
G92 E0
G1 Z0.350 F7800.000
G1 X85.020 Y84.350
G1 F1800.000 E1.00000
G1 X86.010 Y83.460 F540.000 E1.04331
G1 X86.340 Y83.190 E1.05718
G3 X99.840 Y78.340 I13.495 J16.531 E1.05719
G3 X120.520 Y106.880 I0.279 J21.175 E1.05719
G3 X84.950 Y84.420 I-20.369 J-6.660 E1.05719
G1 F1800.000 E0.05719
G92 E0
G1 X94.284 Y92.235 F7800.000
G1 F1800.000 E1.00000
G3 X100.000 Y90.356 I5.715 J7.719 F540.000 E1.00000
G3 X94.206 Y92.296 I-0.004 J9.768 E1.00000
G1 X94.687 Y92.754 F7800.000
G3 X100.000 Y91.014 I5.312 J7.214 F540.000 E1.00000
G3 X94.609 Y92.815 I-0.003 J9.095 E1.00000
G1 X95.089 Y93.274 F7800.000
G3 X100.000 Y91.671 I4.910 J6.710 F378.000 E1.00000
G3 X95.012 Y93.334 I-0.003 J8.421 E1.00001
G1 X95.583 Y93.499 F7800.000
G1 F1800.000 E0.00001
G92 E0
G1 X92.843 Y88.723 F7800.000
G1 F1800.000 E1.00000
G3 X100.000 Y86.644 I7.157 J11.277 F540.000 E1.00000
G3 X92.762 Y88.778 I-0.003 J13.442 E1.00000
G1 X92.491 Y88.168 F7800.000
G3 X100.000 Y85.986 I7.509 J11.832 F540.000 E1.00000
G3 X92.409 Y88.223 I-0.003 J14.099 E1.00001
G1 X93.748 Y86.728 F7800.000
G3 X100.000 Y85.329 I6.252 J13.266 F378.000 E1.00001
G3 X93.660 Y86.773 I-0.006 J14.774 E1.00001
G1 X94.283 Y87.108 F7800.000
G1 X102.896 Y90.308
G1 X99.717 Y87.129 F1080.000 E1.14680
G1 X98.835 Y87.179 E1.17565
G1 X101.681 Y90.025 E1.30705
G1 X100.626 Y89.903 E1.34170
G1 X98.005 Y87.282 E1.46272
G1 X97.221 Y87.430 E1.48878
G1 X99.681 Y89.890 E1.60237
G1 X98.811 Y89.952 E1.63085
G1 X96.476 Y87.618 E1.73863
G1 X95.767 Y87.841 E1.76290
G1 X98.007 Y90.081 E1.86630
G1 X97.257 Y90.264 E1.89149
G1 X95.091 Y88.097 E1.99151
G1 X94.444 Y88.383 E2.01460
G1 X96.552 Y90.491 E2.11193
G1 X95.887 Y90.758 E2.13533
G1 X93.826 Y88.697 E2.23049
G1 X93.238 Y89.042 E2.25273
G1 X95.259 Y91.063 E2.34603
G1 X94.666 Y91.403 E2.36834
G1 X92.676 Y89.412 E2.46024
G1 X92.137 Y89.806 E2.48202
G1 X94.107 Y91.775 E2.57294
G1 X93.578 Y92.180 E2.59465
G1 X91.622 Y90.224 E2.68497
G1 X91.130 Y90.664 E2.70652
G1 X93.081 Y92.615 E2.79661
G1 X92.615 Y93.081 E2.81813
G1 X90.664 Y91.130 E2.90822
G1 X90.224 Y91.622 E2.92978
G1 X92.180 Y93.578 E3.02009
G1 X91.775 Y94.107 E3.04181
G1 X89.806 Y92.137 E3.13272
G1 X89.412 Y92.676 E3.15450
G1 X91.403 Y94.666 E3.24641
G1 X91.063 Y95.259 E3.26871
G1 X89.042 Y93.238 E3.36201
G1 X88.697 Y93.826 E3.38426
G1 X90.758 Y95.887 E3.47941
G1 X90.491 Y96.552 E3.50281
G1 X88.383 Y94.444 E3.60014
G1 X88.097 Y95.091 E3.62323
G1 X90.264 Y97.257 E3.72325
G1 X90.081 Y98.007 E3.74845
G1 X87.841 Y95.767 E3.85185
G1 X87.618 Y96.476 E3.87611
G1 X89.952 Y98.811 E3.98389
G1 X89.890 Y99.681 E4.01237
G1 X87.430 Y97.221 E4.12596
G1 X87.282 Y98.005 E4.15202
G1 X89.900 Y100.623 E4.27287
G1 X90.027 Y101.682 E4.30772
G1 X87.179 Y98.835 E4.43919
G1 X87.129 Y99.717 E4.46804
G1 X90.308 Y102.896 E4.61482
G1 X90.900 Y104.420 F7800.000
G1 X87.141 Y100.661 F1080.000 E4.78839
G1 X87.233 Y101.686 E4.82197
G1 X98.314 Y112.767 E5.33359
G1 X97.174 Y112.560 E5.37142
G1 X87.440 Y102.826 E5.82084
G1 X87.800 Y104.118 E5.86463
G1 X95.882 Y112.200 E6.23778
G1 X94.287 Y111.538 F7800.000
G1 X88.462 Y105.713 F1080.000 E6.50673
G1 X90.437 Y108.620 F7800.000
G1 X91.380 Y109.563 F1080.000 E6.55026
G1 X95.580 Y109.100 F7800.000
G1 X99.339 Y112.859 F1080.000 E6.72382
G1 X97.104 Y109.692 F7800.000
G1 X100.283 Y112.871 F1080.000 E6.87061
G1 X101.165 Y112.821 E6.89946
G1 X98.319 Y109.975 E7.03086
G1 X99.377 Y110.100 E7.06564
G1 X101.995 Y112.718 E7.18650
G1 X102.779 Y112.570 E7.21256
G1 X100.319 Y110.110 E7.32614
G1 X101.189 Y110.048 E7.35462
G1 X103.524 Y112.382 E7.46240
G1 X104.233 Y112.159 E7.48667
G1 X101.993 Y109.919 E7.59007
G1 X102.743 Y109.736 E7.61526
G1 X104.909 Y111.903 E7.71529
G1 X105.556 Y111.617 E7.73837
G1 X103.448 Y109.509 E7.83571
G1 X104.113 Y109.242 E7.85910
G1 X106.174 Y111.303 E7.95426
G1 X106.762 Y110.958 E7.97650
G1 X104.741 Y108.937 E8.06980
G1 X105.334 Y108.597 E8.09211
G1 X107.324 Y110.588 E8.18401
G1 X107.863 Y110.194 E8.20579
G1 X105.893 Y108.225 E8.29671
G1 X106.422 Y107.820 E8.31842
G1 X108.378 Y109.776 E8.40874
G1 X108.870 Y109.336 E8.43030
G1 X106.919 Y107.385 E8.52038
G1 X107.385 Y106.919 E8.54191
G1 X109.336 Y108.870 E8.63199
G1 X109.776 Y108.378 E8.65355
G1 X107.820 Y106.422 E8.74387
G1 X108.225 Y105.893 E8.76558
G1 X110.194 Y107.863 E8.85649
G1 X110.588 Y107.324 E8.87828
G1 X108.597 Y105.334 E8.97018
G1 X108.937 Y104.741 E8.99248
G1 X110.958 Y106.762 E9.08579
G1 X111.303 Y106.174 E9.10803
G1 X109.240 Y104.111 E9.20328
G1 X109.509 Y103.448 E9.22664
G1 X111.617 Y105.556 E9.32397
G1 X111.903 Y104.909 E9.34706
G1 X109.736 Y102.743 E9.44709
G1 X109.919 Y101.993 E9.47228
G1 X112.159 Y104.233 E9.57568
G1 X112.382 Y103.524 E9.59994
G1 X110.048 Y101.189 E9.70773
G1 X110.110 Y100.319 E9.73621
G1 X112.570 Y102.779 E9.84979
G1 X112.718 Y101.995 E9.87585
G1 X110.100 Y99.377 E9.99671
G1 X109.975 Y98.319 E10.03149
G1 X112.821 Y101.165 E10.16289
G1 X112.871 Y100.283 E10.19174
G1 X109.692 Y97.104 E10.33853
G1 X109.100 Y95.579 F7800.000
G1 X112.859 Y99.339 F1080.000 E10.51209
G1 X112.767 Y98.314 E10.54568
G1 X101.686 Y87.233 E11.05730
G1 X100.661 Y87.141 E11.09088
G1 X104.421 Y90.900 E11.26445
G1 X105.713 Y88.462 F7800.000
G1 X111.538 Y94.287 F1080.000 E11.53339
G1 X112.200 Y95.882 F7800.000
G1 X104.118 Y87.800 F1080.000 E11.90653
G1 X102.826 Y87.440 E11.95032
G1 X112.560 Y97.174 E12.39973
G1 X109.562 Y91.379 F7800.000
G1 X108.621 Y90.438 F1080.000 E12.44321
M106 S255
G1 F1800.000 E11.44321
G92 E0
G1 Z0.750 F7800.000
G1 X106.696 Y93.620
G1 F1800.000 E1.00000
G3 X100.000 Y90.749 I-6.695 J6.414 F1800.000 E1.00000
G3 X106.643 Y93.567 I0.003 J9.147 E1.00000
G1 X106.343 Y93.974 F7800.000
G3 X100.000 Y91.250 I-6.342 J6.054 F1800.000 E1.00000
G3 X106.289 Y93.921 I0.003 J8.658 E1.00000
G1 X105.989 Y94.327 F7800.000
G3 X100.000 Y91.750 I-5.988 J5.693 F1260.000 E1.00000
G3 X105.936 Y94.274 I0.002 J8.170 E1.00000
G1 X105.980 Y94.362 F7800.000
G1 X108.754 Y89.398
G3 X100.000 Y86.251 I-8.754 J10.610 F1800.000 E1.00001
G3 X108.695 Y89.352 I0.002 J13.674 E1.00001
G1 X109.061 Y89.003 F7800.000
G3 X100.000 Y85.750 I-9.060 J11.016 F1800.000 E1.00001
G3 X109.001 Y88.957 I0.003 J14.161 E1.00001
G1 X109.367 Y88.608 F7800.000
G3 X100.000 Y85.250 I-9.366 J11.421 F1260.000 E1.00001
G3 X109.308 Y88.562 I0.003 J14.648 E1.00001
G1 X109.361 Y88.652 F7800.000
G1 X96.758 Y90.950
G1 X101.045 Y86.663 F3121.882 E1.17901
G1 X101.717 Y86.729 E1.19894
G1 X97.806 Y90.640 E1.36224
G1 X98.713 Y90.471 E1.38948
G1 X102.354 Y86.830 E1.54151
G1 X102.965 Y86.957 E1.55994
G1 X99.524 Y90.397 E1.70359
G1 X100.269 Y90.391 E1.72557
G1 X103.556 Y87.104 E1.86280
G1 X104.127 Y87.270 E1.88038
G1 X100.961 Y90.437 E2.01259
G1 X101.613 Y90.523 E2.03201
G1 X104.670 Y87.465 E2.15967
G1 X105.198 Y87.675 E2.17645
G1 X102.226 Y90.647 E2.30056
G1 X102.806 Y90.805 E2.31831
G1 X105.712 Y87.899 E2.43966
G1 X106.201 Y88.148 E2.45586
G1 X103.357 Y90.992 E2.57461
G1 X103.881 Y91.205 E2.59132
G1 X106.678 Y88.409 E2.70807
G1 X107.141 Y88.683 E2.72397
G1 X104.381 Y91.444 E2.83922
G1 X104.858 Y91.705 E2.85527
G1 X107.582 Y88.980 E2.96902
G1 X108.012 Y89.289 E2.98463
G1 X105.313 Y91.988 E3.09732
G1 X105.747 Y92.292 E3.11296
G1 X108.423 Y89.615 E3.22471
G1 X108.834 Y89.942 E3.24022
G1 X106.160 Y92.616 E3.35188
G1 X106.551 Y92.963 E3.36731
G1 X109.215 Y90.299 E3.47854
G1 X109.584 Y90.668 E3.49394
G1 X106.923 Y93.329 E3.60506
G1 X107.274 Y93.715 E3.62049
G1 X109.940 Y91.049 E3.73180
G1 X110.286 Y91.441 E3.74724
G1 X107.606 Y94.122 E3.85915
G1 X107.917 Y94.548 E3.87474
G1 X110.610 Y91.855 E3.98718
G1 X110.925 Y92.278 E4.00275
G1 X108.208 Y94.995 E4.11617
G1 X108.477 Y95.464 E4.13213
G1 X111.223 Y92.718 E4.24678
G1 X111.504 Y93.175 E4.26263
G1 X108.724 Y95.955 E4.37869
G1 X108.946 Y96.471 E4.39527
G1 X111.773 Y93.644 E4.51331
G1 X112.022 Y94.132 E4.52951
G1 X109.142 Y97.013 E4.64979
G1 X109.308 Y97.584 E4.66735
G1 X112.254 Y94.638 E4.79035
G1 X112.473 Y95.157 E4.80698
G1 X109.445 Y98.186 E4.93343
G1 X109.545 Y98.824 E4.95249
G1 X112.668 Y95.700 E5.08291
G1 X112.843 Y96.263 E5.10031
G1 X109.602 Y99.504 E5.23564
G1 X109.610 Y100.234 E5.25718
G1 X113.000 Y96.844 E5.39873
G1 X113.135 Y97.447 E5.41698
G1 X109.559 Y101.023 E5.56629
G1 X109.427 Y101.893 E5.59227
G1 X113.239 Y98.081 E5.75141
G1 X113.316 Y98.741 E5.77103
G1 X109.172 Y102.885 E5.94408
G1 X108.696 Y104.100 F7800.000
G1 X113.365 Y99.431 F3121.882 E6.13902
G1 X113.378 Y100.156 E6.16043
G1 X107.438 Y106.095 E6.40844
G1 X106.095 Y107.438 F7800.000
G1 X100.156 Y113.378 F3121.882 E6.65645
G1 X100.923 Y113.348 E6.67912
G1 X113.348 Y100.923 E7.19793
G1 X113.267 Y101.742 E7.22224
G1 X101.742 Y113.267 E7.70343
G1 X102.628 Y113.118 E7.72995
G1 X113.118 Y102.628 E8.16795
G1 X112.882 Y103.602 E8.19754
G1 X103.602 Y112.882 E8.58502
G1 X104.697 Y112.525 E8.61902
G1 X112.525 Y104.697 E8.94586
G1 X111.949 Y106.011 F7800.000
G1 X106.011 Y111.949 F3121.882 E9.19381
G1 X107.890 Y110.808 F7800.000
G1 X110.808 Y107.890 F3121.882 E9.31562
G1 X104.091 Y108.704 F7800.000
G1 X99.431 Y113.365 F3121.882 E9.51023
G1 X102.885 Y109.172 F7800.000
G1 X98.741 Y113.316 F3121.882 E9.68327
G1 X98.081 Y113.239 E9.70289
G1 X101.893 Y109.427 E9.86204
G1 X101.023 Y109.559 E9.88801
G1 X97.447 Y113.135 E10.03733
G1 X96.844 Y113.000 E10.05557
G1 X100.234 Y109.610 E10.19712
G1 X99.504 Y109.602 E10.21866
G1 X96.263 Y112.843 E10.35399
G1 X95.700 Y112.668 E10.37139
G1 X98.824 Y109.545 E10.50182
G1 X98.186 Y109.445 E10.52088
G1 X95.157 Y112.473 E10.64732
G1 X94.638 Y112.254 E10.66396
G1 X97.584 Y109.308 E10.78695
G1 X97.013 Y109.142 E10.80452
G1 X94.132 Y112.022 E10.92480
G1 X93.644 Y111.773 E10.94100
G1 X96.471 Y108.946 E11.05904
G1 X95.955 Y108.724 E11.07561
G1 X93.175 Y111.504 E11.19168
G1 X92.718 Y111.223 E11.20752
G1 X95.464 Y108.477 E11.32217
G1 X94.995 Y108.208 E11.33813
G1 X92.278 Y110.925 E11.45156
G1 X91.855 Y110.610 E11.46713
G1 X94.548 Y107.917 E11.57957
G1 X94.122 Y107.606 E11.59516
G1 X91.441 Y110.286 E11.70707
G1 X91.049 Y109.940 E11.72250
G1 X93.715 Y107.274 E11.83382
G1 X93.329 Y106.923 E11.84924
G1 X90.668 Y109.584 E11.96036
G1 X90.299 Y109.215 E11.97577
G1 X92.963 Y106.551 E12.08700
G1 X92.616 Y106.160 E12.10243
G1 X89.950 Y108.826 E12.21375
G1 X89.610 Y108.428 E12.22920
G1 X92.292 Y105.747 E12.34118
G1 X91.988 Y105.313 E12.35682
G1 X89.287 Y108.013 E12.46958
G1 X88.980 Y107.582 E12.48520
G1 X91.705 Y104.858 E12.59895
G1 X91.444 Y104.381 E12.61499
G1 X88.683 Y107.141 E12.73024
G1 X88.409 Y106.678 E12.74614
G1 X91.205 Y103.881 E12.86289
G1 X90.992 Y103.357 E12.87960
G1 X88.148 Y106.201 E12.99835
G1 X87.899 Y105.712 E13.01455
G1 X90.805 Y102.806 E13.13590
G1 X90.647 Y102.226 E13.15366
G1 X87.675 Y105.198 E13.27777
G1 X87.465 Y104.670 E13.29454
G1 X90.524 Y101.612 E13.42225
G1 X90.435 Y100.962 E13.44160
G1 X87.270 Y104.127 E13.57375
G1 X87.104 Y103.556 E13.59133
G1 X90.391 Y100.269 E13.72856
G1 X90.397 Y99.525 E13.75054
G1 X86.957 Y102.965 E13.89419
G1 X86.830 Y102.354 E13.91262
G1 X90.475 Y98.708 E14.06482
G1 X90.640 Y97.806 E14.09192
G1 X86.729 Y101.717 E14.25522
G1 X86.663 Y101.045 E14.27515
G1 X90.950 Y96.758 E14.45415
G1 X91.539 Y95.431 F7800.000
G1 X86.628 Y100.342 F3121.882 E14.65919
G1 X86.630 Y99.603 E14.68102
G1 X99.602 Y86.630 E15.22267
G1 X100.342 Y86.628 E15.24451
G1 X95.431 Y91.539 E15.44955
G1 X93.503 Y88.302 F7800.000
G1 X88.302 Y93.503 F3121.882 E15.66670
G1 X87.624 Y94.919 F7800.000
G1 X94.919 Y87.624 F3121.882 E15.97128
G1 X87.214 Y96.068 F7800.000
G1 X96.068 Y87.214 F3121.882 E16.34096
G1 X97.070 Y86.949 E16.37157
G1 X86.949 Y97.070 E16.79416
G1 X86.778 Y97.979 E16.82148
G1 X97.979 Y86.778 E17.28920
G1 X98.818 Y86.676 E17.31416
G1 X86.676 Y98.818 E17.82114
G1 F1800.000 E16.82114
G92 E0
G1 Z1.150 F7800.000
G1 X90.814 Y98.927
G1 F1800.000 E1.00000
G3 X100.000 Y90.749 I9.185 J1.040 F1800.000 E1.00000
G3 X90.807 Y99.002 I-0.003 J9.332 E1.00000
G1 X91.312 Y98.974 F7800.000
G3 X100.000 Y91.250 I8.687 J0.998 F1800.000 E1.00000
G3 X91.305 Y99.049 I-0.002 J8.824 E1.00000
G1 X91.810 Y99.021 F7800.000
G3 X100.000 Y91.750 I8.190 J0.956 F1260.000 E1.00000
G3 X91.803 Y99.096 I-0.002 J8.315 E1.00000
G1 X91.860 Y98.998 F7800.000
G1 X86.486 Y97.473
G3 X100.000 Y86.251 I13.513 J2.504 F1800.000 E1.00001
G3 X86.475 Y97.547 I-0.002 J13.812 E1.00001
G1 X85.992 Y97.395 F7800.000
G3 X100.000 Y85.750 I14.007 J2.576 F1800.000 E1.00001
G3 X85.981 Y97.469 I-0.002 J14.320 E1.00001
G1 X85.499 Y97.317 F7800.000
G3 X100.000 Y85.250 I14.500 J2.648 F1260.000 E1.00001
G3 X85.487 Y97.391 I-0.002 J14.829 E1.00001
G1 X85.575 Y97.288 F7800.000
G1 X86.632 Y99.544
G1 X91.424 Y104.336 F3135.884 E1.20009
G1 X90.884 Y103.059 F7800.000
G1 X86.673 Y98.848 F3135.884 E1.37591
G1 X86.745 Y98.182 E1.39569
G1 X90.607 Y102.043 E1.55691
G1 X90.453 Y101.152 E1.58361
G1 X86.846 Y97.545 E1.73421
G1 X86.978 Y96.939 E1.75252
G1 X90.394 Y100.354 E1.89512
G1 X90.394 Y99.617 E1.91688
G1 X87.131 Y96.354 E2.05316
G1 X87.303 Y95.788 E2.07062
G1 X90.445 Y98.931 E2.20184
G1 X90.539 Y98.286 E2.22106
G1 X87.497 Y95.244 E2.34808
G1 X87.710 Y94.720 E2.36479
G1 X90.669 Y97.678 E2.48832
G1 X90.831 Y97.103 E2.50597
G1 X87.938 Y94.210 E2.62677
G1 X88.187 Y93.721 E2.64297
G1 X91.023 Y96.557 E2.76137
G1 X91.241 Y96.037 E2.77801
G1 X88.453 Y93.249 E2.89442
G1 X88.729 Y92.787 E2.91030
G1 X91.483 Y95.541 E3.02528
G1 X91.748 Y95.069 E3.04128
G1 X89.028 Y92.348 E3.15487
G1 X89.339 Y91.921 E3.17046
G1 X92.035 Y94.618 E3.28306
G1 X92.343 Y94.187 E3.29867
G1 X89.661 Y91.505 E3.41065
G1 X90.005 Y91.111 E3.42609
G1 X92.671 Y93.777 E3.53741
G1 X93.018 Y93.387 E3.55284
G1 X90.357 Y90.726 E3.66394
G1 X90.726 Y90.357 E3.67934
G1 X93.387 Y93.018 E3.79044
G1 X93.777 Y92.671 E3.80587
G1 X91.111 Y90.005 E3.91719
G1 X91.506 Y89.661 E3.93263
G1 X94.188 Y92.343 E4.04461
G1 X94.618 Y92.035 E4.06023
G1 X91.921 Y89.339 E4.17282
G1 X92.348 Y89.028 E4.18842
G1 X95.069 Y91.748 E4.30201
G1 X95.541 Y91.483 E4.31801
G1 X92.788 Y88.729 E4.43299
G1 X93.249 Y88.453 E4.44887
G1 X96.037 Y91.241 E4.56528
G1 X96.557 Y91.023 E4.58192
G1 X93.721 Y88.187 E4.70032
G1 X94.210 Y87.938 E4.71651
G1 X97.103 Y90.831 E4.83731
G1 X97.679 Y90.669 E4.85497
G1 X94.720 Y87.710 E4.97849
G1 X95.244 Y87.496 E4.99520
G1 X98.286 Y90.539 E5.12224
G1 X98.931 Y90.445 E5.14146
G1 X95.786 Y87.301 E5.27276
G1 X96.354 Y87.131 E5.29025
G1 X99.618 Y90.394 E5.42653
G1 X100.355 Y90.394 E5.44829
G1 X96.939 Y86.978 E5.59089
G1 X97.545 Y86.846 E5.60920
G1 X101.153 Y90.454 E5.75982
G1 X102.043 Y90.607 E5.78651
G1 X98.182 Y86.745 E5.94774
G1 X98.848 Y86.673 E5.96751
G1 X103.059 Y90.884 E6.14334
G1 X104.330 Y91.417 F7800.000
G1 X99.544 Y86.632 F3135.884 E6.34315
G1 X100.277 Y86.626 E6.36477
G1 X113.374 Y99.723 E6.91163
G1 X113.368 Y100.456 E6.93325
G1 X108.583 Y95.670 E7.13306
G1 X109.116 Y96.941 F7800.000
G1 X113.327 Y101.152 F3135.884 E7.30889
G1 X113.255 Y101.818 E7.32866
G1 X109.393 Y97.957 E7.48989
G1 X109.547 Y98.848 E7.51659
G1 X113.154 Y102.455 E7.66719
G1 X113.022 Y103.061 E7.68550
G1 X109.606 Y99.645 E7.82810
G1 X109.606 Y100.382 E7.84986
G1 X112.869 Y103.646 E7.98614
G1 X112.699 Y104.214 E8.00364
G1 X109.555 Y101.069 E8.13493
G1 X109.461 Y101.714 E8.15416
G1 X112.504 Y104.756 E8.28120
G1 X112.290 Y105.280 E8.29790
G1 X109.331 Y102.321 E8.42143
G1 X109.169 Y102.897 E8.43908
G1 X112.062 Y105.790 E8.55988
G1 X111.813 Y106.279 E8.57608
G1 X108.977 Y103.443 E8.69447
G1 X108.756 Y103.960 E8.71107
G1 X111.547 Y106.751 E8.82760
