; generated by Slic3r 0.9.11-dev on 2013-06-24 at 20:57:16

; layer_height = 0.4
; perimeters = 3
; top_solid_layers = 3
; bottom_solid_layers = 3
; fill_density = 0.4
; perimeter_speed = 30
; infill_speed = 60
; travel_speed = 130
; nozzle_diameter = 0.5
; filament_diameter = 3
; extrusion_multiplier = 1
; perimeters extrusion width = 0.50mm
; infill extrusion width = 0.53mm
; solid infill extrusion width = 0.53mm
; top infill extrusion width = 0.53mm
; first layer extrusion width = 0.70mm

G21 ; set units to millimeters
M107 ; disable fan
M104 S200 ; set temperature
G28 ; home all axes
G1 Z5 F5000 ; lift nozzle

M109 S200 ; wait for temperature to be reached
G90 ; use absolute coordinates
G92 E0 ; reset extrusion distance
M82 ; use absolute distances for extrusion
G1 F1800.000 E-1.00000 ; retract
G92 E0 ; reset extrusion distance
G1 Z0.350 F7800.000 ; move to next layer (0)
G1 X75.290 Y75.290 ; move to first skirt point
G1 F1800.000 E1.00000 ; compensate retraction
G3 X80.000 Y73.340 I4.720 J4.714 F540.000 E1.00000 ; skirt
G1 X120.000 Y73.340 E2.30141 ; skirt
G3 X126.660 Y80.000 I-0.011 J6.671 E2.30141 ; skirt
G1 X126.660 Y120.000 E3.60282 ; skirt
G3 X120.000 Y126.660 I-6.671 J-0.011 E3.60282 ; skirt
G1 X80.000 Y126.660 E4.90423 ; skirt
G3 X73.340 Y120.000 I0.011 J-6.671 E4.90423 ; skirt
G1 X73.340 Y80.000 E6.20564 ; skirt
G3 X75.227 Y75.366 I6.576 J0.001 E6.20564 ; skirt
G1 F1800.000 E5.20564 ; retract
G92 E0 ; reset extrusion distance
G1 X90.013 Y90.707 F7800.000 ; move to first perimeter point
G1 F1800.000 E1.00000 ; compensate retraction
G3 X100.000 Y86.356 I9.986 J9.254 F540.000 E1.00000 ; perimeter
G3 X89.948 Y90.781 I-0.004 J13.748 E1.00000 ; perimeter
G1 X90.506 Y91.142 F7800.000 ; move to first perimeter point
G3 X100.000 Y87.014 I9.494 J8.831 F540.000 E1.00000 ; perimeter
G3 X90.441 Y91.216 I-0.003 J13.077 E1.00001 ; perimeter
G1 X90.999 Y91.576 F7800.000 ; move to first perimeter point
G3 X100.000 Y87.671 I9.001 J8.409 F378.000 E1.00001 ; perimeter
G3 X90.933 Y91.650 I-0.003 J12.406 E1.00001 ; perimeter
G1 X91.637 Y91.732 F7800.000 ; move inwards before travel
G1 F1800.000 E0.00001 ; retract
G92 E0 ; reset extrusion distance
G1 X81.643 Y81.643 F7800.000 ; move to first perimeter point
G1 F1800.000 E1.00000 ; compensate retraction
G1 X118.357 Y81.643 F540.000 E2.19452 ; perimeter
G1 X118.357 Y118.357 E3.38903 ; perimeter
G1 X81.643 Y118.357 E4.58355 ; perimeter
G1 X81.643 Y81.741 E5.77486 ; perimeter
G1 X80.986 Y80.986 F7800.000 ; move to first perimeter point
G1 X119.014 Y80.986 F540.000 E7.01214 ; perimeter
G1 X119.014 Y119.014 E8.24941 ; perimeter
G1 X80.986 Y119.014 E9.48668 ; perimeter
G1 X80.986 Y81.084 E10.72075 ; perimeter
G1 X80.329 Y80.329 F7800.000 ; move to first perimeter point
G1 X119.671 Y80.329 F378.000 E12.00078 ; perimeter
G1 X119.671 Y119.671 E13.28081 ; perimeter
G1 X80.329 Y119.671 E14.56084 ; perimeter
G1 X80.329 Y80.427 E15.83767 ; perimeter
G1 X80.898 Y80.657 F7800.000 ; move inwards before travel
G1 X105.052 Y86.819 ; move to first fill point
G1 X100.352 Y82.119 F1080.000 E16.05527 ; fill
G1 X99.417 Y82.119 E16.08588 ; fill
G1 X103.667 Y86.369 E16.28262 ; fill
G1 X102.464 Y86.101 E16.32294 ; fill
G1 X98.482 Y82.119 E16.50732 ; fill
G1 X97.547 Y82.119 E16.53793 ; fill
G1 X101.385 Y85.957 E16.71561 ; fill
G1 X100.385 Y85.892 E16.74840 ; fill
G1 X96.612 Y82.119 E16.92309 ; fill
G1 X95.677 Y82.119 E16.95370 ; fill
G1 X99.455 Y85.897 E17.12862 ; fill
G1 X98.581 Y85.958 E17.15730 ; fill
G1 X94.742 Y82.119 E17.33504 ; fill
G1 X93.807 Y82.119 E17.36565 ; fill
G1 X97.754 Y86.067 E17.54842 ; fill
G1 X96.969 Y86.216 E17.57460 ; fill
G1 X92.872 Y82.119 E17.76429 ; fill
G1 X91.937 Y82.119 E17.79490 ; fill
G1 X96.219 Y86.402 E17.99318 ; fill
G1 X95.502 Y86.619 E18.01772 ; fill
G1 X91.002 Y82.119 E18.22609 ; fill
G1 X90.067 Y82.119 E18.25670 ; fill
G1 X94.815 Y86.867 E18.47652 ; fill
G1 X94.161 Y87.149 E18.49981 ; fill
G1 X89.132 Y82.119 E18.73268 ; fill
G1 X88.197 Y82.119 E18.76329 ; fill
G1 X93.533 Y87.456 E19.01035 ; fill
G1 X92.928 Y87.786 E19.03291 ; fill
G1 X87.262 Y82.119 E19.29527 ; fill
G1 X86.327 Y82.119 E19.32588 ; fill
G1 X92.346 Y88.138 E19.60455 ; fill
G1 X91.789 Y88.516 E19.62659 ; fill
G1 X85.392 Y82.119 E19.92277 ; fill
G1 X84.457 Y82.119 E19.95338 ; fill
G1 X91.258 Y88.920 E20.26826 ; fill
G1 X90.746 Y89.344 E20.29000 ; fill
G1 X83.522 Y82.119 E20.62448 ; fill
G1 X82.587 Y82.119 E20.65509 ; fill
G1 X90.254 Y89.787 E21.01009 ; fill
G1 X89.787 Y90.254 E21.03174 ; fill
G1 X82.119 Y82.586 E21.38674 ; fill
G1 X82.119 Y83.521 E21.41735 ; fill
G1 X89.344 Y90.746 E21.75184 ; fill
G1 X88.920 Y91.258 E21.77358 ; fill
G1 X82.119 Y84.456 E22.08845 ; fill
G1 X82.119 Y85.391 E22.11906 ; fill
G1 X88.516 Y91.789 E22.41525 ; fill
G1 X88.138 Y92.346 E22.43729 ; fill
G1 X82.119 Y86.326 E22.71596 ; fill
G1 X82.119 Y87.262 E22.74657 ; fill
G1 X87.786 Y92.928 E23.00893 ; fill
G1 X87.456 Y93.533 E23.03149 ; fill
G1 X82.119 Y88.197 E23.27856 ; fill
G1 X82.119 Y89.132 E23.30917 ; fill
G1 X87.149 Y94.161 E23.54204 ; fill
G1 X86.867 Y94.815 E23.56533 ; fill
G1 X82.119 Y90.067 E23.78515 ; fill
G1 X82.119 Y91.002 E23.81576 ; fill
G1 X86.619 Y95.502 E24.02412 ; fill
G1 X86.404 Y96.222 E24.04872 ; fill
G1 X82.119 Y91.937 E24.24711 ; fill
G1 X82.119 Y92.872 E24.27772 ; fill
G1 X86.216 Y96.969 E24.46741 ; fill
G1 X86.067 Y97.754 E24.49359 ; fill
G1 X82.119 Y93.807 E24.67636 ; fill
G1 X82.119 Y94.742 E24.70697 ; fill
G1 X85.958 Y98.581 E24.88471 ; fill
G1 X85.897 Y99.455 E24.91339 ; fill
G1 X82.119 Y95.677 E25.08831 ; fill
G1 X82.119 Y96.612 E25.11892 ; fill
G1 X85.892 Y100.385 E25.29361 ; fill
G1 X85.955 Y101.382 E25.32633 ; fill
G1 X82.119 Y97.547 E25.50392 ; fill
G1 X82.119 Y98.482 E25.53453 ; fill
G1 X86.101 Y102.464 E25.71890 ; fill
G1 X86.374 Y103.671 E25.75942 ; fill
G1 X82.119 Y99.417 E25.95640 ; fill
G1 X82.119 Y100.352 E25.98701 ; fill
G1 X86.819 Y105.052 E26.20460 ; fill
G1 X87.618 Y106.786 F7800.000 ; move to first fill point
G1 X82.119 Y101.287 F1080.000 E26.45920 ; fill
G1 X82.119 Y102.222 E26.48981 ; fill
G1 X97.778 Y117.881 E27.21479 ; fill
G1 X96.843 Y117.881 E27.24540 ; fill
G1 X82.119 Y103.157 E27.92709 ; fill
G1 X82.119 Y104.092 E27.95770 ; fill
G1 X95.908 Y117.881 E28.59611 ; fill
G1 X94.973 Y117.881 E28.62672 ; fill
G1 X82.119 Y105.027 E29.22183 ; fill
G1 X82.119 Y105.962 E29.25244 ; fill
G1 X94.038 Y117.881 E29.80427 ; fill
G1 X93.103 Y117.881 E29.83488 ; fill
G1 X82.119 Y106.897 E30.34341 ; fill
G1 X82.119 Y107.832 E30.37402 ; fill
G1 X92.168 Y117.881 E30.83927 ; fill
G1 X91.233 Y117.881 E30.86988 ; fill
G1 X82.119 Y108.767 E31.29184 ; fill
G1 X82.119 Y109.702 E31.32245 ; fill
G1 X90.298 Y117.881 E31.70112 ; fill
G1 X89.363 Y117.881 E31.73173 ; fill
G1 X82.119 Y110.637 E32.06711 ; fill
G1 X82.119 Y111.572 E32.09772 ; fill
G1 X88.428 Y117.881 E32.38981 ; fill
G1 X87.493 Y117.881 E32.42042 ; fill
G1 X82.119 Y112.507 E32.66923 ; fill
G1 X82.119 Y113.442 E32.69984 ; fill
G1 X86.558 Y117.881 E32.90535 ; fill
G1 X85.623 Y117.881 E32.93596 ; fill
G1 X82.119 Y114.377 E33.09819 ; fill
G1 X82.119 Y115.312 E33.12880 ; fill
G1 X84.688 Y117.881 E33.24774 ; fill
G1 X83.753 Y117.881 E33.27835 ; fill
G1 X82.119 Y116.247 E33.35399 ; fill
G1 X82.119 Y117.182 E33.38460 ; fill
G1 X82.818 Y117.881 E33.41696 ; fill
G1 X93.214 Y112.382 F7800.000 ; move to first fill point
G1 X98.713 Y117.881 F1080.000 E33.67156 ; fill
G1 X94.948 Y113.181 F7800.000 ; move to first fill point
G1 X99.648 Y117.881 F1080.000 E33.88916 ; fill
G1 X100.583 Y117.881 E33.91977 ; fill
G1 X96.334 Y113.631 E34.11652 ; fill
G1 X97.536 Y113.899 E34.15683 ; fill
G1 X101.518 Y117.881 E34.34121 ; fill
G1 X102.453 Y117.881 E34.37182 ; fill
G1 X98.618 Y114.045 E34.54940 ; fill
G1 X99.615 Y114.108 E34.58213 ; fill
G1 X103.388 Y117.881 E34.75681 ; fill
G1 X104.323 Y117.881 E34.78742 ; fill
G1 X100.545 Y114.103 E34.96234 ; fill
G1 X101.419 Y114.042 E34.99102 ; fill
G1 X105.258 Y117.881 E35.16877 ; fill
G1 X106.193 Y117.881 E35.19938 ; fill
G1 X102.246 Y113.933 E35.38215 ; fill
G1 X103.031 Y113.784 E35.40833 ; fill
G1 X107.128 Y117.881 E35.59802 ; fill
G1 X108.063 Y117.881 E35.62863 ; fill
G1 X103.781 Y113.598 E35.82691 ; fill
G1 X104.498 Y113.380 E35.85145 ; fill
G1 X108.998 Y117.881 E36.05982 ; fill
G1 X109.933 Y117.881 E36.09043 ; fill
G1 X105.185 Y113.133 E36.31025 ; fill
G1 X105.839 Y112.851 E36.33354 ; fill
G1 X110.868 Y117.881 E36.56641 ; fill
G1 X111.803 Y117.881 E36.59702 ; fill
G1 X106.467 Y112.544 E36.84409 ; fill
G1 X107.072 Y112.214 E36.86665 ; fill
G1 X112.738 Y117.881 E37.12901 ; fill
G1 X113.674 Y117.881 E37.15962 ; fill
G1 X107.654 Y111.862 E37.43829 ; fill
G1 X108.211 Y111.483 E37.46033 ; fill
G1 X114.609 Y117.881 E37.75652 ; fill
G1 X115.544 Y117.881 E37.78713 ; fill
G1 X108.742 Y111.080 E38.10200 ; fill
G1 X109.252 Y110.654 E38.12373 ; fill
G1 X116.479 Y117.881 E38.45831 ; fill
G1 X117.414 Y117.881 E38.48892 ; fill
G1 X109.746 Y110.213 E38.84392 ; fill
G1 X110.213 Y109.746 E38.86556 ; fill
G1 X117.881 Y117.413 E39.22056 ; fill
G1 X117.881 Y116.478 E39.25117 ; fill
G1 X110.656 Y109.254 E39.58566 ; fill
G1 X111.080 Y108.742 E39.60740 ; fill
G1 X117.881 Y115.543 E39.92227 ; fill
G1 X117.881 Y114.608 E39.95288 ; fill
G1 X111.484 Y108.211 E40.24907 ; fill
G1 X111.862 Y107.654 E40.27111 ; fill
G1 X117.881 Y113.673 E40.54978 ; fill
G1 X117.881 Y112.738 E40.58039 ; fill
G1 X112.214 Y107.072 E40.84274 ; fill
G1 X112.544 Y106.467 E40.86530 ; fill
G1 X117.881 Y111.803 E41.11237 ; fill
G1 X117.881 Y110.868 E41.14298 ; fill
G1 X112.851 Y105.839 E41.37585 ; fill
G1 X113.133 Y105.185 E41.39914 ; fill
G1 X117.881 Y109.933 E41.61896 ; fill
G1 X117.881 Y108.998 E41.64957 ; fill
G1 X113.381 Y104.498 E41.85793 ; fill
G1 X113.598 Y103.781 E41.88247 ; fill
G1 X117.881 Y108.063 E42.08076 ; fill
G1 X117.881 Y107.128 E42.11137 ; fill
G1 X113.784 Y103.031 E42.30106 ; fill
G1 X113.933 Y102.246 E42.32724 ; fill
G1 X117.881 Y106.193 E42.51001 ; fill
G1 X117.881 Y105.258 E42.54062 ; fill
G1 X114.042 Y101.419 E42.71836 ; fill
G1 X114.103 Y100.545 E42.74704 ; fill
G1 X117.881 Y104.323 E42.92196 ; fill
G1 X117.881 Y103.388 E42.95257 ; fill
G1 X114.108 Y99.615 E43.12726 ; fill
G1 X114.045 Y98.617 E43.15998 ; fill
G1 X117.881 Y102.453 E43.33757 ; fill
G1 X117.881 Y101.518 E43.36818 ; fill
G1 X113.899 Y97.536 E43.55255 ; fill
G1 X113.631 Y96.333 E43.59287 ; fill
G1 X117.881 Y100.583 E43.78962 ; fill
G1 X117.881 Y99.648 E43.82023 ; fill
G1 X113.181 Y94.948 E44.03783 ; fill
G1 X112.382 Y93.214 F7800.000 ; move to first fill point
G1 X117.881 Y98.713 F1080.000 E44.29244 ; fill
G1 X117.881 Y97.778 E44.32305 ; fill
G1 X102.222 Y82.119 E45.04802 ; fill
G1 X101.287 Y82.119 E45.07863 ; fill
G1 X106.786 Y87.618 E45.33323 ; fill
G1 X117.881 Y82.818 F7800.000 ; move to first fill point
G1 X117.182 Y82.119 F1080.000 E45.36559 ; fill
G1 X116.247 Y82.119 E45.39620 ; fill
G1 X117.881 Y83.753 E45.47184 ; fill
G1 X117.881 Y84.688 E45.50245 ; fill
G1 X115.312 Y82.119 E45.62138 ; fill
G1 X114.377 Y82.119 E45.65199 ; fill
G1 X117.881 Y85.623 E45.81422 ; fill
G1 X117.881 Y86.558 E45.84483 ; fill
G1 X113.442 Y82.119 E46.05034 ; fill
G1 X112.507 Y82.119 E46.08095 ; fill
G1 X117.881 Y87.493 E46.32974 ; fill
G1 X117.881 Y88.428 E46.36035 ; fill
G1 X111.572 Y82.119 E46.65244 ; fill
G1 X110.637 Y82.119 E46.68305 ; fill
G1 X117.881 Y89.363 E47.01843 ; fill
G1 X117.881 Y90.298 E47.04904 ; fill
G1 X109.702 Y82.119 E47.42770 ; fill
G1 X108.767 Y82.119 E47.45831 ; fill
G1 X117.881 Y91.233 E47.88027 ; fill
G1 X117.881 Y92.168 E47.91088 ; fill
G1 X107.832 Y82.119 E48.37612 ; fill
G1 X106.897 Y82.119 E48.40673 ; fill
G1 X117.881 Y93.103 E48.91526 ; fill
G1 X117.881 Y94.038 E48.94587 ; fill
G1 X105.962 Y82.119 E49.49769 ; fill
G1 X105.027 Y82.119 E49.52830 ; fill
G1 X117.881 Y94.973 E50.12341 ; fill
G1 X117.881 Y95.908 E50.15402 ; fill
G1 X104.092 Y82.119 E50.79242 ; fill
G1 X103.157 Y82.119 E50.82303 ; fill
G1 X117.881 Y96.843 E51.50471 ; fill
M106 S127 ; enable fan
G1 F1800.000 E50.50471 ; retract
G92 E0 ; reset extrusion distance
G1 Z0.750 F7800.000 ; move to next layer (1)
G1 X113.000 Y97.445 ; move to first perimeter point
G1 F1800.000 E1.00000 ; compensate retraction
G3 X100.000 Y86.749 I-12.998 J2.587 F1800.000 E1.00000 ; perimeter
G3 X112.983 Y97.372 I0.002 J13.173 E1.00000 ; perimeter
G1 X112.512 Y97.554 F7800.000 ; move to first perimeter point
G3 X100.000 Y87.250 I-12.511 J2.472 F1800.000 E1.00000 ; perimeter
G3 X112.495 Y97.481 I0.002 J12.681 E1.00000 ; perimeter
G1 X112.024 Y97.663 F7800.000 ; move to first perimeter point
G3 X100.000 Y87.750 I-12.023 J2.357 F1260.000 E1.00001 ; perimeter
G3 X112.007 Y97.590 I0.002 J12.189 E1.00001 ; perimeter
G1 X111.993 Y97.692 F7800.000 ; move inwards before travel
G1 X118.750 Y81.250 ; move to first perimeter point
G1 X118.750 Y118.750 F1800.000 E2.06104 ; perimeter
G1 X81.250 Y118.750 E3.12207 ; perimeter
G1 X81.250 Y81.250 E4.18311 ; perimeter
G1 X118.675 Y81.250 E5.24202 ; perimeter
G1 X119.250 Y80.750 F7800.000 ; move to first perimeter point
G1 X119.250 Y119.250 F1800.000 E6.33134 ; perimeter
G1 X80.750 Y119.250 E7.42067 ; perimeter
G1 X80.750 Y80.750 E8.51000 ; perimeter
G1 X119.175 Y80.750 E9.59720 ; perimeter
G1 X119.750 Y80.250 F7800.000 ; move to first perimeter point
G1 X119.750 Y119.750 F1260.000 E10.71482 ; perimeter
G1 X80.250 Y119.750 E11.83245 ; perimeter
G1 X80.250 Y80.250 E12.95007 ; perimeter
G1 X119.675 Y80.250 E14.06557 ; perimeter
G1 X119.500 Y80.683 F7800.000 ; move inwards before travel
G1 X95.908 Y87.015 ; move to first fill point
G1 X101.306 Y81.617 F3600.000 E14.29146 ; fill
G1 X102.046 Y81.617 E14.31334 ; fill
G1 X96.921 Y86.741 E14.52778 ; fill
G1 X97.840 Y86.562 E14.55550 ; fill
G1 X102.785 Y81.617 E14.76242 ; fill
G1 X103.525 Y81.617 E14.78430 ; fill
G1 X98.689 Y86.452 E14.98664 ; fill
G1 X99.482 Y86.399 E15.01016 ; fill
G1 X104.264 Y81.617 E15.21026 ; fill
G1 X105.004 Y81.617 E15.23214 ; fill
G1 X100.231 Y86.390 E15.43186 ; fill
G1 X100.938 Y86.421 E15.45282 ; fill
G1 X105.743 Y81.617 E15.65387 ; fill
G1 X106.482 Y81.617 E15.67575 ; fill
G1 X101.617 Y86.482 E15.87932 ; fill
G1 X102.261 Y86.578 E15.89858 ; fill
G1 X107.222 Y81.617 E16.10616 ; fill
G1 X107.961 Y81.617 E16.12804 ; fill
G1 X102.881 Y86.697 E16.34063 ; fill
G1 X103.480 Y86.837 E16.35884 ; fill
G1 X108.701 Y81.617 E16.57730 ; fill
G1 X109.440 Y81.617 E16.59918 ; fill
G1 X104.053 Y87.004 E16.82460 ; fill
G1 X104.605 Y87.192 E16.84184 ; fill
G1 X110.180 Y81.617 E17.07512 ; fill
G1 X110.919 Y81.617 E17.09700 ; fill
G1 X105.142 Y87.394 E17.33876 ; fill
G1 X105.658 Y87.618 E17.35540 ; fill
G1 X111.659 Y81.617 E17.60651 ; fill
G1 X112.398 Y81.617 E17.62839 ; fill
G1 X106.155 Y87.860 E17.88964 ; fill
G1 X106.640 Y88.114 E17.90586 ; fill
G1 X113.138 Y81.617 E18.17773 ; fill
G1 X113.877 Y81.617 E18.19961 ; fill
G1 X107.105 Y88.389 E18.48299 ; fill
G1 X107.555 Y88.678 E18.49883 ; fill
G1 X114.617 Y81.617 E18.79430 ; fill
G1 X115.356 Y81.617 E18.81618 ; fill
G1 X107.996 Y88.977 E19.12418 ; fill
G1 X108.412 Y89.300 E19.13978 ; fill
G1 X116.095 Y81.617 E19.46127 ; fill
G1 X116.835 Y81.617 E19.48315 ; fill
G1 X108.821 Y89.631 E19.81851 ; fill
G1 X109.213 Y89.978 E19.83401 ; fill
G1 X117.574 Y81.617 E20.18387 ; fill
G1 X118.314 Y81.617 E20.20575 ; fill
G1 X109.590 Y90.341 E20.57081 ; fill
G1 X109.957 Y90.713 E20.58628 ; fill
G1 X118.383 Y82.287 E20.93886 ; fill
G1 X118.383 Y83.026 E20.96074 ; fill
G1 X110.304 Y91.106 E21.29882 ; fill
G1 X110.640 Y91.509 E21.31436 ; fill
G1 X118.383 Y83.766 E21.63839 ; fill
G1 X118.383 Y84.505 E21.66027 ; fill
G1 X110.963 Y91.926 E21.97078 ; fill
G1 X111.264 Y92.364 E21.98652 ; fill
G1 X118.383 Y85.245 E22.28441 ; fill
G1 X118.383 Y85.984 E22.30629 ; fill
G1 X111.559 Y92.808 E22.59183 ; fill
G1 X111.834 Y93.272 E22.60780 ; fill
G1 X118.383 Y86.724 E22.88184 ; fill
G1 X118.383 Y87.463 E22.90372 ; fill
G1 X112.093 Y93.753 E23.16693 ; fill
G1 X112.340 Y94.245 E23.18323 ; fill
G1 X118.383 Y88.203 E23.43609 ; fill
G1 X118.383 Y88.942 E23.45797 ; fill
G1 X112.564 Y94.761 E23.70148 ; fill
