; generated by Slic3r 0.9.11-dev on 2013-06-24 at 21:50:47

; layer_height = 0.4
; perimeters = 3
; top_solid_layers = 3
; bottom_solid_layers = 3
; fill_density = 0.4
; perimeter_speed = 30
; infill_speed = 60
; travel_speed = 130
; nozzle_diameter = 0.5
; filament_diameter = 3
; extrusion_multiplier = 1
; perimeters extrusion width = 0.50mm
; infill extrusion width = 0.53mm
; solid infill extrusion width = 0.53mm
; top infill extrusion width = 0.53mm
; first layer extrusion width = 0.70mm

G21 ; set units to millimeters
M107 ; disable fan
M104 S200 ; set temperature
G28 ; home all axes
G1 Z5 F5000 ; lift nozzle

M109 S200 ; wait for temperature to be reached
G90 ; use absolute coordinates
G92 E0 ; reset extrusion distance
M82 ; use absolute distances for extrusion
G1 F1800.000 E-1.00000 ; retract
G92 E0 ; reset extrusion distance
G1 Z0.350 F7800.000 ; move to next layer (0)
G1 X85.020 Y84.350 ; move to first skirt point
G1 F1800.000 E1.00000 ; compensate retraction
G1 X86.010 Y83.460 F540.000 E1.04331 ; skirt
G1 X86.340 Y83.190 E1.05718 ; skirt
G3 X99.840 Y78.340 I13.495 J16.531 E1.05719 ; skirt
G3 X93.110 Y120.520 I0.251 J22.875 E1.05719 ; skirt
G3 X84.950 Y84.420 I6.742 J-20.598 E1.05719 ; skirt
G1 F1800.000 E0.05719 ; retract
G92 E0 ; reset extrusion distance
G1 X92.357 Y92.357 F7800.000 ; move to first perimeter point
G1 F1800.000 E1.00000 ; compensate retraction
G1 X107.643 Y92.357 F540.000 E1.49731 ; perimeter
G1 X107.643 Y107.643 E1.99463 ; perimeter
G1 X92.357 Y107.643 E2.49194 ; perimeter
G1 X92.357 Y92.456 E2.98605 ; perimeter
G1 X93.014 Y93.014 F7800.000 ; move to first perimeter point
G1 X106.986 Y93.014 F540.000 E3.44061 ; perimeter
G1 X106.986 Y106.986 E3.89516 ; perimeter
G1 X93.014 Y106.986 E4.34972 ; perimeter
G1 X93.014 Y93.113 E4.80107 ; perimeter
G1 X93.671 Y93.671 F7800.000 ; move to first perimeter point
G1 X106.329 Y93.671 F378.000 E5.21287 ; perimeter
G1 X106.329 Y106.329 E5.62467 ; perimeter
G1 X93.671 Y106.329 E6.03647 ; perimeter
G1 X93.671 Y93.770 E6.44507 ; perimeter
G1 X94.241 Y94.000 F7800.000 ; move inwards before travel
G1 X90.857 Y90.264 ; move to first perimeter point
G3 X100.000 Y86.644 I9.143 J9.736 F540.000 E6.44507 ; perimeter
G3 X90.787 Y90.333 I-0.002 J13.424 E6.44507 ; perimeter
G1 X90.407 Y89.784 F7800.000 ; move to first perimeter point
G3 X100.000 Y85.986 I9.593 J10.215 F540.000 E6.44507 ; perimeter
G3 X90.337 Y89.854 I-0.002 J14.081 E6.44507 ; perimeter
G1 X89.957 Y89.305 F7800.000 ; move to first perimeter point
G3 X100.000 Y85.329 I10.043 J10.694 F378.000 E6.44507 ; perimeter
G3 X89.887 Y89.375 I-0.002 J14.739 E6.44507 ; perimeter
G1 X90.584 Y89.502 F7800.000 ; move inwards before travel
G1 X104.118 Y87.800 ; move to first fill point
G1 X112.200 Y95.882 F1080.000 E6.81822 ; fill
G1 X111.538 Y94.287 F7800.000 ; move to first fill point
G1 X105.713 Y88.462 F1080.000 E7.08716 ; fill
G1 X108.621 Y90.438 F7800.000 ; move to first fill point
G1 X109.562 Y91.379 F1080.000 E7.13063 ; fill
G1 X108.119 Y92.734 F7800.000 ; move to first fill point
G1 X112.560 Y97.174 F1080.000 E7.33566 ; fill
G1 X112.767 Y98.314 E7.37348 ; fill
G1 X108.119 Y93.666 E7.58809 ; fill
G1 X108.119 Y94.598 E7.61853 ; fill
G1 X112.859 Y99.339 E7.83738 ; fill
G1 X112.871 Y100.283 E7.86822 ; fill
G1 X108.119 Y95.531 E8.08762 ; fill
G1 X108.119 Y96.463 E8.11807 ; fill
G1 X112.821 Y101.165 E8.33515 ; fill
G1 X112.718 Y101.995 E8.36245 ; fill
G1 X108.119 Y97.396 E8.57479 ; fill
G1 X108.119 Y98.328 E8.60523 ; fill
G1 X112.570 Y102.779 E8.81074 ; fill
G1 X112.382 Y103.524 E8.83581 ; fill
G1 X108.119 Y99.261 E9.03264 ; fill
G1 X108.119 Y100.193 E9.06308 ; fill
G1 X112.159 Y104.233 E9.24959 ; fill
G1 X111.903 Y104.909 E9.27321 ; fill
G1 X108.119 Y101.126 E9.44791 ; fill
G1 X108.119 Y102.058 E9.47835 ; fill
G1 X111.617 Y105.556 E9.63987 ; fill
G1 X111.303 Y106.174 E9.66250 ; fill
G1 X108.119 Y102.990 E9.80949 ; fill
G1 X108.119 Y103.923 E9.83993 ; fill
G1 X110.958 Y106.762 E9.97100 ; fill
G1 X110.588 Y107.324 E9.99298 ; fill
G1 X108.119 Y104.855 E10.10696 ; fill
G1 X108.119 Y105.788 E10.13740 ; fill
G1 X110.194 Y107.863 E10.23319 ; fill
G1 X109.776 Y108.378 E10.25484 ; fill
G1 X108.119 Y106.720 E10.33136 ; fill
G1 X108.119 Y107.653 E10.36180 ; fill
G1 X109.336 Y108.870 E10.41800 ; fill
G1 X108.870 Y109.336 E10.43953 ; fill
G1 X107.653 Y108.119 E10.49572 ; fill
G1 X106.720 Y108.119 E10.52616 ; fill
G1 X108.378 Y109.776 E10.60269 ; fill
G1 X107.863 Y110.194 E10.62433 ; fill
G1 X105.788 Y108.119 E10.72012 ; fill
G1 X104.855 Y108.119 E10.75056 ; fill
G1 X107.324 Y110.588 E10.86454 ; fill
G1 X106.762 Y110.958 E10.88652 ; fill
G1 X103.923 Y108.119 E11.01758 ; fill
G1 X102.991 Y108.119 E11.04803 ; fill
G1 X106.174 Y111.303 E11.19501 ; fill
G1 X105.556 Y111.617 E11.21765 ; fill
G1 X102.058 Y108.119 E11.37916 ; fill
G1 X101.126 Y108.119 E11.40960 ; fill
G1 X104.909 Y111.903 E11.58430 ; fill
G1 X104.233 Y112.159 E11.60792 ; fill
G1 X100.193 Y108.119 E11.79443 ; fill
G1 X99.261 Y108.119 E11.82487 ; fill
G1 X103.524 Y112.382 E12.02170 ; fill
G1 X102.779 Y112.570 E12.04677 ; fill
G1 X98.328 Y108.119 E12.25228 ; fill
G1 X97.396 Y108.119 E12.28272 ; fill
G1 X101.995 Y112.718 E12.49506 ; fill
G1 X101.165 Y112.821 E12.52236 ; fill
G1 X96.463 Y108.119 E12.73944 ; fill
G1 X95.531 Y108.119 E12.76989 ; fill
G1 X100.283 Y112.871 E12.98929 ; fill
G1 X99.339 Y112.859 E13.02013 ; fill
G1 X94.598 Y108.119 E13.23898 ; fill
G1 X93.666 Y108.119 E13.26942 ; fill
G1 X98.314 Y112.767 E13.48403 ; fill
G1 X97.174 Y112.560 E13.52185 ; fill
G1 X92.734 Y108.119 E13.72688 ; fill
G1 X91.881 Y107.266 F7800.000 ; move to first fill point
G1 X87.440 Y102.826 F1080.000 E13.93191 ; fill
G1 X87.233 Y101.686 E13.96973 ; fill
G1 X91.881 Y106.334 E14.18434 ; fill
G1 X91.881 Y105.402 E14.21478 ; fill
G1 X87.141 Y100.661 E14.43364 ; fill
G1 X87.129 Y99.717 E14.46447 ; fill
G1 X91.881 Y104.469 E14.68388 ; fill
G1 X91.881 Y103.537 E14.71432 ; fill
G1 X87.179 Y98.835 E14.93141 ; fill
G1 X87.282 Y98.005 E14.95870 ; fill
G1 X91.881 Y102.604 E15.17104 ; fill
G1 X91.881 Y101.672 E15.20149 ; fill
G1 X87.430 Y97.221 E15.40699 ; fill
G1 X87.618 Y96.476 E15.43206 ; fill
G1 X91.881 Y100.739 E15.62889 ; fill
G1 X91.881 Y99.807 E15.65933 ; fill
G1 X87.841 Y95.767 E15.84584 ; fill
G1 X88.097 Y95.091 E15.86946 ; fill
G1 X91.881 Y98.874 E16.04416 ; fill
G1 X91.881 Y97.942 E16.07460 ; fill
G1 X88.383 Y94.444 E16.23612 ; fill
G1 X88.697 Y93.826 E16.25875 ; fill
G1 X91.881 Y97.009 E16.40574 ; fill
G1 X91.881 Y96.077 E16.43618 ; fill
G1 X89.042 Y93.238 E16.56724 ; fill
G1 X89.412 Y92.676 E16.58922 ; fill
G1 X91.881 Y95.145 E16.70320 ; fill
G1 X91.881 Y94.212 E16.73365 ; fill
G1 X89.806 Y92.137 E16.82944 ; fill
G1 X90.224 Y91.622 E16.85108 ; fill
G1 X91.881 Y93.280 E16.92760 ; fill
G1 X91.881 Y92.347 E16.95804 ; fill
G1 X90.664 Y91.130 E17.01424 ; fill
G1 X91.130 Y90.664 E17.03577 ; fill
G1 X92.347 Y91.881 E17.09196 ; fill
G1 X93.280 Y91.881 E17.12241 ; fill
G1 X91.622 Y90.224 E17.19893 ; fill
G1 X92.137 Y89.806 E17.22057 ; fill
G1 X94.212 Y91.881 E17.31636 ; fill
G1 X95.145 Y91.881 E17.34681 ; fill
G1 X92.676 Y89.412 E17.46079 ; fill
G1 X93.238 Y89.042 E17.48277 ; fill
G1 X96.077 Y91.881 E17.61383 ; fill
G1 X97.010 Y91.881 E17.64427 ; fill
G1 X93.826 Y88.697 E17.79126 ; fill
G1 X94.444 Y88.383 E17.81389 ; fill
G1 X97.942 Y91.881 E17.97541 ; fill
G1 X98.874 Y91.881 E18.00586 ; fill
G1 X95.091 Y88.097 E18.18056 ; fill
G1 X95.767 Y87.841 E18.20417 ; fill
G1 X99.807 Y91.881 E18.39068 ; fill
G1 X100.739 Y91.881 E18.42113 ; fill
G1 X96.476 Y87.618 E18.61796 ; fill
G1 X97.221 Y87.430 E18.64303 ; fill
G1 X101.672 Y91.881 E18.84853 ; fill
G1 X102.604 Y91.881 E18.87898 ; fill
G1 X98.005 Y87.282 E19.09132 ; fill
G1 X98.835 Y87.179 E19.11861 ; fill
G1 X103.537 Y91.881 E19.33570 ; fill
G1 X104.469 Y91.881 E19.36614 ; fill
G1 X99.717 Y87.129 E19.58555 ; fill
G1 X100.661 Y87.141 E19.61638 ; fill
G1 X105.402 Y91.881 E19.83524 ; fill
G1 X106.334 Y91.881 E19.86568 ; fill
G1 X101.686 Y87.233 E20.08029 ; fill
G1 X102.826 Y87.440 E20.11811 ; fill
G1 X107.266 Y91.881 E20.32314 ; fill
G1 F1800.000 E19.32314 ; retract
G92 E0 ; reset extrusion distance
G1 X87.800 Y104.118 F7800.000 ; move to first fill point
G1 F1800.000 E1.00000 ; compensate retraction
G1 X95.882 Y112.200 F1080.000 E1.37315 ; fill
G1 X94.287 Y111.538 F7800.000 ; move to first fill point
G1 X88.462 Y105.713 F1080.000 E1.64210 ; fill
G1 X90.437 Y108.620 F7800.000 ; move to first fill point
G1 X91.380 Y109.563 F1080.000 E1.68564 ; fill
M106 S255 ; enable fan
G1 F1800.000 E0.68564 ; retract
G92 E0 ; reset extrusion distance
G1 Z0.750 F7800.000 ; move to next layer (1)
G1 X92.750 Y107.250 ; move to first perimeter point
G1 F1800.000 E1.00000 ; compensate retraction
G1 X92.750 Y92.750 F1674.940 E1.41027 ; perimeter
G1 X107.250 Y92.750 E1.82053 ; perimeter
G1 X107.250 Y107.250 E2.23080 ; perimeter
G1 X92.825 Y107.250 E2.63894 ; perimeter
G1 X93.250 Y106.750 F7800.000 ; move to first perimeter point
G1 X93.250 Y93.250 F1674.940 E3.02091 ; perimeter
G1 X106.750 Y93.250 E3.40289 ; perimeter
G1 X106.750 Y106.750 E3.78486 ; perimeter
G1 X93.325 Y106.750 E4.16471 ; perimeter
G1 X93.750 Y106.250 F7800.000 ; move to first perimeter point
G1 X93.750 Y93.750 F1172.458 E4.51839 ; perimeter
G1 X106.250 Y93.750 E4.87206 ; perimeter
G1 X106.250 Y106.250 E5.22574 ; perimeter
G1 X93.825 Y106.250 E5.57730 ; perimeter
G1 X94.000 Y105.817 F7800.000 ; move inwards before travel
G1 X89.977 Y109.412 ; move to first perimeter point
G3 X100.000 Y86.251 I10.023 J-9.413 F1800.000 E5.57730 ; perimeter
G3 X90.030 Y109.465 I-0.002 J13.804 E5.57730 ; perimeter
G1 X89.600 Y109.740 F7800.000 ; move to first perimeter point
G3 X100.000 Y85.750 I10.400 J-9.753 F1800.000 E5.57730 ; perimeter
G3 X89.652 Y109.794 I-0.001 J14.290 E5.57730 ; perimeter
G1 X89.224 Y110.070 F7800.000 ; move to first perimeter point
G3 X100.000 Y85.250 I10.775 J-10.094 F1260.000 E5.57730 ; perimeter
G3 X89.276 Y110.125 I-0.001 J14.779 E5.57730 ; perimeter
G1 X89.374 Y109.593 F7800.000 ; move inwards before travel
G1 X100.923 Y113.348 ; move to first fill point
G1 X106.654 Y107.617 F3349.879 E5.81661 ; fill
G1 X105.916 Y107.617 E5.83840 ; fill
G1 X100.156 Y113.378 E6.07893 ; fill
G1 X99.431 Y113.365 E6.10033 ; fill
G1 X105.178 Y107.617 E6.34032 ; fill
G1 X104.441 Y107.617 E6.36211 ; fill
G1 X98.741 Y113.316 E6.60009 ; fill
G1 X98.081 Y113.239 E6.61971 ; fill
G1 X103.703 Y107.617 E6.85444 ; fill
G1 X102.965 Y107.617 E6.87622 ; fill
G1 X97.447 Y113.135 E7.10664 ; fill
G1 X96.844 Y113.000 E7.12488 ; fill
G1 X102.227 Y107.617 E7.34966 ; fill
G1 X101.489 Y107.617 E7.37145 ; fill
G1 X96.263 Y112.843 E7.58966 ; fill
G1 X95.700 Y112.668 E7.60707 ; fill
G1 X100.751 Y107.617 E7.81798 ; fill
G1 X100.013 Y107.617 E7.83976 ; fill
G1 X95.157 Y112.473 E8.04252 ; fill
G1 X94.638 Y112.254 E8.05915 ; fill
G1 X99.276 Y107.617 E8.25279 ; fill
G1 X98.538 Y107.617 E8.27457 ; fill
G1 X94.132 Y112.022 E8.45852 ; fill
G1 X93.644 Y111.773 E8.47471 ; fill
G1 X97.800 Y107.617 E8.64826 ; fill
G1 X97.062 Y107.617 E8.67004 ; fill
G1 X93.175 Y111.504 E8.83234 ; fill
G1 X92.718 Y111.223 E8.84818 ; fill
G1 X96.324 Y107.617 E8.99876 ; fill
G1 X95.586 Y107.617 E9.02055 ; fill
G1 X92.278 Y110.925 E9.15867 ; fill
G1 X91.855 Y110.610 E9.17424 ; fill
G1 X94.849 Y107.617 E9.29923 ; fill
G1 X94.111 Y107.617 E9.32101 ; fill
G1 X91.441 Y110.286 E9.43247 ; fill
G1 X91.049 Y109.940 E9.44790 ; fill
G1 X93.373 Y107.617 E9.54493 ; fill
G1 X92.635 Y107.617 E9.56671 ; fill
G1 X90.668 Y109.584 E9.64885 ; fill
G1 X90.299 Y109.215 E9.66425 ; fill
G1 X92.383 Y107.131 E9.75128 ; fill
G1 X92.383 Y106.393 E9.77307 ; fill
G1 X89.950 Y108.826 E9.87467 ; fill
G1 X89.610 Y108.428 E9.89013 ; fill
G1 X92.383 Y105.655 E10.00593 ; fill
G1 X92.383 Y104.917 E10.02771 ; fill
G1 X89.287 Y108.013 E10.15698 ; fill
G1 X88.980 Y107.582 E10.17260 ; fill
G1 X92.383 Y104.179 E10.31467 ; fill
G1 X92.383 Y103.441 E10.33646 ; fill
G1 X88.683 Y107.141 E10.49094 ; fill
G1 X88.409 Y106.678 E10.50684 ; fill
G1 X92.383 Y102.704 E10.67277 ; fill
G1 X92.383 Y101.966 E10.69455 ; fill
G1 X88.148 Y106.201 E10.87140 ; fill
G1 X87.899 Y105.712 E10.88760 ; fill
G1 X92.383 Y101.228 E11.07485 ; fill
G1 X92.383 Y100.490 E11.09663 ; fill
G1 X87.675 Y105.198 E11.29322 ; fill
G1 X87.465 Y104.670 E11.30999 ; fill
G1 X92.383 Y99.752 E11.51534 ; fill
G1 X92.383 Y99.014 E11.53712 ; fill
G1 X87.270 Y104.127 E11.75061 ; fill
G1 X87.104 Y103.556 E11.76819 ; fill
G1 X92.383 Y98.276 E11.98861 ; fill
G1 X92.383 Y97.539 E12.01039 ; fill
G1 X86.957 Y102.965 E12.23696 ; fill
G1 X86.830 Y102.354 E12.25539 ; fill
G1 X92.383 Y96.801 E12.48725 ; fill
G1 X92.383 Y96.063 E12.50903 ; fill
G1 X86.729 Y101.717 E12.74510 ; fill
G1 X86.663 Y101.045 E12.76503 ; fill
G1 X92.383 Y95.325 E13.00386 ; fill
G1 X92.383 Y94.587 E13.02564 ; fill
G1 X86.628 Y100.342 E13.26593 ; fill
G1 X86.630 Y99.603 E13.28777 ; fill
G1 X92.383 Y93.849 E13.52798 ; fill
G1 X92.383 Y93.112 E13.54976 ; fill
G1 X86.676 Y98.818 E13.78805 ; fill
G1 X86.778 Y97.979 E13.81301 ; fill
G1 X97.979 Y86.778 E14.28073 ; fill
G1 X98.818 Y86.676 E14.30568 ; fill
G1 X93.112 Y92.383 E14.54397 ; fill
G1 X93.849 Y92.383 E14.56575 ; fill
G1 X99.603 Y86.630 E14.80597 ; fill
G1 X100.342 Y86.628 E14.82780 ; fill
G1 X94.587 Y92.383 E15.06809 ; fill
G1 X95.325 Y92.383 E15.08987 ; fill
G1 X101.045 Y86.663 E15.32870 ; fill
G1 X101.717 Y86.729 E15.34863 ; fill
G1 X96.063 Y92.383 E15.58470 ; fill
G1 X96.801 Y92.383 E15.60648 ; fill
G1 X102.354 Y86.830 E15.83834 ; fill
G1 X102.965 Y86.957 E15.85677 ; fill
G1 X97.539 Y92.383 E16.08334 ; fill
G1 X98.276 Y92.383 E16.10512 ; fill
G1 X103.556 Y87.104 E16.32554 ; fill
G1 X104.127 Y87.270 E16.34312 ; fill
G1 X99.014 Y92.383 E16.55661 ; fill
G1 X99.752 Y92.383 E16.57839 ; fill
G1 X104.670 Y87.465 E16.78374 ; fill
G1 X105.198 Y87.675 E16.80051 ; fill
G1 X100.490 Y92.383 E16.99710 ; fill
G1 X101.228 Y92.383 E17.01888 ; fill
G1 X105.712 Y87.899 E17.20613 ; fill
G1 X106.201 Y88.148 E17.22233 ; fill
G1 X101.966 Y92.383 E17.39918 ; fill
G1 X102.704 Y92.383 E17.42096 ; fill
G1 X106.678 Y88.409 E17.58689 ; fill
G1 X107.141 Y88.683 E17.60279 ; fill
G1 X103.441 Y92.383 E17.75727 ; fill
G1 X104.179 Y92.383 E17.77906 ; fill
G1 X107.582 Y88.980 E17.92114 ; fill
G1 X108.013 Y89.287 E17.93676 ; fill
G1 X104.917 Y92.383 E18.06602 ; fill
G1 X105.655 Y92.383 E18.08780 ; fill
G1 X108.428 Y89.610 E18.20361 ; fill
G1 X108.826 Y89.950 E18.21906 ; fill
G1 X106.393 Y92.383 E18.32066 ; fill
G1 X107.131 Y92.383 E18.34245 ; fill
G1 X109.215 Y90.299 E18.42948 ; fill
G1 X109.584 Y90.668 E18.44488 ; fill
G1 X107.617 Y92.635 E18.52702 ; fill
G1 X107.617 Y93.373 E18.54880 ; fill
G1 X109.940 Y91.049 E18.64583 ; fill
G1 X110.286 Y91.441 E18.66126 ; fill
G1 X107.617 Y94.111 E18.77272 ; fill
G1 X107.617 Y94.849 E18.79451 ; fill
G1 X110.610 Y91.855 E18.91949 ; fill
G1 X110.925 Y92.278 E18.93506 ; fill
G1 X107.617 Y95.586 E19.07319 ; fill
G1 X107.617 Y96.324 E19.09497 ; fill
G1 X111.223 Y92.718 E19.24555 ; fill
G1 X111.504 Y93.175 E19.26140 ; fill
G1 X107.617 Y97.062 E19.42369 ; fill
G1 X107.617 Y97.800 E19.44547 ; fill
G1 X111.773 Y93.644 E19.61902 ; fill
G1 X112.022 Y94.132 E19.63522 ; fill
G1 X107.617 Y98.538 E19.81916 ; fill
G1 X107.617 Y99.276 E19.84095 ; fill
G1 X112.254 Y94.638 E20.03458 ; fill
G1 X112.473 Y95.157 E20.05121 ; fill
G1 X107.617 Y100.013 E20.25397 ; fill
G1 X107.617 Y100.751 E20.27575 ; fill
G1 X112.668 Y95.700 E20.48666 ; fill
G1 X112.843 Y96.263 E20.50407 ; fill
G1 X107.617 Y101.489 E20.72229 ; fill
G1 X107.617 Y102.227 E20.74407 ; fill
G1 X113.000 Y96.844 E20.96885 ; fill
G1 X113.135 Y97.447 E20.98710 ; fill
G1 X107.617 Y102.965 E21.21751 ; fill
G1 X107.617 Y103.703 E21.23929 ; fill
G1 X113.239 Y98.081 E21.47402 ; fill
G1 X113.316 Y98.741 E21.49364 ; fill
G1 X107.617 Y104.441 E21.73162 ; fill
G1 X107.617 Y105.178 E21.75341 ; fill
G1 X113.365 Y99.431 E21.99340 ; fill
G1 X113.378 Y100.156 E22.01480 ; fill
G1 X107.617 Y105.916 E22.25534 ; fill
G1 X107.617 Y106.654 E22.27712 ; fill
G1 X113.348 Y100.923 E22.51643 ; fill
