; generated by Slic3r 0.9.10-dev on 2013-07-29 at 09:02:40

; layer_height = 0.4
; perimeters = 3
; top_solid_layers = 3
; bottom_solid_layers = 3
; fill_density = 0.4
; perimeter_speed = 30
; infill_speed = 60
; travel_speed = 130
; nozzle_diameter = 0.5
; filament_diameter = 3
; extrusion_multiplier = 1
; perimeters extrusion width = 0.53mm
; infill extrusion width = 0.53mm
; solid infill extrusion width = 0.53mm
; top infill extrusion width = 0.53mm
; first layer extrusion width = 0.70mm

G21 ; set units to millimeters
M107 ; disable fan
M104 S200 ; set temperature
G28 ; home all axes
G1 Z5 F5000 ; lift nozzle

M109 S200 ; wait for temperature to be reached
G90 ; use absolute coordinates
G92 E0 ; reset extrusion distance
M82 ; use absolute distances for extrusion
G1 F1800.000 E-1.00000 ; retract
G92 E0 ; reset extrusion distance
G1 Z0.350 F7800.000 ; move to next layer (0)
G1 X78.170 Y77.060 ; move to first skirt point
G1 F1800.000 E1.00000 ; compensate retraction
G3 X99.990 Y68.340 I21.735 J22.917 F540.000 E1.00000 ; skirt
G1 X99.990 Y68.340 F7800.000 ; move to first skirt point
G3 X131.660 Y99.990 I0.092 J31.707 F540.000 E1.00000 ; skirt
G1 X131.660 Y99.990 F7800.000 ; move to first skirt point
G1 X131.660 Y125.000 F540.000 E1.81371 ; skirt
G1 X131.660 Y125.000 F7800.000 ; move to first skirt point
G3 X125.000 Y131.660 I-6.671 J-0.011 F540.000 E1.81371 ; skirt
G1 X125.000 Y131.660 F7800.000 ; move to first skirt point
G1 X99.990 Y131.660 F540.000 E2.62741 ; skirt
G1 X99.990 Y131.660 F7800.000 ; move to first skirt point
G3 X78.100 Y77.130 I0.056 J-31.544 F540.000 E2.62742 ; skirt
G1 F1800.000 E1.62742 ; retract
G92 E0 ; reset extrusion distance
G1 X88.607 Y87.867 F7800.000 ; move to first perimeter point
G1 F1800.000 E1.00000 ; compensate retraction
G3 X100.000 Y83.356 I11.393 J12.132 F540.000 E1.00000 ; perimeter
G1 X100.000 Y83.356 F7800.000 ; move to first perimeter point
G3 X88.537 Y87.937 I-0.002 J16.711 F540.000 E1.00000 ; perimeter
G1 X89.057 Y88.347 F7800.000 ; move to first perimeter point
G3 X100.000 Y84.014 I10.943 J11.653 F540.000 E1.00000 ; perimeter
G1 X100.000 Y84.014 F7800.000 ; move to first perimeter point
G3 X88.987 Y88.416 I-0.002 J16.054 F540.000 E1.00001 ; perimeter
G1 X89.507 Y88.826 F7800.000 ; move to first perimeter point
G3 X100.000 Y84.671 I10.493 J11.173 F540.000 E1.00001 ; perimeter
G1 X100.000 Y84.671 F7800.000 ; move to first perimeter point
G3 X89.437 Y88.896 I-0.002 J15.396 F378.000 E1.00001 ; perimeter
G1 X90.134 Y89.022 F7800.000 ; move inwards before travel
G1 F1800.000 E0.00001 ; retract
G92 E0 ; reset extrusion distance
G1 X84.011 Y82.974 F7800.000 ; move to first perimeter point
G1 F1800.000 E1.00000 ; compensate retraction
G3 X100.000 Y76.644 I15.988 J17.026 F540.000 E1.00000 ; perimeter
G1 X100.000 Y76.644 F7800.000 ; move to first perimeter point
G3 X123.357 Y100.026 I0.000 J23.369 F540.000 E1.00000 ; perimeter
G1 X123.357 Y100.026 F7800.000 ; move to first perimeter point
G1 X123.357 Y123.357 F540.000 E1.75910 ; perimeter
G1 X100.026 Y123.357 E2.51819 ; perimeter
G1 X100.026 Y123.357 F7800.000 ; move to first perimeter point
G3 X83.942 Y83.044 I-0.016 J-23.278 F540.000 E2.51819 ; perimeter
G1 X83.561 Y82.495 F7800.000 ; move to first perimeter point
G3 X100.000 Y75.986 I16.438 J17.505 F540.000 E2.51819 ; perimeter
G1 X100.000 Y75.986 F7800.000 ; move to first perimeter point
G3 X124.014 Y100.016 I0.000 J24.021 F540.000 E2.51819 ; perimeter
G1 X124.014 Y100.016 F7800.000 ; move to first perimeter point
G1 X124.014 Y124.014 F540.000 E3.29900 ; perimeter
G1 X100.016 Y124.014 E4.07981 ; perimeter
G1 X100.016 Y124.014 F7800.000 ; move to first perimeter point
G3 X83.492 Y82.564 I-0.011 J-23.940 F540.000 E4.07981 ; perimeter
G1 X83.111 Y82.015 F7800.000 ; move to first perimeter point
G3 X100.000 Y75.329 I16.888 J17.985 F540.000 E4.07981 ; perimeter
G1 X100.000 Y75.329 F7800.000 ; move to first perimeter point
G3 X124.671 Y100.005 I-0.006 J24.674 F540.000 E4.07981 ; perimeter
G1 X124.671 Y100.005 F7800.000 ; move to first perimeter point
G1 X124.671 Y124.671 F378.000 E4.88233 ; perimeter
G1 X100.005 Y124.671 E5.68486 ; perimeter
G1 X100.005 Y124.671 F7800.000 ; move to first perimeter point
G3 X83.042 Y82.085 I-0.005 J-24.602 F378.000 E5.68486 ; perimeter
G1 X83.738 Y82.212 F7800.000 ; move inwards before travel
G1 X108.273 Y85.012 ; move to first fill point
G1 X100.393 Y77.132 F1080.000 E6.04788 ; fill
G1 X99.467 Y77.137 E6.07805 ; fill
G1 X106.496 Y84.166 E6.40188 ; fill
G1 X105.046 Y83.647 E6.45202 ; fill
G1 X98.564 Y77.165 E6.75064 ; fill
G1 X97.714 Y77.245 E6.77846 ; fill
G1 X103.780 Y83.311 E7.05790 ; fill
G1 X102.630 Y83.092 E7.09603 ; fill
G1 X96.879 Y77.341 E7.36099 ; fill
G1 X96.076 Y77.468 E7.38748 ; fill
G1 X101.571 Y82.963 E7.64064 ; fill
G1 X100.576 Y82.898 E7.67313 ; fill
G1 X95.296 Y77.618 E7.91637 ; fill
G1 X94.536 Y77.788 E7.94175 ; fill
G1 X99.639 Y82.891 E8.17684 ; fill
G1 X98.747 Y82.931 E8.20590 ; fill
G1 X93.803 Y77.986 E8.43368 ; fill
G1 X93.082 Y78.196 E8.45814 ; fill
G1 X97.897 Y83.011 E8.67998 ; fill
G1 X97.092 Y83.136 E8.70653 ; fill
G1 X92.390 Y78.434 E8.92313 ; fill
G1 X91.706 Y78.680 E8.94682 ; fill
G1 X96.316 Y83.290 E9.15917 ; fill
G1 X95.565 Y83.469 E9.18431 ; fill
G1 X91.050 Y78.955 E9.39230 ; fill
G1 X90.401 Y79.236 E9.41535 ; fill
G1 X94.844 Y83.679 E9.62004 ; fill
G1 X94.153 Y83.918 E9.64386 ; fill
G1 X89.777 Y79.543 E9.84545 ; fill
G1 X89.161 Y79.857 E9.86798 ; fill
G1 X93.480 Y84.176 E10.06698 ; fill
G1 X92.831 Y84.457 E10.09003 ; fill
G1 X88.567 Y80.193 E10.28648 ; fill
G1 X87.982 Y80.539 E10.30861 ; fill
G1 X92.209 Y84.765 E10.50331 ; fill
G1 X91.600 Y85.087 E10.52573 ; fill
G1 X87.415 Y80.903 E10.71853 ; fill
G1 X86.862 Y81.279 E10.74035 ; fill
G1 X91.016 Y85.433 E10.93173 ; fill
G1 X90.452 Y85.800 E10.95364 ; fill
G1 X86.321 Y81.669 E11.14395 ; fill
G1 X85.797 Y82.075 E11.16555 ; fill
G1 X89.900 Y86.178 E11.35459 ; fill
G1 X89.378 Y86.587 E11.37618 ; fill
G1 X85.281 Y82.490 E11.56494 ; fill
G1 X84.786 Y82.926 E11.58641 ; fill
G1 X88.865 Y87.004 E11.77433 ; fill
G1 X88.371 Y87.440 E11.79580 ; fill
G1 X84.295 Y83.364 E11.98359 ; fill
G1 X83.829 Y83.829 E12.00502 ; fill
G1 X87.900 Y87.900 E12.19256 ; fill
G1 X87.440 Y88.371 E12.21400 ; fill
G1 X83.364 Y84.295 E12.40179 ; fill
G1 X82.926 Y84.786 E12.42325 ; fill
G1 X87.005 Y88.865 E12.61116 ; fill
G1 X86.585 Y89.376 E12.63270 ; fill
G1 X82.490 Y85.281 E12.82136 ; fill
G1 X82.075 Y85.797 E12.84292 ; fill
G1 X86.178 Y89.900 E13.03195 ; fill
G1 X85.800 Y90.452 E13.05375 ; fill
G1 X81.669 Y86.321 E13.24406 ; fill
G1 X81.279 Y86.861 E13.26577 ; fill
G1 X85.433 Y91.016 E13.45716 ; fill
G1 X85.088 Y91.600 E13.47928 ; fill
G1 X80.903 Y87.415 E13.67208 ; fill
G1 X80.539 Y87.982 E13.69401 ; fill
G1 X84.765 Y92.208 E13.88872 ; fill
G1 X84.457 Y92.831 E13.91134 ; fill
G1 X80.193 Y88.567 E14.10779 ; fill
G1 X79.857 Y89.161 E14.13003 ; fill
G1 X84.176 Y93.480 E14.32903 ; fill
G1 X83.920 Y94.154 E14.35252 ; fill
G1 X79.543 Y89.777 E14.55418 ; fill
G1 X79.236 Y90.401 E14.57682 ; fill
G1 X83.679 Y94.844 E14.78151 ; fill
G1 X83.470 Y95.565 E14.80596 ; fill
G1 X78.955 Y91.050 E15.01395 ; fill
G1 X78.680 Y91.706 E15.03711 ; fill
G1 X83.290 Y96.315 E15.24946 ; fill
G1 X83.136 Y97.092 E15.27525 ; fill
G1 X78.434 Y92.390 E15.49185 ; fill
G1 X78.196 Y93.082 E15.51569 ; fill
G1 X83.011 Y97.897 E15.73752 ; fill
G1 X82.931 Y98.747 E15.76534 ; fill
G1 X77.986 Y93.803 E15.99312 ; fill
G1 X77.788 Y94.536 E16.01784 ; fill
G1 X82.891 Y99.639 E16.25293 ; fill
G1 X82.898 Y100.576 E16.28346 ; fill
G1 X77.618 Y95.296 E16.52669 ; fill
G1 X77.468 Y96.076 E16.55256 ; fill
G1 X82.960 Y101.568 E16.80560 ; fill
G1 X83.092 Y102.630 E16.84045 ; fill
G1 X77.341 Y96.879 E17.10540 ; fill
G1 X77.245 Y97.714 E17.13279 ; fill
G1 X83.311 Y103.780 E17.41223 ; fill
G1 X83.647 Y105.046 E17.45491 ; fill
G1 X77.165 Y98.564 E17.75352 ; fill
G1 X77.137 Y99.466 E17.78292 ; fill
G1 X84.166 Y106.496 E18.10675 ; fill
G1 X85.012 Y108.272 E18.17085 ; fill
G1 X77.132 Y100.392 E18.53387 ; fill
G1 X77.162 Y101.353 E18.56517 ; fill
G1 X87.454 Y111.644 E19.03928 ; fill
G1 X88.356 Y112.546 F7800.000 ; move to first fill point
G1 X98.647 Y122.837 F1080.000 E19.51338 ; fill
G1 X97.625 Y122.746 E19.54680 ; fill
G1 X77.254 Y102.375 E20.48529 ; fill
G1 X77.391 Y103.443 E20.52037 ; fill
G1 X96.557 Y122.609 E21.40332 ; fill
G1 X95.430 Y122.412 E21.44060 ; fill
G1 X77.588 Y104.570 E22.26253 ; fill
G1 X77.864 Y105.776 E22.30282 ; fill
G1 X94.224 Y122.136 E23.05652 ; fill
G1 X92.911 Y121.753 E23.10109 ; fill
G1 X78.247 Y107.089 E23.77665 ; fill
G1 X78.785 Y108.558 E23.82763 ; fill
G1 X91.442 Y121.215 E24.41069 ; fill
G1 X89.730 Y120.433 E24.47198 ; fill
G1 X79.567 Y110.270 E24.94020 ; fill
G1 X80.800 Y112.434 E25.02134 ; fill
G1 X87.566 Y119.200 E25.33305 ; fill
G1 X99.608 Y122.868 F7800.000 ; move to first fill point
G1 X91.728 Y114.988 F1080.000 E25.69607 ; fill
G1 X93.504 Y115.834 E25.76017 ; fill
G1 X100.551 Y122.881 E26.08482 ; fill
G1 X101.482 Y122.881 E26.11513 ; fill
G1 X94.954 Y116.353 E26.41587 ; fill
G1 X96.220 Y116.689 E26.45855 ; fill
G1 X102.412 Y122.881 E26.74381 ; fill
G1 X103.343 Y122.881 E26.77412 ; fill
G1 X97.370 Y116.908 E27.04928 ; fill
G1 X98.432 Y117.040 E27.08413 ; fill
G1 X104.273 Y122.881 E27.35324 ; fill
G1 X105.203 Y122.881 E27.38355 ; fill
G1 X99.422 Y117.099 E27.64990 ; fill
G1 X100.361 Y117.109 E27.68051 ; fill
G1 X106.134 Y122.881 E27.94643 ; fill
G1 X107.064 Y122.881 E27.97674 ; fill
G1 X101.253 Y117.069 E28.24448 ; fill
G1 X102.103 Y116.989 E28.27229 ; fill
G1 X107.995 Y122.881 E28.54373 ; fill
G1 X108.925 Y122.881 E28.57404 ; fill
G1 X102.908 Y116.864 E28.85122 ; fill
G1 X103.685 Y116.710 E28.87701 ; fill
G1 X109.855 Y122.881 E29.16129 ; fill
G1 X110.786 Y122.881 E29.19160 ; fill
G1 X104.435 Y116.530 E29.48416 ; fill
G1 X105.156 Y116.321 E29.50862 ; fill
G1 X111.716 Y122.881 E29.81083 ; fill
G1 X112.647 Y122.881 E29.84114 ; fill
G1 X105.847 Y116.082 E30.15439 ; fill
G1 X106.520 Y115.824 E30.17785 ; fill
G1 X113.577 Y122.881 E30.50297 ; fill
G1 X114.507 Y122.881 E30.53328 ; fill
G1 X107.169 Y115.543 E30.87135 ; fill
G1 X107.792 Y115.235 E30.89398 ; fill
G1 X115.438 Y122.881 E31.24623 ; fill
G1 X116.368 Y122.881 E31.27654 ; fill
G1 X108.400 Y114.912 E31.64364 ; fill
G1 X108.984 Y114.567 E31.66577 ; fill
G1 X117.299 Y122.881 E32.04880 ; fill
G1 X118.229 Y122.881 E32.07911 ; fill
G1 X109.548 Y114.200 E32.47903 ; fill
G1 X110.100 Y113.822 E32.50083 ; fill
G1 X119.159 Y122.881 E32.91819 ; fill
G1 X120.090 Y122.881 E32.94850 ; fill
G1 X110.624 Y113.415 E33.38458 ; fill
G1 X111.135 Y112.995 E33.40611 ; fill
G1 X121.020 Y122.881 E33.86153 ; fill
G1 X121.951 Y122.881 E33.89184 ; fill
G1 X111.629 Y112.559 E34.36734 ; fill
G1 X112.100 Y112.100 E34.38877 ; fill
G1 X122.881 Y122.881 E34.88546 ; fill
G1 X122.881 Y121.951 E34.91577 ; fill
G1 X112.560 Y111.629 E35.39126 ; fill
G1 X112.996 Y111.135 E35.41274 ; fill
G1 X122.881 Y121.020 E35.86815 ; fill
G1 X122.881 Y120.090 E35.89846 ; fill
G1 X113.415 Y110.624 E36.33454 ; fill
G1 X113.822 Y110.100 E36.35614 ; fill
G1 X122.881 Y119.159 E36.77350 ; fill
G1 X122.881 Y118.229 E36.80381 ; fill
G1 X114.200 Y109.548 E37.20372 ; fill
G1 X114.567 Y108.984 E37.22563 ; fill
G1 X122.881 Y117.299 E37.60866 ; fill
G1 X122.881 Y116.368 E37.63897 ; fill
G1 X114.912 Y108.400 E38.00607 ; fill
G1 X115.233 Y107.790 E38.02851 ; fill
G1 X122.881 Y115.438 E38.38084 ; fill
G1 X122.881 Y114.507 E38.41115 ; fill
G1 X115.543 Y107.169 E38.74922 ; fill
G1 X115.824 Y106.520 E38.77227 ; fill
G1 X122.881 Y113.577 E39.09739 ; fill
G1 X122.881 Y112.647 E39.12770 ; fill
G1 X116.082 Y105.847 E39.44094 ; fill
G1 X116.321 Y105.156 E39.46476 ; fill
G1 X122.881 Y111.716 E39.76697 ; fill
G1 X122.881 Y110.786 E39.79728 ; fill
G1 X116.530 Y104.435 E40.08984 ; fill
G1 X116.710 Y103.684 E40.11499 ; fill
G1 X122.881 Y109.855 E40.39927 ; fill
G1 X122.881 Y108.925 E40.42958 ; fill
G1 X116.864 Y102.908 E40.70677 ; fill
G1 X116.989 Y102.103 E40.73332 ; fill
G1 X122.881 Y107.994 E41.00476 ; fill
G1 X122.881 Y107.064 E41.03507 ; fill
G1 X117.069 Y101.252 E41.30280 ; fill
G1 X117.107 Y100.360 E41.33190 ; fill
G1 X122.881 Y106.134 E41.59789 ; fill
G1 X122.881 Y105.203 E41.62820 ; fill
G1 X117.099 Y99.422 E41.89455 ; fill
G1 X117.040 Y98.431 E41.92687 ; fill
G1 X122.881 Y104.273 E42.19598 ; fill
G1 X122.881 Y103.342 E42.22628 ; fill
G1 X116.908 Y97.370 E42.50144 ; fill
G1 X116.689 Y96.220 E42.53958 ; fill
G1 X122.881 Y102.412 E42.82484 ; fill
G1 X122.881 Y101.482 E42.85515 ; fill
G1 X116.353 Y94.954 E43.15590 ; fill
G1 X115.834 Y93.504 E43.20604 ; fill
G1 X122.881 Y100.551 E43.53069 ; fill
G1 X122.868 Y99.607 E43.56144 ; fill
G1 X114.988 Y91.727 E43.92446 ; fill
G1 X112.545 Y88.355 F7800.000 ; move to first fill point
G1 X122.837 Y98.647 F1080.000 E44.39861 ; fill
G1 X122.746 Y97.625 E44.43203 ; fill
G1 X102.375 Y77.254 E45.37051 ; fill
G1 X101.353 Y77.162 E45.40393 ; fill
G1 X111.645 Y87.455 E45.87808 ; fill
G1 X112.434 Y80.800 F7800.000 ; move to first fill point
G1 X119.200 Y87.566 F1080.000 E46.18976 ; fill
G1 X120.433 Y89.730 E46.27090 ; fill
G1 X110.270 Y79.567 E46.73910 ; fill
G1 X108.559 Y78.786 E46.80040 ; fill
G1 X121.214 Y91.441 E47.38344 ; fill
G1 X121.753 Y92.911 E47.43442 ; fill
G1 X107.089 Y78.247 E48.10997 ; fill
G1 X105.776 Y77.864 E48.15454 ; fill
G1 X122.136 Y94.224 E48.90823 ; fill
G1 X122.411 Y95.430 E48.94852 ; fill
G1 X104.570 Y77.589 E49.77044 ; fill
G1 X103.443 Y77.392 E49.80772 ; fill
G1 X122.608 Y96.557 E50.69066 ; fill
G1 F1800.000 E49.69066 ; retract
G92 E0 ; reset extrusion distance
G1 Z0.750 F7800.000 ; move to next layer (1)
G1 X116.158 Y97.874 ; move to first perimeter point
G1 F1800.000 E1.00000 ; compensate retraction
G3 X100.000 Y83.700 I-16.157 J2.162 F1800.000 E1.00000 ; perimeter
G1 X100.000 Y83.700 F7800.000 ; move to first perimeter point
G3 X116.146 Y97.797 I0.003 J16.217 F1800.000 E1.00000 ; perimeter
G1 X115.645 Y97.955 F7800.000 ; move to first perimeter point
G3 X100.000 Y84.220 I-15.644 J2.074 F1800.000 E1.00001 ; perimeter
G1 X100.000 Y84.220 F7800.000 ; move to first perimeter point
G3 X115.633 Y97.878 I0.002 J15.706 F1800.000 E1.00001 ; perimeter
G1 X115.132 Y98.037 F7800.000 ; move to first perimeter point
G3 X100.000 Y84.740 I-15.131 J1.987 F1260.000 E1.00001 ; perimeter
G1 X100.000 Y84.740 F7800.000 ; move to first perimeter point
G3 X115.119 Y97.960 I0.002 J15.194 F1800.000 E1.00001 ; perimeter
G1 X114.715 Y98.347 F7800.000 ; move inwards before travel
G1 F1800.000 E0.00001 ; retract
G92 E0 ; reset extrusion distance
G1 X123.509 Y96.999 F7800.000 ; move to first perimeter point
G1 F1800.000 E1.00000 ; compensate retraction
G1 X123.654 Y98.512 F1800.000 E1.04470 ; perimeter
G1 X123.701 Y100.020 E1.08908 ; perimeter
G1 X123.701 Y123.701 E1.78541 ; perimeter
G1 X100.020 Y123.701 E2.48174 ; perimeter
G1 X100.020 Y123.701 F7800.000 ; move to first perimeter point
G3 X100.000 Y76.300 I-0.016 J-23.538 F1800.000 E2.48175 ; perimeter
G1 X100.000 Y76.300 F7800.000 ; move to first perimeter point
G3 X123.496 Y96.922 I0.002 J23.645 F1800.000 E2.48175 ; perimeter
G1 X124.022 Y96.918 F7800.000 ; move to first perimeter point
G1 X124.172 Y98.479 F1800.000 E2.52788 ; perimeter
G1 X124.221 Y100.012 E2.57298 ; perimeter
G1 X124.221 Y124.221 E3.28484 ; perimeter
G1 X100.012 Y124.221 E3.99669 ; perimeter
G1 X100.012 Y124.221 F7800.000 ; move to first perimeter point
G3 X100.000 Y75.780 I-0.010 J-24.123 F1800.000 E3.99669 ; perimeter
G1 X100.000 Y75.780 F7800.000 ; move to first perimeter point
G3 X124.010 Y96.841 I0.002 J24.157 F1800.000 E3.99669 ; perimeter
G1 X124.535 Y96.836 F7800.000 ; move to first perimeter point
G1 X124.691 Y98.447 F1260.000 E4.04427 ; perimeter
G1 X124.740 Y100.004 E4.09009 ; perimeter
G1 X124.740 Y124.740 E4.81746 ; perimeter
G1 X100.004 Y124.740 E5.54484 ; perimeter
G1 X100.004 Y124.740 F7800.000 ; move to first perimeter point
G3 X100.000 Y75.260 I-0.004 J-24.708 F1260.000 E5.54484 ; perimeter
G1 X100.000 Y75.260 F7800.000 ; move to first perimeter point
