; generated by Slic3r 0.9.11-dev on 2013-09-04 at 12:17:46

; layer_height = 0.4
; perimeters = 3
; top_solid_layers = 3
; bottom_solid_layers = 3
; fill_density = 0.4
; perimeter_speed = 30
; infill_speed = 60
; travel_speed = 130
; nozzle_diameter = 0.5
; filament_diameter = 3
; extrusion_multiplier = 1
; perimeters extrusion width = 0.50mm
; infill extrusion width = 0.53mm
; solid infill extrusion width = 0.53mm
; top infill extrusion width = 0.53mm
; first layer extrusion width = 0.70mm

G21 ; set units to millimeters
M107
M104 S200 ; set temperature
G28 ; home all axes
G1 Z5 F5000 ; lift nozzle

M109 S200 ; wait for temperature to be reached
G90 ; use absolute coordinates
G92 E0
M82 ; use absolute distances for extrusion
G1 F1800.000 E-1.00000
G92 E0
G1 Z0.350 F7800.000
G1 X79.979 Y80.662
G1 F1800.000 E1.00000
G3 X85.419 Y76.102 I33.649 J34.700 F540.000 E1.00000
G3 X90.059 Y74.062 I11.611 J20.628 E1.00000
G1 X91.469 Y73.902 E1.04617
G1 X108.469 Y73.832 E1.59927
G1 X109.619 Y73.932 E1.63683
G3 X77.079 Y113.602 I-4.403 J19.311 E1.63683
G3 X74.089 Y107.172 I48.389 J-26.259 E1.63683
G3 X72.869 Y100.182 I44.629 J-11.353 E1.63683
G3 X73.489 Y93.132 I49.049 J0.710 E1.63683
G3 X79.918 Y80.740 I32.557 J8.848 E1.63683
G1 F1800.000 E0.63683
G92 E0
G1 X89.857 Y99.134 F7800.000
G1 F1800.000 E1.00000
G2 X100.000 Y109.183 I10.135 J-0.052 F540.000 E1.00000
G2 X110.143 Y99.134 I0.007 J-10.101 E1.00000
G1 X110.143 Y83.321 E1.51447
G3 X89.857 Y83.152 I-9.574 J16.414 E1.51448
G1 X89.857 Y99.036 E2.03125
G1 X90.514 Y99.091 F7800.000
G2 X100.000 Y108.521 I9.481 J-0.031 F540.000 E2.03125
G2 X109.486 Y99.091 I0.004 J-9.461 E2.03125
G1 X109.486 Y82.058 E2.58542
G3 X90.514 Y82.110 I-10.676 J19.161 E2.58543
G1 X90.514 Y98.992 E3.13470
G1 X91.171 Y99.048 F7800.000
G2 X100.000 Y107.858 I8.827 J-0.010 F378.000 E3.13470
G2 X108.829 Y99.048 I0.001 J-8.820 E3.13470
G1 X108.829 Y80.962 E3.72313
G3 X95.793 Y118.729 I-9.517 J26.861 E3.72313
G1 X95.793 Y118.777 E3.72469
G1 X90.674 Y116.909 E3.90199
G1 X86.363 Y113.886 E4.07329
G1 X83.014 Y109.889 E4.24295
G3 X91.171 Y81.080 I14.631 J-12.291 E4.24295
G1 X91.171 Y98.949 E4.82434
G1 X90.633 Y99.425 F7800.000
G1 X90.500 Y103.651
G1 X82.060 Y95.211 F1080.000 E5.21499
G1 X82.275 Y94.491 E5.23957
G1 X89.839 Y102.055 E5.58968
G1 X89.608 Y100.889 E5.62859
G1 X82.525 Y93.806 E5.95641
G1 X82.775 Y93.121 E5.98027
G1 X89.466 Y99.813 E6.28998
G1 X89.381 Y98.793 E6.32347
G1 X83.025 Y92.436 E6.61767
G1 X83.275 Y91.751 E6.64153
G1 X89.381 Y97.858 E6.92416
G1 X89.381 Y96.923 E6.95475
G1 X83.525 Y91.067 E7.22581
G1 X83.805 Y90.412 E7.24912
G1 X89.381 Y95.988 E7.50721
G1 X89.381 Y95.054 E7.53780
G1 X84.190 Y89.863 E7.77806
G1 X84.575 Y89.313 E7.80002
G1 X89.381 Y94.119 E8.02245
G1 X89.381 Y93.184 E8.05304
G1 X84.961 Y88.764 E8.25763
G1 X85.346 Y88.214 E8.27959
G1 X89.381 Y92.249 E8.46635
G1 X89.381 Y91.315 E8.49694
G1 X85.731 Y87.665 E8.66586
G1 X86.117 Y87.116 E8.68783
G1 X89.381 Y90.380 E8.83891
G1 X89.381 Y89.445 E8.86951
G1 X86.512 Y86.576 E9.00229
G1 X87.021 Y86.150 E9.02401
G1 X89.381 Y88.510 E9.13326
G1 X89.381 Y87.576 E9.16385
G1 X87.529 Y85.724 E9.24956
G1 X88.038 Y85.298 E9.27128
G1 X89.381 Y86.641 E9.33344
G1 X89.381 Y85.706 E9.36404
G1 X88.547 Y84.872 E9.40266
G1 X89.055 Y84.445 E9.42438
G1 X89.381 Y84.771 E9.43946
G1 X82.379 Y103.942 F7800.000
G1 X95.029 Y116.592 F1080.000 E10.02495
G1 X96.352 Y116.981 E10.07010
G1 X82.180 Y102.809 E10.72605
G1 X81.981 Y101.675 E10.76373
G1 X97.378 Y117.071 E11.47635
G1 X98.403 Y117.162 E11.51004
G1 X81.782 Y100.541 E12.27932
G1 X81.681 Y99.506 E12.31336
G1 X99.428 Y117.252 E13.13475
G1 X100.453 Y117.343 E13.16844
G1 X81.757 Y98.647 E14.03377
G1 X81.833 Y97.788 E14.06199
G1 X101.323 Y117.278 E14.96409
G1 X102.118 Y117.139 E14.99051
G1 X81.909 Y96.929 E15.92590
G1 X81.984 Y96.070 E15.95413
G1 X102.914 Y116.999 E16.92281
G1 X103.709 Y116.859 E16.94924
G1 X95.375 Y108.526 E17.33494
G1 X96.971 Y109.187 F7800.000
G1 X104.504 Y116.720 F1080.000 E17.68359
G1 X105.299 Y116.580 E17.71001
G1 X98.137 Y109.418 E18.04149
G1 X99.214 Y109.560 E18.07702
G1 X105.978 Y116.325 E18.39012
G1 X106.616 Y116.028 E18.41315
G1 X100.223 Y109.634 E18.70907
G1 X101.049 Y109.526 E18.73634
G1 X107.254 Y115.731 E19.02355
G1 X107.892 Y115.434 E19.04658
G1 X101.875 Y109.417 E19.32508
G1 X102.701 Y109.308 E19.35235
G1 X108.530 Y115.137 E19.62215
G1 X109.168 Y114.840 E19.64518
G1 X103.372 Y109.045 E19.91343
G1 X104.033 Y108.771 E19.93684
G1 X109.806 Y114.544 E20.20402
G1 X110.324 Y114.127 E20.22578
G1 X104.694 Y108.497 E20.48637
G1 X105.348 Y108.216 E20.50966
G1 X110.833 Y113.701 E20.76353
G1 X111.342 Y113.275 E20.78525
G1 X105.877 Y107.810 E21.03818
G1 X106.406 Y107.404 E21.06000
G1 X111.850 Y112.849 E21.31199
G1 X112.359 Y112.423 E21.33371
G1 X106.935 Y106.999 E21.58476
G1 X107.463 Y106.593 E21.60658
G1 X112.867 Y111.997 E21.85670
G1 X113.376 Y111.571 E21.87842
G1 X107.883 Y106.077 E22.13266
G1 X108.289 Y105.548 E22.15448
G1 X113.798 Y111.058 E22.40950
G1 X114.184 Y110.509 E22.43146
G1 X108.695 Y105.020 E22.68553
G1 X109.100 Y104.491 E22.70735
G1 X114.569 Y109.959 E22.96046
G1 X114.954 Y109.410 E22.98242
G1 X109.411 Y103.866 E23.23902
G1 X109.684 Y103.205 E23.26243
G1 X115.340 Y108.861 E23.52419
G1 X115.725 Y108.311 E23.54616
G1 X109.958 Y102.544 E23.81308
G1 X110.232 Y101.883 E23.83649
G1 X116.110 Y107.762 E24.10857
G1 X116.420 Y107.137 E24.13140
G1 X110.366 Y101.083 E24.41160
G1 X110.475 Y100.257 E24.43887
G1 X116.670 Y106.452 E24.72560
G1 X116.920 Y105.767 E24.74946
G1 X110.584 Y99.431 E25.04273
G1 X110.619 Y98.531 E25.07220
G1 X117.170 Y105.082 E25.37541
G1 X117.420 Y104.397 E25.39927
G1 X110.619 Y97.596 E25.71405
G1 X110.619 Y96.662 E25.74464
G1 X117.670 Y103.712 E26.07098
G1 X117.920 Y103.028 E26.09484
G1 X110.619 Y95.727 E26.43275
G1 X110.619 Y94.792 E26.46334
G1 X117.999 Y102.172 E26.80491
G1 X118.075 Y101.313 E26.83313
G1 X110.619 Y93.857 E27.17821
G1 X110.619 Y92.923 E27.20880
G1 X118.150 Y100.454 E27.55739
G1 X118.226 Y99.595 E27.58561
G1 X110.619 Y91.988 E27.93771
G1 X110.619 Y91.053 E27.96830
G1 X118.302 Y98.736 E28.32390
G1 X118.262 Y97.761 E28.35583
G1 X110.619 Y90.118 E28.70959
G1 X110.619 Y89.184 E28.74018
G1 X118.063 Y96.628 E29.08472
G1 X117.864 Y95.494 E29.12239
G1 X110.619 Y88.249 E29.45772
G1 X110.619 Y87.314 E29.48831
G1 X117.665 Y94.360 E29.81443
G1 X117.308 Y93.068 E29.85829
G1 X110.619 Y86.379 E30.16788
G1 X110.619 Y85.445 E30.19847
G1 X116.494 Y91.320 E30.47040
G1 X115.680 Y89.571 F7800.000
G1 X110.619 Y84.510 F1080.000 E30.70466
G1 F1800.000 E29.70466
G92 E0
G1 X82.871 Y105.369 F7800.000
G1 F1800.000 E1.00000
G1 X93.557 Y116.055 F1080.000 E1.49459
G1 X92.086 Y115.518 F7800.000
G1 X83.685 Y107.118 F1080.000 E1.88339
G1 X84.499 Y108.866 F7800.000
G1 X89.606 Y113.973 F1080.000 E2.11975
M106 S213
G1 F1800.000 E1.11975
G92 E0
G1 Z0.750 F7800.000
G1 X95.700 Y117.762
G1 F1800.000 E1.00000
G1 X91.104 Y116.085 F1800.000 E1.13843
G3 X81.209 Y94.978 I8.853 J-16.997 E1.13844
G3 X90.250 Y82.525 I15.076 J1.265 E1.13844
G1 X90.250 Y99.108 E1.60765
G2 X100.000 Y108.787 I9.744 J-0.040 E1.60765
G2 X109.750 Y99.108 I0.006 J-9.718 E1.60765
G1 X109.750 Y82.566 E2.07570
G3 X118.791 Y103.075 I-9.107 J16.452 E2.07570
G3 X114.075 Y112.118 I-13.124 J-1.093 E2.07570
G3 X95.770 Y117.788 I-12.259 J-10.823 E2.07570
G1 X95.529 Y118.232 F7800.000
G1 X90.870 Y116.532 F1800.000 E2.21600
G3 X90.750 Y81.741 I7.913 J-15.771 E2.21600
G1 X90.750 Y99.076 E2.70647
G2 X100.000 Y108.283 I9.247 J-0.024 E2.70647
G2 X109.250 Y99.076 I0.003 J-9.231 E2.70647
G1 X109.250 Y81.605 E3.20079
G3 X119.290 Y103.119 I-9.101 J17.336 E3.20079
G3 X114.397 Y112.501 I-13.545 J-1.097 E3.20079
G3 X95.599 Y118.257 I-12.569 J-11.141 E3.20079
G1 X95.357 Y118.701 F7800.000
G1 X90.637 Y116.980 F1260.000 E3.34295
G3 X91.250 Y80.956 I8.384 J-16.558 E3.34296
G1 X91.250 Y99.043 E3.85469
G2 X93.934 Y105.309 I7.250 J0.189 E3.85469
G2 X100.000 Y107.779 I6.046 J-6.129 E3.85469
G2 X107.485 Y103.525 I0.014 J-8.644 E3.85469
G2 X108.750 Y99.043 I-5.361 J-4.211 E3.85469
G1 X108.750 Y80.850 E4.36945
G1 X109.363 Y81.073 E4.38791
G3 X95.428 Y118.727 I-3.706 J9.887 E4.38791
G1 X95.271 Y118.209 F7800.000
G1 X105.960 Y116.887
G1 X117.670 Y105.178 F3600.000 E4.87775
G1 X117.245 Y106.341 F7800.000
G1 X107.343 Y116.244 F3600.000 E5.29199
G1 X108.726 Y115.600 F7800.000
G1 X116.821 Y107.505 F3600.000 E5.63062
G1 X115.363 Y109.703 F7800.000
G1 X110.109 Y114.956 F3600.000 E5.85040
G1 X104.438 Y108.060 F7800.000
G1 X95.280 Y117.218 F3600.000 E6.23353
G1 X95.821 Y117.416 E6.25059
G1 X106.664 Y106.574 E6.70415
G1 X107.547 Y105.690 F7800.000
G1 X118.280 Y94.958 F3600.000 E7.15313
G1 X118.390 Y95.586 E7.17201
G1 X96.480 Y117.496 E8.08857
G1 X97.159 Y117.556 E8.10874
G1 X118.500 Y96.215 E9.00150
G1 X118.611 Y96.844 E9.02039
G1 X97.839 Y117.616 E9.88935
G1 X98.518 Y117.676 E9.90952
G1 X118.721 Y97.473 E10.75469
G1 X118.832 Y98.102 E10.77357
G1 X99.197 Y117.736 E11.59493
G1 X99.877 Y117.796 E11.61511
G1 X118.794 Y98.879 E12.40646
G1 X118.722 Y99.690 E12.43053
G1 X100.556 Y117.856 E13.19047
G1 X101.372 Y117.780 E13.21471
G1 X118.650 Y100.501 E13.93753
G1 X118.579 Y101.312 E13.96161
G1 X102.268 Y117.622 E14.64393
G1 X103.165 Y117.465 E14.67086
G1 X118.507 Y102.122 E15.31268
G1 X118.436 Y102.933 E15.33676
G1 X104.062 Y117.307 E15.93807
G1 X104.958 Y117.150 E15.96500
G1 X118.094 Y104.014 E16.51453
G1 X109.033 Y103.465 F7800.000
G1 X118.169 Y94.329 F3600.000 E16.89671
G1 X118.059 Y93.700 E16.91560
G1 X109.556 Y102.203 E17.27129
G1 X109.848 Y101.171 E17.30301
G1 X117.890 Y93.129 E17.63942
G1 X117.655 Y92.625 E17.65588
G1 X109.960 Y100.320 E17.97778
G1 X110.073 Y99.468 E18.00318
G1 X117.421 Y92.120 E18.31057
G1 X117.186 Y91.616 E18.32703
G1 X110.117 Y98.685 E18.62274
G1 X110.117 Y97.946 E18.64461
G1 X116.951 Y91.111 E18.93050
G1 X116.716 Y90.607 E18.94696
G1 X110.117 Y97.206 E19.22304
G1 X110.117 Y96.467 E19.24490
G1 X116.481 Y90.102 E19.51116
G1 X116.247 Y89.598 E19.52762
G1 X110.117 Y95.728 E19.78405
G1 X110.117 Y94.989 E19.80591
G1 X116.012 Y89.094 E20.05252
G1 X115.714 Y88.652 E20.06827
G1 X110.117 Y94.249 E20.30242
G1 X110.117 Y93.510 E20.32429
G1 X115.377 Y88.250 E20.54435
G1 X115.040 Y87.848 E20.55987
G1 X110.117 Y92.771 E20.76582
G1 X110.117 Y92.032 E20.78769
G1 X114.703 Y87.445 E20.97955
G1 X114.366 Y87.043 E20.99507
G1 X110.117 Y91.292 E21.17283
G1 X110.117 Y90.553 E21.19470
G1 X114.029 Y86.641 E21.35836
G1 X113.692 Y86.239 E21.37388
G1 X110.117 Y89.814 E21.52345
G1 X110.117 Y89.075 E21.54531
G1 X113.355 Y85.836 E21.68078
G1 X113.018 Y85.434 E21.69630
G1 X110.117 Y88.335 E21.81767
G1 X110.117 Y87.596 E21.83954
G1 X112.659 Y85.054 E21.94587
G1 X112.224 Y84.749 E21.96157
G1 X110.117 Y86.857 E22.04973
G1 X110.117 Y86.118 E22.07159
G1 X111.790 Y84.445 E22.14157
G1 X110.486 Y83.531 F7800.000
G1 X110.117 Y83.900 F3600.000 E22.15702
G1 X110.117 Y84.639 E22.17889
G1 X110.921 Y83.835 E22.21251
G1 X111.355 Y84.140 E22.22821
G1 X110.117 Y85.378 E22.28002
G1 F1800.000 E21.28002
G92 E0
G1 X87.408 Y85.170 F7800.000
G1 F1800.000 E1.00000
G1 X85.599 Y86.980 F3600.000 E1.07571
G1 X83.863 Y89.455 F7800.000
G1 X89.883 Y83.434 F3600.000 E1.32757
G1 X89.883 Y84.174 E1.34943
G1 X82.990 Y91.067 E1.63780
G1 X82.565 Y92.231 F7800.000
G1 X89.883 Y84.913 F3600.000 E1.94393
G1 X89.883 Y85.652 E1.96580
G1 X82.141 Y93.395 E2.28970
G1 X81.716 Y94.559 F7800.000
G1 X89.883 Y86.391 F3600.000 E2.63135
G1 X89.883 Y87.131 E2.65322
G1 X81.532 Y95.482 E3.00256
G1 X81.461 Y96.292 E3.02664
G1 X89.883 Y87.870 E3.37898
G1 X89.883 Y88.609 E3.40084
G1 X81.389 Y97.103 E3.75617
G1 X81.318 Y97.914 E3.78025
G1 X89.883 Y89.348 E4.13857
G1 X89.883 Y90.088 E4.16044
G1 X81.246 Y98.725 E4.52176
G1 X81.175 Y99.536 E4.54583
G1 X89.883 Y90.827 E4.91014
G1 X89.883 Y91.566 E4.93201
G1 X81.218 Y100.232 E5.29452
G1 X81.328 Y100.861 E5.31340
G1 X89.883 Y92.305 E5.67129
G1 X89.883 Y93.045 E5.69316
G1 X81.438 Y101.489 E6.04643
G1 X81.549 Y102.118 E6.06531
G1 X89.883 Y93.784 E6.41396
G1 X89.883 Y94.523 E6.43583
G1 X81.659 Y102.747 E6.77986
G1 X81.770 Y103.376 E6.79875
G1 X89.883 Y95.262 E7.13816
G1 X89.883 Y96.002 E7.16003
G1 X81.880 Y104.005 E7.49482
G1 X81.990 Y104.634 E7.51371
G1 X89.883 Y96.741 E7.84389
G1 X89.883 Y97.480 E7.86576
G1 X82.215 Y105.149 E8.18655
G1 X82.449 Y105.653 E8.20301
G1 X89.883 Y98.219 E8.51399
G1 X89.883 Y98.959 E8.53586
G1 X82.684 Y106.158 E8.83701
G1 X82.919 Y106.662 E8.85347
G1 X89.949 Y99.632 E9.14756
G1 X90.035 Y100.285 E9.16705
G1 X83.154 Y107.167 E9.45491
G1 X83.389 Y107.671 E9.47137
G1 X90.121 Y100.939 E9.75300
G1 X90.207 Y101.592 E9.77249
G1 X83.623 Y108.176 E10.04791
G1 X83.858 Y108.680 E10.06437
G1 X90.412 Y102.126 E10.33854
G1 X90.629 Y102.649 E10.35528
G1 X84.099 Y109.178 E10.62843
G1 X84.436 Y109.580 E10.64395
G1 X90.845 Y103.171 E10.91205
G1 X91.062 Y103.694 E10.92879
G1 X84.773 Y109.983 E11.19186
G1 X85.110 Y110.385 E11.20738
G1 X91.303 Y104.192 E11.46645
G1 X91.624 Y104.610 E11.48204
G1 X85.447 Y110.787 E11.74044
G1 X85.784 Y111.189 E11.75597
G1 X91.945 Y105.028 E12.01369
G1 X92.266 Y105.447 E12.02929
G1 X86.121 Y111.592 E12.28635
G1 X86.458 Y111.994 E12.30187
G1 X92.587 Y105.865 E12.55825
G1 X92.930 Y106.262 E12.57376
G1 X86.795 Y112.396 E12.83038
G1 X87.132 Y112.798 E12.84590
G1 X93.348 Y106.583 E13.10592
G1 X93.766 Y106.903 E13.12152
G1 X87.535 Y113.135 E13.38219
G1 X87.970 Y113.439 E13.39789
G1 X94.185 Y107.224 E13.65788
G1 X94.603 Y107.545 E13.67347
G1 X88.404 Y113.744 E13.93278
G1 X88.839 Y114.049 E13.94848
G1 X95.043 Y107.845 E14.20802
G1 X95.566 Y108.061 E14.22475
G1 X89.273 Y114.354 E14.48798
G1 X89.708 Y114.658 E14.50368
G1 X96.088 Y108.278 E14.77059
G1 X96.611 Y108.494 E14.78733
G1 X90.142 Y114.963 E15.05793
G1 X90.577 Y115.268 E15.07363
G1 X97.134 Y108.711 E15.34793
G1 X97.726 Y108.858 E15.36598
G1 X91.011 Y115.572 E15.64688
G1 X91.488 Y115.835 E15.66298
G1 X98.379 Y108.944 E15.95126
G1 X99.033 Y109.030 E15.97075
G1 X92.030 Y116.033 E16.26370
G1 X92.571 Y116.230 E16.28075
G1 X99.686 Y109.116 E16.57837
G1 X100.442 Y109.099 E16.60074
G1 X93.113 Y116.428 E16.90733
G1 X93.655 Y116.625 E16.92438
G1 X101.293 Y108.987 E17.24392
G1 X102.145 Y108.875 E17.26932
G1 X94.196 Y116.823 E17.60182
G1 X94.738 Y117.021 E17.61887
G1 X103.176 Y108.582 E17.97187
M106 S210
G1 F1800.000 E16.97187
G92 E0
G1 Z1.150 F7800.000
G1 X102.873 Y108.311
G1 F1800.000 E1.00000
G2 X109.750 Y99.108 I-2.640 J-9.212 F1800.000 E1.00000
G1 X109.750 Y82.566 E1.46804
G3 X118.810 Y102.862 I-9.036 J16.350 E1.46805
G3 X85.628 Y86.300 I-15.322 J-1.179 E1.46805
G3 X90.250 Y82.525 I8.806 J5.966 E1.46805
G1 X90.250 Y99.108 E1.93726
G2 X100.000 Y108.787 I9.744 J-0.040 E1.93726
G1 X102.526 Y108.455 E2.00936
G1 X102.804 Y108.340 E2.01786
G1 X102.682 Y107.849 F7800.000
G2 X109.250 Y99.076 I-2.494 J-8.773 F1800.000 E2.01786
G1 X109.250 Y81.605 E2.51218
G3 X119.308 Y102.906 I-9.030 J17.235 E2.51218
G3 X82.292 Y90.450 I-11.830 J-0.838 E2.51218
G3 X90.750 Y81.741 I13.908 J4.761 E2.51218
G1 X90.750 Y99.076 E3.00266
G2 X100.000 Y108.283 I9.247 J-0.024 E3.00266
G1 X102.396 Y107.967 E3.07103
G1 X102.612 Y107.878 E3.07766
G1 X102.490 Y107.387 F7800.000
G2 X108.750 Y99.043 I-2.347 J-8.333 F1260.000 E3.07766
G1 X108.750 Y80.850 E3.59242
G3 X84.809 Y85.725 I-6.871 J19.785 E3.59242
G3 X91.250 Y80.956 I10.745 J7.245 E3.59242
G1 X91.250 Y99.043 E4.10416
G2 X100.000 Y107.779 I8.749 J-0.008 E4.10416
G1 X102.265 Y107.480 E4.16881
G1 X102.421 Y107.416 E4.17358
G1 X102.887 Y107.691 F7800.000
G1 X95.501 Y108.034
G1 X104.667 Y117.201 F3600.000 E4.55704
G1 X105.296 Y117.091 E4.57593
G1 X96.763 Y108.557 E4.93290
G1 X97.814 Y108.869 E4.96535
G1 X105.873 Y116.928 E5.30246
G1 X106.377 Y116.693 E5.31891
G1 X98.666 Y108.981 E5.64151
G1 X99.517 Y109.094 E5.66691
G1 X106.882 Y116.458 E5.97500
G1 X107.386 Y116.223 E5.99146
G1 X100.283 Y109.120 E6.28862
G1 X100.936 Y109.034 E6.30811
G1 X107.891 Y115.989 E6.59905
G1 X108.395 Y115.754 E6.61551
G1 X101.589 Y108.948 E6.90022
G1 X102.242 Y108.862 E6.91971
G1 X108.900 Y115.519 E7.19821
G1 X109.404 Y115.284 E7.21467
G1 X102.841 Y108.721 E7.48922
G1 X103.364 Y108.505 E7.50596
