; generated by Slic3r 0.9.11-dev on 2013-09-04 at 12:18:11

; layer_height = 0.4
; perimeters = 3
; top_solid_layers = 3
; bottom_solid_layers = 3
; fill_density = 0.4
; perimeter_speed = 30
; infill_speed = 60
; travel_speed = 130
; nozzle_diameter = 0.5
; filament_diameter = 3
; extrusion_multiplier = 1
; perimeters extrusion width = 0.50mm
; infill extrusion width = 0.53mm
; solid infill extrusion width = 0.53mm
; top infill extrusion width = 0.53mm
; first layer extrusion width = 0.70mm

G21 ; set units to millimeters
M107
M104 S200 ; set temperature
G28 ; home all axes
G1 Z5 F5000 ; lift nozzle

M109 S200 ; wait for temperature to be reached
G90 ; use absolute coordinates
G92 E0
M82 ; use absolute distances for extrusion
G1 F1800.000 E-1.00000
G92 E0
G1 Z0.350 F7800.000
G1 X79.979 Y80.662
G1 F1800.000 E1.00000
G1 X80.609 Y80.062 F540.000 E1.02831
G1 X84.709 Y76.622 E1.20243
G1 X85.419 Y76.102 E1.23107
G1 X86.199 Y75.682 E1.25989
G1 X88.709 Y74.522 E1.34985
G1 X90.059 Y74.062 E1.39625
G1 X91.469 Y73.902 E1.44242
G1 X108.469 Y73.832 E1.99553
G1 X109.619 Y73.932 E2.03308
G1 X110.739 Y74.222 E2.07072
G1 X111.719 Y74.572 E2.10458
G1 X112.539 Y74.932 E2.13372
G1 X113.309 Y75.392 E2.16290
G1 X117.689 Y78.472 E2.33711
G1 X118.369 Y79.022 E2.36556
G1 X118.969 Y79.652 E2.39387
G1 X122.399 Y83.752 E2.56779
G1 X122.909 Y84.452 E2.59597
G1 X123.319 Y85.212 E2.62406
G1 X125.579 Y90.062 E2.79815
G1 X125.899 Y90.872 E2.82648
G1 X126.109 Y91.712 E2.85466
G1 X127.039 Y96.982 E3.02877
G1 X127.129 Y97.852 E3.05722
G1 X127.109 Y98.722 E3.08553
G1 X126.639 Y104.052 E3.25962
G1 X126.509 Y104.922 E3.28824
G1 X126.259 Y105.762 E3.31675
G1 X124.419 Y110.792 E3.49101
G1 X124.069 Y111.582 E3.51912
G1 X123.619 Y112.322 E3.54730
G1 X120.549 Y116.702 E3.72133
G1 X120.009 Y117.382 E3.74958
G1 X119.379 Y117.982 E3.77788
G1 X115.279 Y121.422 E3.95201
G1 X114.569 Y121.942 E3.98064
G1 X113.799 Y122.362 E4.00918
G1 X108.949 Y124.612 E4.18313
G1 X108.149 Y124.922 E4.21104
G1 X107.309 Y125.132 E4.23921
G1 X102.039 Y126.062 E4.41332
G1 X101.169 Y126.152 E4.44178
G1 X100.299 Y126.132 E4.47009
G1 X94.959 Y125.662 E4.64450
G1 X94.099 Y125.532 E4.67280
G1 X93.259 Y125.282 E4.70132
G1 X88.239 Y123.452 E4.87516
G1 X87.439 Y123.102 E4.90357
G1 X86.689 Y122.652 E4.93202
G1 X82.309 Y119.572 E5.10623
G1 X81.639 Y119.022 E5.13444
G1 X81.039 Y118.402 E5.16251
G1 X77.599 Y114.302 E5.33664
G1 X77.079 Y113.602 E5.36501
G1 X76.669 Y112.832 E5.39339
G1 X74.409 Y107.982 E5.56747
G1 X74.089 Y107.172 E5.59581
G1 X73.879 Y106.312 E5.62461
G1 X72.959 Y101.042 E5.79867
G1 X72.869 Y100.182 E5.82680
G1 X72.889 Y99.322 E5.85479
G1 X73.359 Y93.992 E6.02887
G1 X73.489 Y93.132 E6.05717
G1 X73.729 Y92.292 E6.08559
G1 X75.559 Y87.262 E6.25974
G1 X75.919 Y86.472 E6.28799
G1 X76.369 Y85.722 E6.31644
G1 X79.439 Y81.342 E6.49047
G1 X79.918 Y80.740 E6.51551
G1 F1800.000 E5.51551
G92 E0
G1 X89.857 Y99.134 F7800.000
G1 F1800.000 E1.00000
G1 X90.189 Y101.655 F540.000 E1.08273
G1 X91.204 Y104.105 E1.16900
G1 X92.818 Y106.208 E1.25527
G1 X94.922 Y107.823 E1.34153
G1 X97.371 Y108.837 E1.42780
G1 X100.000 Y109.183 E1.51407
G1 X102.629 Y108.837 E1.60033
G1 X105.078 Y107.823 E1.68660
G1 X107.182 Y106.208 E1.77286
G1 X108.796 Y104.105 E1.85913
G1 X109.811 Y101.655 E1.94540
G1 X110.143 Y99.134 E2.02813
G1 X110.143 Y83.321 E2.54260
G1 X112.741 Y85.143 E2.64584
G1 X115.900 Y88.914 E2.80588
G1 X117.975 Y93.374 E2.96592
G1 X118.826 Y98.218 E3.12596
G1 X118.393 Y103.118 E3.28600
G1 X116.708 Y107.740 E3.44605
G1 X113.883 Y111.767 E3.60609
G1 X110.113 Y114.926 E3.76613
G1 X105.653 Y117.002 E3.92617
G1 X100.808 Y117.852 E4.08622
G1 X95.908 Y117.420 E4.24626
G1 X91.287 Y115.734 E4.40630
G1 X87.259 Y112.910 E4.56634
G1 X84.100 Y109.139 E4.72638
G1 X82.025 Y104.679 E4.88643
G1 X81.174 Y99.834 E5.04647
G1 X81.607 Y94.934 E5.20651
G1 X83.292 Y90.313 E5.36655
G1 X86.117 Y86.286 E5.52659
G1 X89.857 Y83.152 E5.68536
G1 X89.857 Y99.036 E6.20213
G1 X90.514 Y99.091 F7800.000
G1 X90.829 Y101.484 F540.000 E6.28065
G1 X91.778 Y103.773 E6.36129
G1 X93.287 Y105.740 E6.44192
G1 X95.253 Y107.249 E6.52256
G1 X97.543 Y108.197 E6.60320
G1 X100.000 Y108.521 E6.68384
G1 X102.457 Y108.197 E6.76447
G1 X104.747 Y107.249 E6.84511
G1 X106.713 Y105.740 E6.92575
G1 X108.222 Y103.773 E7.00639
G1 X109.171 Y101.484 E7.08702
G1 X109.486 Y99.091 E7.16554
G1 X109.486 Y82.058 E7.71971
G1 X113.189 Y84.655 E7.86687
G1 X116.459 Y88.558 E8.03254
G1 X118.607 Y93.175 E8.19821
G1 X119.488 Y98.190 E8.36388
G1 X119.040 Y103.262 E8.52955
G1 X117.295 Y108.046 E8.69522
G1 X114.371 Y112.215 E8.86090
G1 X110.468 Y115.485 E9.02657
G1 X105.852 Y117.634 E9.19224
G1 X100.836 Y118.514 E9.35791
G1 X95.764 Y118.067 E9.52358
G1 X90.980 Y116.322 E9.68925
G1 X86.811 Y113.398 E9.85492
G1 X83.541 Y109.495 E10.02059
G1 X81.393 Y104.878 E10.18626
G1 X80.512 Y99.863 E10.35194
G1 X80.960 Y94.790 E10.51761
G1 X82.705 Y90.007 E10.68328
G1 X85.629 Y85.838 E10.84895
G1 X89.532 Y82.568 E11.01462
G1 X90.514 Y82.110 E11.04988
G1 X90.514 Y98.992 E11.59915
G1 X91.171 Y99.048 F7800.000
G1 X91.470 Y101.312 F378.000 E11.67345
G1 X92.352 Y103.442 E11.74846
G1 X93.755 Y105.271 E11.82347
G1 X95.584 Y106.675 E11.89848
G1 X97.714 Y107.557 E11.97349
G1 X100.000 Y107.858 E12.04849
G1 X102.286 Y107.557 E12.12350
G1 X104.416 Y106.675 E12.19851
G1 X106.245 Y105.271 E12.27352
G1 X107.648 Y103.442 E12.34853
G1 X108.530 Y101.312 E12.42354
G1 X108.829 Y99.048 E12.49784
G1 X108.829 Y80.962 E13.08627
G1 X109.326 Y81.144 E13.10350
G1 X113.637 Y84.167 E13.27480
G1 X117.018 Y88.202 E13.44610
G1 X119.240 Y92.976 E13.61740
G1 X120.150 Y98.162 E13.78870
G1 X119.687 Y103.406 E13.96000
G1 X117.883 Y108.353 E14.13130
G1 X114.860 Y112.663 E14.30260
G1 X110.824 Y116.045 E14.47390
G1 X106.051 Y118.266 E14.64520
G1 X100.865 Y119.176 E14.81650
G1 X95.793 Y118.729 E14.98214
G1 X95.793 Y118.777 E14.98370
G1 X90.674 Y116.909 E15.16100
G1 X86.363 Y113.886 E15.33230
G1 X83.014 Y109.889 E15.50196
G1 X82.982 Y109.850 E15.50360
G1 X80.760 Y105.077 E15.67490
G1 X79.850 Y99.891 E15.84620
G1 X80.313 Y94.646 E16.01750
G1 X82.117 Y89.700 E16.18880
G1 X85.140 Y85.390 E16.36010
G1 X89.176 Y82.008 E16.53140
G1 X91.171 Y81.080 E16.60301
G1 X91.171 Y98.949 E17.18441
G1 X90.633 Y99.425 F7800.000
G1 X90.500 Y103.651
G1 X82.060 Y95.211 F1080.000 E17.57505
G1 X82.275 Y94.491 E17.59964
G1 X89.839 Y102.055 E17.94974
G1 X89.608 Y100.889 E17.98865
G1 X82.525 Y93.806 E18.31648
G1 X82.775 Y93.121 E18.34034
G1 X89.466 Y99.813 E18.65004
G1 X89.381 Y98.793 E18.68354
G1 X83.025 Y92.436 E18.97773
G1 X83.275 Y91.751 E19.00159
G1 X89.381 Y97.858 E19.28422
G1 X89.381 Y96.923 E19.31481
G1 X83.525 Y91.067 E19.58588
G1 X83.805 Y90.412 E19.60918
G1 X89.381 Y95.988 E19.86727
G1 X89.381 Y95.054 E19.89786
G1 X84.190 Y89.863 E20.13812
G1 X84.575 Y89.313 E20.16008
G1 X89.381 Y94.119 E20.38251
G1 X89.381 Y93.184 E20.41310
G1 X84.961 Y88.764 E20.61769
G1 X85.346 Y88.214 E20.63966
G1 X89.381 Y92.249 E20.82641
G1 X89.381 Y91.315 E20.85700
G1 X85.731 Y87.665 E21.02592
G1 X86.117 Y87.116 E21.04789
G1 X89.381 Y90.380 E21.19897
G1 X89.381 Y89.445 E21.22957
G1 X86.512 Y86.576 E21.36236
G1 X87.021 Y86.150 E21.38407
G1 X89.381 Y88.510 E21.49332
G1 X89.381 Y87.576 E21.52391
G1 X87.529 Y85.724 E21.60962
G1 X88.038 Y85.298 E21.63134
G1 X89.381 Y86.641 E21.69350
G1 X89.381 Y85.706 E21.72410
G1 X88.547 Y84.872 E21.76272
G1 X89.055 Y84.445 E21.78444
G1 X89.381 Y84.771 E21.79952
G1 X82.379 Y103.942 F7800.000
G1 X95.029 Y116.592 F1080.000 E22.38501
G1 X96.352 Y116.981 E22.43016
G1 X82.180 Y102.809 E23.08612
G1 X81.981 Y101.675 E23.12379
G1 X97.378 Y117.071 E23.83641
G1 X98.403 Y117.162 E23.87010
G1 X81.782 Y100.541 E24.63938
G1 X81.681 Y99.506 E24.67342
G1 X99.428 Y117.252 E25.49481
G1 X100.453 Y117.343 E25.52850
G1 X81.757 Y98.647 E26.39383
G1 X81.833 Y97.788 E26.42205
G1 X101.323 Y117.278 E27.32415
G1 X102.118 Y117.139 E27.35057
G1 X81.909 Y96.929 E28.28597
G1 X81.984 Y96.070 E28.31419
G1 X102.914 Y116.999 E29.28288
G1 X103.709 Y116.859 E29.30930
G1 X95.375 Y108.526 E29.69500
G1 X96.971 Y109.187 F7800.000
G1 X104.504 Y116.720 F1080.000 E30.04365
G1 X105.299 Y116.580 E30.07007
G1 X98.137 Y109.418 E30.40155
G1 X99.214 Y109.560 E30.43709
G1 X105.978 Y116.325 E30.75018
G1 X106.616 Y116.028 E30.77321
G1 X100.223 Y109.634 E31.06913
G1 X101.049 Y109.526 E31.09640
G1 X107.254 Y115.731 E31.38361
G1 X107.892 Y115.434 E31.40664
G1 X101.875 Y109.417 E31.68515
G1 X102.701 Y109.308 E31.71241
G1 X108.530 Y115.137 E31.98221
G1 X109.168 Y114.840 E32.00524
G1 X103.372 Y109.045 E32.27349
G1 X104.033 Y108.771 E32.29690
G1 X109.806 Y114.544 E32.56408
G1 X110.324 Y114.127 E32.58584
G1 X104.694 Y108.497 E32.84643
G1 X105.348 Y108.216 E32.86972
G1 X110.833 Y113.701 E33.12359
G1 X111.342 Y113.275 E33.14531
G1 X105.877 Y107.810 E33.39824
G1 X106.406 Y107.404 E33.42006
G1 X111.850 Y112.849 E33.67205
G1 X112.359 Y112.423 E33.69377
G1 X106.935 Y106.999 E33.94483
G1 X107.463 Y106.593 E33.96665
G1 X112.867 Y111.997 E34.21676
G1 X113.376 Y111.571 E34.23848
G1 X107.883 Y106.077 E34.49272
G1 X108.289 Y105.548 E34.51454
G1 X113.798 Y111.058 E34.76956
G1 X114.184 Y110.509 E34.79152
G1 X108.695 Y105.020 E35.04559
G1 X109.100 Y104.491 E35.06741
G1 X114.569 Y109.959 E35.32052
G1 X114.954 Y109.410 E35.34249
G1 X109.411 Y103.866 E35.59908
G1 X109.684 Y103.205 E35.62250
G1 X115.340 Y108.861 E35.88425
G1 X115.725 Y108.311 E35.90622
G1 X109.958 Y102.544 E36.17314
G1 X110.232 Y101.883 E36.19655
G1 X116.110 Y107.762 E36.46864
G1 X116.420 Y107.137 E36.49146
G1 X110.366 Y101.083 E36.77166
G1 X110.475 Y100.257 E36.79893
G1 X116.670 Y106.452 E37.08567
G1 X116.920 Y105.767 E37.10953
G1 X110.584 Y99.431 E37.40279
G1 X110.619 Y98.531 E37.43226
G1 X117.170 Y105.082 E37.73547
G1 X117.420 Y104.397 E37.75933
G1 X110.619 Y97.596 E38.07411
G1 X110.619 Y96.662 E38.10470
G1 X117.670 Y103.712 E38.43104
G1 X117.920 Y103.028 E38.45490
G1 X110.619 Y95.727 E38.79281
G1 X110.619 Y94.792 E38.82340
G1 X117.999 Y102.172 E39.16497
G1 X118.075 Y101.313 E39.19319
G1 X110.619 Y93.857 E39.53827
G1 X110.619 Y92.923 E39.56887
G1 X118.150 Y100.454 E39.91745
G1 X118.226 Y99.595 E39.94567
G1 X110.619 Y91.988 E40.29777
G1 X110.619 Y91.053 E40.32836
G1 X118.302 Y98.736 E40.68397
G1 X118.262 Y97.761 E40.71589
G1 X110.619 Y90.118 E41.06965
G1 X110.619 Y89.184 E41.10024
G1 X118.063 Y96.628 E41.44478
G1 X117.864 Y95.494 E41.48245
G1 X110.619 Y88.249 E41.81778
G1 X110.619 Y87.314 E41.84837
G1 X117.665 Y94.360 E42.17449
G1 X117.308 Y93.068 E42.21835
G1 X110.619 Y86.379 E42.52794
G1 X110.619 Y85.445 E42.55853
G1 X116.494 Y91.320 E42.83046
G1 X115.680 Y89.571 F7800.000
G1 X110.619 Y84.510 F1080.000 E43.06472
G1 F1800.000 E42.06472
G92 E0
G1 X82.871 Y105.369 F7800.000
G1 F1800.000 E1.00000
G1 X93.557 Y116.055 F1080.000 E1.49459
G1 X92.086 Y115.518 F7800.000
G1 X83.685 Y107.118 F1080.000 E1.88339
G1 X84.499 Y108.866 F7800.000
G1 X89.606 Y113.973 F1080.000 E2.11975
M106 S205
G1 F1800.000 E1.11975
G92 E0
G1 Z0.750 F7800.000
G1 X95.700 Y117.762
G1 F1800.000 E1.00000
G1 X91.104 Y116.085 F1800.000 E1.13843
G1 X86.992 Y113.201 E1.28054
G1 X83.766 Y109.352 E1.42265
G1 X81.647 Y104.798 E1.56475
G1 X80.778 Y99.851 E1.70686
G1 X81.209 Y94.978 E1.84529
G1 X81.220 Y94.848 E1.84896
G1 X82.941 Y90.130 E1.99107
G1 X85.825 Y86.018 E2.13318
G1 X89.675 Y82.793 E2.27528
G1 X90.250 Y82.525 E2.29323
G1 X90.250 Y99.108 E2.76245
G1 X90.572 Y101.553 E2.83221
G1 X91.547 Y103.907 E2.90430
G1 X93.098 Y105.928 E2.97640
G1 X95.120 Y107.479 E3.04849
G1 X97.474 Y108.455 E3.12059
G1 X100.000 Y108.787 E3.19269
G1 X102.526 Y108.455 E3.26478
G1 X104.880 Y107.479 E3.33688
G1 X106.902 Y105.928 E3.40897
G1 X108.453 Y103.907 E3.48107
G1 X109.428 Y101.553 E3.55316
G1 X109.750 Y99.108 E3.62292
G1 X109.750 Y82.566 E4.09097
G1 X113.008 Y84.851 E4.20357
G1 X116.234 Y88.701 E4.34568
G1 X118.353 Y93.255 E4.48778
G1 X119.222 Y98.201 E4.62989
G1 X118.791 Y103.075 E4.76832
G1 X118.780 Y103.204 E4.77200
G1 X117.059 Y107.923 E4.91410
G1 X114.175 Y112.035 E5.05621
G1 X114.075 Y112.118 E5.05988
G1 X110.325 Y115.260 E5.19831
G1 X105.772 Y117.379 E5.34042
G1 X100.825 Y118.248 E5.48253
G1 X95.822 Y117.806 E5.62463
G1 X95.770 Y117.788 E5.62618
G1 X95.529 Y118.232 F7800.000
G1 X90.870 Y116.532 F1800.000 E5.76648
G1 X86.651 Y113.573 E5.91231
G1 X83.341 Y109.622 E6.05814
G1 X81.166 Y104.949 E6.20397
G1 X80.275 Y99.873 E6.34980
G1 X80.728 Y94.739 E6.49563
G1 X82.494 Y89.897 E6.64147
G1 X85.453 Y85.677 E6.78730
G1 X89.404 Y82.367 E6.93313
G1 X90.750 Y81.741 E6.97513
G1 X90.750 Y99.076 E7.46561
G1 X91.059 Y101.422 E7.53257
G1 X91.984 Y103.655 E7.60094
G1 X93.455 Y105.572 E7.66932
G1 X95.372 Y107.043 E7.73769
G1 X97.604 Y107.967 E7.80606
G1 X100.000 Y108.283 E7.87443
G1 X102.396 Y107.967 E7.94280
G1 X104.628 Y107.043 E8.01117
G1 X106.545 Y105.572 E8.07954
G1 X108.016 Y103.655 E8.14791
G1 X108.941 Y101.422 E8.21628
G1 X109.250 Y99.076 E8.28325
G1 X109.250 Y81.605 E8.77757
G1 X113.349 Y84.480 E8.91924
G1 X116.659 Y88.431 E9.06507
G1 X118.834 Y93.103 E9.21090
G1 X119.725 Y98.180 E9.35673
G1 X119.290 Y103.119 E9.49703
G1 X119.272 Y103.314 E9.50256
G1 X117.506 Y108.156 E9.64839
G1 X114.547 Y112.376 E9.79422
G1 X114.397 Y112.501 E9.79976
G1 X110.596 Y115.686 E9.94005
G1 X105.923 Y117.861 E10.08588
G1 X100.847 Y118.752 E10.23172
G1 X95.712 Y118.299 E10.37755
G1 X95.599 Y118.257 E10.38096
G1 X95.357 Y118.701 F7800.000
G1 X90.637 Y116.980 F1260.000 E10.52312
G1 X86.310 Y113.945 E10.67267
G1 X82.915 Y109.893 E10.82223
G1 X80.685 Y105.101 E10.97179
G1 X79.771 Y99.895 E11.12134
G1 X80.235 Y94.629 E11.27090
G1 X82.047 Y89.664 E11.42045
G1 X85.082 Y85.336 E11.57001
G1 X89.134 Y81.941 E11.71957
G1 X91.250 Y80.956 E11.78562
G1 X91.250 Y99.043 E12.29736
G1 X91.546 Y101.292 E12.36154
G1 X92.420 Y103.402 E12.42618
G1 X93.811 Y105.215 E12.49083
G1 X93.934 Y105.309 E12.49521
G1 X95.624 Y106.606 E12.55547
G1 X97.735 Y107.480 E12.62012
G1 X100.000 Y107.779 E12.68476
G1 X102.265 Y107.480 E12.74941
G1 X104.376 Y106.606 E12.81406
G1 X106.189 Y105.215 E12.87870
G1 X107.485 Y103.525 E12.93896
G1 X107.580 Y103.402 E12.94335
G1 X108.454 Y101.292 E13.00799
G1 X108.750 Y99.043 E13.07217
G1 X108.750 Y80.850 E13.58693
G1 X109.363 Y81.073 E13.60538
G1 X113.690 Y84.108 E13.75494
G1 X117.085 Y88.160 E13.90450
G1 X119.315 Y92.952 E14.05405
G1 X120.229 Y98.158 E14.20361
G1 X119.765 Y103.424 E14.35316
G1 X117.953 Y108.389 E14.50272
G1 X114.918 Y112.717 E14.65228
G1 X110.866 Y116.111 E14.80183
G1 X106.074 Y118.342 E14.95139
G1 X100.868 Y119.256 E15.10094
G1 X95.603 Y118.791 E15.25050
G1 X95.428 Y118.727 E15.25578
G1 X95.271 Y118.209 F7800.000
G1 X105.960 Y116.887
G1 X117.670 Y105.178 F3600.000 E15.74562
G1 X117.245 Y106.341 F7800.000
G1 X107.343 Y116.244 F3600.000 E16.15986
G1 X108.726 Y115.600 F7800.000
G1 X116.821 Y107.505 F3600.000 E16.49849
G1 X115.363 Y109.703 F7800.000
G1 X110.109 Y114.956 F3600.000 E16.71827
G1 X104.438 Y108.060 F7800.000
G1 X95.280 Y117.218 F3600.000 E17.10140
G1 X95.821 Y117.416 E17.11846
G1 X106.664 Y106.574 E17.57202
G1 X107.547 Y105.690 F7800.000
G1 X118.280 Y94.958 F3600.000 E18.02099
G1 X118.390 Y95.586 E18.03988
G1 X96.480 Y117.496 E18.95644
G1 X97.159 Y117.556 E18.97661
G1 X118.500 Y96.215 E19.86937
G1 X118.611 Y96.844 E19.88826
G1 X97.839 Y117.616 E20.75722
G1 X98.518 Y117.676 E20.77739
G1 X118.721 Y97.473 E21.62255
G1 X118.832 Y98.102 E21.64144
G1 X99.197 Y117.736 E22.46280
G1 X99.877 Y117.796 E22.48297
G1 X118.794 Y98.879 E23.27432
G1 X118.722 Y99.690 E23.29840
G1 X100.556 Y117.856 E24.05834
G1 X101.372 Y117.780 E24.08258
G1 X118.650 Y100.501 E24.80540
G1 X118.579 Y101.312 E24.82948
G1 X102.268 Y117.622 E25.51180
G1 X103.165 Y117.465 E25.53873
G1 X118.507 Y102.122 E26.18055
G1 X118.436 Y102.933 E26.20463
G1 X104.062 Y117.307 E26.80594
G1 X104.958 Y117.150 E26.83287
G1 X118.094 Y104.014 E27.38239
G1 X109.033 Y103.465 F7800.000
G1 X118.169 Y94.329 F3600.000 E27.76458
G1 X118.059 Y93.700 E27.78346
G1 X109.556 Y102.203 E28.13916
G1 X109.848 Y101.171 E28.17088
G1 X117.890 Y93.129 E28.50729
G1 X117.655 Y92.625 E28.52375
G1 X109.960 Y100.320 E28.84565
G1 X110.073 Y99.468 E28.87105
G1 X117.421 Y92.120 E29.17844
